(1001)
(T3  D=1.2 CR=0 - ZMIN=-1.6 - flat end mill)
G90 G94
G17
G21

(2D Contour1)
T3
S8000 M3
G54
G0 X41.385 Y32.793
Z10
Z5
G1 Z1.5 F200
Z-0.38
X41.391 Z-0.417 F300
X41.408 Z-0.451
X41.434 Y32.794 Z-0.477
X41.468 Y32.795 Z-0.494
X41.505 Y32.796 Z-0.5
X41.625 Y32.799
X41.662 Y32.806
X41.695 Y32.823
X41.721 Y32.851
X41.737 Y32.885
X41.742 Y32.922
G3 X37.943 Y32.828 I-1.899 J-0.047 F100
X41.742 Y32.922 I1.899 J0.047
G1 X41.735 Y32.959 F300
X41.717 Y32.992
X41.69 Y33.018
X41.656 Y33.034
X41.619 Y33.039
X41.499 Y33.036
X41.462 Y33.035 Z-0.494
X41.428 Y33.034 Z-0.477
X41.402 Y33.033 Z-0.451
X41.385 Z-0.417
X41.379 Z-0.38
G0 Z5
X41.385 Y32.793
G1 Z1 F200
Z-0.88
X41.391 Z-0.917 F300
X41.408 Z-0.951
X41.434 Y32.794 Z-0.977
X41.468 Y32.795 Z-0.994
X41.505 Y32.796 Z-1
X41.625 Y32.799
X41.662 Y32.806
X41.695 Y32.823
X41.721 Y32.851
X41.737 Y32.885
X41.742 Y32.922
G3 X37.943 Y32.828 I-1.899 J-0.047 F100
X41.742 Y32.922 I1.899 J0.047
G1 X41.735 Y32.959 F300
X41.717 Y32.992
X41.69 Y33.018
X41.656 Y33.034
X41.619 Y33.039
X41.499 Y33.036
X41.462 Y33.035 Z-0.994
X41.428 Y33.034 Z-0.977
X41.402 Y33.033 Z-0.951
X41.385 Z-0.917
X41.379 Z-0.88
G0 Z5
X41.385 Y32.793
G1 Z0.5 F200
Z-1.28
X41.391 Z-1.317 F300
X41.408 Z-1.351
X41.434 Y32.794 Z-1.377
X41.468 Y32.795 Z-1.394
X41.505 Y32.796 Z-1.4
X41.625 Y32.799
X41.662 Y32.806
X41.695 Y32.823
X41.721 Y32.851
X41.737 Y32.885
X41.742 Y32.922
G3 X37.943 Y32.828 I-1.899 J-0.047 F100
X41.742 Y32.922 I1.899 J0.047
G1 X41.735 Y32.959 F300
X41.717 Y32.992
X41.69 Y33.018
X41.656 Y33.034
X41.619 Y33.039
X41.499 Y33.036
X41.462 Y33.035 Z-1.394
X41.428 Y33.034 Z-1.377
X41.402 Y33.033 Z-1.351
X41.385 Z-1.317
X41.379 Z-1.28
G0 Z5
X41.385 Y32.793
G1 Z0.1 F200
Z-1.48
X41.391 Z-1.517 F300
X41.408 Z-1.551
X41.434 Y32.794 Z-1.577
X41.468 Y32.795 Z-1.594
X41.505 Y32.796 Z-1.6
X41.625 Y32.799
X41.662 Y32.806
X41.695 Y32.823
X41.721 Y32.851
X41.737 Y32.885
X41.742 Y32.922
G3 X37.943 Y32.828 I-1.899 J-0.047 F100
X41.742 Y32.922 I1.899 J0.047
G1 X41.735 Y32.959 F300
X41.717 Y32.992
X41.69 Y33.018
X41.656 Y33.034
X41.619 Y33.039
X41.499 Y33.036
X41.462 Y33.035 Z-1.594
X41.428 Y33.034 Z-1.577
X41.402 Y33.033 Z-1.551
X41.385 Z-1.517
X41.379 Z-1.48
G0 Z5
X40.411 Y28.674
G1 Z1.5 F200
Z-0.38
X40.417 Z-0.417 F300
X40.434 Z-0.451
X40.461 Z-0.477
X40.494 Z-0.494
X40.531 Z-0.5
X40.651 Y28.673
X40.688 Y28.679
X40.722 Y28.696
X40.748 Y28.723
X40.765 Y28.756
X40.771 Y28.793
Y28.943 F100
X38.975
Y28.645
X40.771 Y28.644
Y28.793
X40.765 Y28.83 F300
X40.748 Y28.864
X40.722 Y28.89
X40.688 Y28.908
X40.651 Y28.913
X40.531 Y28.914
X40.494 Z-0.494
X40.461 Z-0.477
X40.434 Z-0.451
X40.417 Z-0.417
X40.411 Z-0.38
G0 Z5
Y28.674
G1 Z1 F200
Z-0.88
X40.417 Z-0.917 F300
X40.434 Z-0.951
X40.461 Z-0.977
X40.494 Z-0.994
X40.531 Z-1
X40.651 Y28.673
X40.688 Y28.679
X40.722 Y28.696
X40.748 Y28.723
X40.765 Y28.756
X40.771 Y28.793
Y28.943 F100
X38.975
Y28.645
X40.771 Y28.644
Y28.793
X40.765 Y28.83 F300
X40.748 Y28.864
X40.722 Y28.89
X40.688 Y28.908
X40.651 Y28.913
X40.531 Y28.914
X40.494 Z-0.994
X40.461 Z-0.977
X40.434 Z-0.951
X40.417 Z-0.917
X40.411 Z-0.88
G0 Z5
Y28.674
G1 Z0.5 F200
Z-1.28
X40.417 Z-1.317 F300
X40.434 Z-1.351
X40.461 Z-1.377
X40.494 Z-1.394
X40.531 Z-1.4
X40.651 Y28.673
X40.688 Y28.679
X40.722 Y28.696
X40.748 Y28.723
X40.765 Y28.756
X40.771 Y28.793
Y28.943 F100
X38.975
Y28.645
X40.771 Y28.644
Y28.793
X40.765 Y28.83 F300
X40.748 Y28.864
X40.722 Y28.89
X40.688 Y28.908
X40.651 Y28.913
X40.531 Y28.914
X40.494 Z-1.394
X40.461 Z-1.377
X40.434 Z-1.351
X40.417 Z-1.317
X40.411 Z-1.28
G0 Z5
Y28.674
G1 Z0.1 F200
Z-1.48
X40.417 Z-1.517 F300
X40.434 Z-1.551
X40.461 Z-1.577
X40.494 Z-1.594
X40.531 Z-1.6
X40.651 Y28.673
X40.688 Y28.679
X40.722 Y28.696
X40.748 Y28.723
X40.765 Y28.756
X40.771 Y28.793
Y28.943 F100
X38.975
Y28.645
X40.771 Y28.644
Y28.793
X40.765 Y28.83 F300
X40.748 Y28.864
X40.722 Y28.89
X40.688 Y28.908
X40.651 Y28.913
X40.531 Y28.914
X40.494 Z-1.594
X40.461 Z-1.577
X40.434 Z-1.551
X40.417 Z-1.517
X40.411 Z-1.48
G0 Z5
X40.957 Y20.255
G1 Z1.5 F200
Z-0.38
X40.963 Z-0.417 F300
X40.98 Z-0.451
X41.007 Z-0.477
X41.04 Z-0.494
X41.077 Z-0.5
X41.197
X41.234 Y20.261
X41.268 Y20.278
X41.294 Y20.305
X41.312 Y20.338
X41.317 Y20.375
G3 X38.367 Y20.375 I-1.475 J0 F100
X41.317 Y20.375 I1.475 J0
G1 X41.312 Y20.412 F300
X41.294 Y20.446
X41.268 Y20.472
X41.234 Y20.489
X41.197 Y20.495
X41.077
X41.04 Z-0.494
X41.007 Z-0.477
X40.98 Z-0.451
X40.963 Z-0.417
X40.957 Z-0.38
G0 Z5
Y20.255
G1 Z1 F200
Z-0.88
X40.963 Z-0.917 F300
X40.98 Z-0.951
X41.007 Z-0.977
X41.04 Z-0.994
X41.077 Z-1
X41.197
X41.234 Y20.261
X41.268 Y20.278
X41.294 Y20.305
X41.312 Y20.338
X41.317 Y20.375
G3 X38.367 Y20.375 I-1.475 J0 F100
X41.317 Y20.375 I1.475 J0
G1 X41.312 Y20.412 F300
X41.294 Y20.446
X41.268 Y20.472
X41.234 Y20.489
X41.197 Y20.495
X41.077
X41.04 Z-0.994
X41.007 Z-0.977
X40.98 Z-0.951
X40.963 Z-0.917
X40.957 Z-0.88
G0 Z5
Y20.255
G1 Z0.5 F200
Z-1.28
X40.963 Z-1.317 F300
X40.98 Z-1.351
X41.007 Z-1.377
X41.04 Z-1.394
X41.077 Z-1.4
X41.197
X41.234 Y20.261
X41.268 Y20.278
X41.294 Y20.305
X41.312 Y20.338
X41.317 Y20.375
G3 X38.367 Y20.375 I-1.475 J0 F100
X41.317 Y20.375 I1.475 J0
G1 X41.312 Y20.412 F300
X41.294 Y20.446
X41.268 Y20.472
X41.234 Y20.489
X41.197 Y20.495
X41.077
X41.04 Z-1.394
X41.007 Z-1.377
X40.98 Z-1.351
X40.963 Z-1.317
X40.957 Z-1.28
G0 Z5
Y20.255
G1 Z0.1 F200
Z-1.48
X40.963 Z-1.517 F300
X40.98 Z-1.551
X41.007 Z-1.577
X41.04 Z-1.594
X41.077 Z-1.6
X41.197
X41.234 Y20.261
X41.268 Y20.278
X41.294 Y20.305
X41.312 Y20.338
X41.317 Y20.375
G3 X38.367 Y20.375 I-1.475 J0 F100
X41.317 Y20.375 I1.475 J0
G1 X41.312 Y20.412 F300
X41.294 Y20.446
X41.268 Y20.472
X41.234 Y20.489
X41.197 Y20.495
X41.077
X41.04 Z-1.594
X41.007 Z-1.577
X40.98 Z-1.551
X40.963 Z-1.517
X40.957 Z-1.48
G0 Z5
X40.386 Y16.202
G1 Z1.5 F200
Z-0.38
X40.392 Z-0.417 F300
X40.409 Z-0.451
X40.435 Z-0.477
X40.469 Z-0.494
X40.506 Z-0.5
X40.626
X40.663 Y16.208
X40.696 Y16.225
X40.723 Y16.251
X40.74 Y16.285
X40.746 Y16.322
Y16.471 F100
X38.949
Y16.173
X40.746
Y16.322
X40.74 Y16.359 F300
X40.723 Y16.392
X40.696 Y16.419
X40.663 Y16.436
X40.626 Y16.442
X40.506
X40.469 Z-0.494
X40.435 Z-0.477
X40.409 Z-0.451
X40.392 Z-0.417
X40.386 Z-0.38
G0 Z5
Y16.202
G1 Z1 F200
Z-0.88
X40.392 Z-0.917 F300
X40.409 Z-0.951
X40.435 Z-0.977
X40.469 Z-0.994
X40.506 Z-1
X40.626
X40.663 Y16.208
X40.696 Y16.225
X40.723 Y16.251
X40.74 Y16.285
X40.746 Y16.322
Y16.471 F100
X38.949
Y16.173
X40.746
Y16.322
X40.74 Y16.359 F300
X40.723 Y16.392
X40.696 Y16.419
X40.663 Y16.436
X40.626 Y16.442
X40.506
X40.469 Z-0.994
X40.435 Z-0.977
X40.409 Z-0.951
X40.392 Z-0.917
X40.386 Z-0.88
G0 Z5
Y16.202
G1 Z0.5 F200
Z-1.28
X40.392 Z-1.317 F300
X40.409 Z-1.351
X40.435 Z-1.377
X40.469 Z-1.394
X40.506 Z-1.4
X40.626
X40.663 Y16.208
X40.696 Y16.225
X40.723 Y16.251
X40.74 Y16.285
X40.746 Y16.322
Y16.471 F100
X38.949
Y16.173
X40.746
Y16.322
X40.74 Y16.359 F300
X40.723 Y16.392
X40.696 Y16.419
X40.663 Y16.436
X40.626 Y16.442
X40.506
X40.469 Z-1.394
X40.435 Z-1.377
X40.409 Z-1.351
X40.392 Z-1.317
X40.386 Z-1.28
G0 Z5
Y16.202
G1 Z0.1 F200
Z-1.48
X40.392 Z-1.517 F300
X40.409 Z-1.551
X40.435 Z-1.577
X40.469 Z-1.594
X40.506 Z-1.6
X40.626
X40.663 Y16.208
X40.696 Y16.225
X40.723 Y16.251
X40.74 Y16.285
X40.746 Y16.322
Y16.471 F100
X38.949
Y16.173
X40.746
Y16.322
X40.74 Y16.359 F300
X40.723 Y16.392
X40.696 Y16.419
X40.663 Y16.436
X40.626 Y16.442
X40.506
X40.469 Z-1.594
X40.435 Z-1.577
X40.409 Z-1.551
X40.392 Z-1.517
X40.386 Z-1.48
G0 Z5
X40.982 Y7.76
G1 Z1.5 F200
Z-0.38
X40.988 Z-0.417 F300
X41.005 Z-0.451
X41.032 Z-0.477
X41.065 Z-0.494
X41.102 Z-0.5
X41.222
X41.259 Y7.766
X41.293 Y7.783
X41.319 Y7.809
X41.336 Y7.843
X41.342 Y7.88
G3 X38.392 Y7.88 I-1.475 J0 F100
X41.342 Y7.88 I1.475 J0
G1 X41.336 Y7.917 F300
X41.319 Y7.95
X41.293 Y7.977
X41.259 Y7.994
X41.222 Y8
X41.102
X41.065 Z-0.494
X41.032 Z-0.477
X41.005 Z-0.451
X40.988 Z-0.417
X40.982 Z-0.38
G0 Z5
Y7.76
G1 Z1 F200
Z-0.88
X40.988 Z-0.917 F300
X41.005 Z-0.951
X41.032 Z-0.977
X41.065 Z-0.994
X41.102 Z-1
X41.222
X41.259 Y7.766
X41.293 Y7.783
X41.319 Y7.809
X41.336 Y7.843
X41.342 Y7.88
G3 X38.392 Y7.88 I-1.475 J0 F100
X41.342 Y7.88 I1.475 J0
G1 X41.336 Y7.917 F300
X41.319 Y7.95
X41.293 Y7.977
X41.259 Y7.994
X41.222 Y8
X41.102
X41.065 Z-0.994
X41.032 Z-0.977
X41.005 Z-0.951
X40.988 Z-0.917
X40.982 Z-0.88
G0 Z5
Y7.76
G1 Z0.5 F200
Z-1.28
X40.988 Z-1.317 F300
X41.005 Z-1.351
X41.032 Z-1.377
X41.065 Z-1.394
X41.102 Z-1.4
X41.222
X41.259 Y7.766
X41.293 Y7.783
X41.319 Y7.809
X41.336 Y7.843
X41.342 Y7.88
G3 X38.392 Y7.88 I-1.475 J0 F100
X41.342 Y7.88 I1.475 J0
G1 X41.336 Y7.917 F300
X41.319 Y7.95
X41.293 Y7.977
X41.259 Y7.994
X41.222 Y8
X41.102
X41.065 Z-1.394
X41.032 Z-1.377
X41.005 Z-1.351
X40.988 Z-1.317
X40.982 Z-1.28
G0 Z5
Y7.76
G1 Z0.1 F200
Z-1.48
X40.988 Z-1.517 F300
X41.005 Z-1.551
X41.032 Z-1.577
X41.065 Z-1.594
X41.102 Z-1.6
X41.222
X41.259 Y7.766
X41.293 Y7.783
X41.319 Y7.809
X41.336 Y7.843
X41.342 Y7.88
G3 X38.392 Y7.88 I-1.475 J0 F100
X41.342 Y7.88 I1.475 J0
G1 X41.336 Y7.917 F300
X41.319 Y7.95
X41.293 Y7.977
X41.259 Y7.994
X41.222 Y8
X41.102
X41.065 Z-1.594
X41.032 Z-1.577
X41.005 Z-1.551
X40.988 Z-1.517
X40.982 Z-1.48
G0 Z5
X51.985 Y7.787
G1 Z1.5 F200
Z-0.38
X51.991 Z-0.417 F300
X52.008 Y7.788 Z-0.451
X52.034 Z-0.477
X52.068 Y7.789 Z-0.494
X52.105 Y7.79 Z-0.5
X52.225 Y7.793
X52.262 Y7.8
X52.295 Y7.818
X52.321 Y7.845
X52.337 Y7.879
X52.342 Y7.916
G3 X49.393 Y7.843 I-1.475 J-0.036 F100
X52.342 Y7.916 I1.475 J0.036
G1 X52.335 Y7.953 F300
X52.317 Y7.986
X52.29 Y8.012
X52.256 Y8.028
X52.219 Y8.033
X52.099 Y8.03
X52.062 Y8.029 Z-0.494
X52.028 Y8.028 Z-0.477
X52.002 Z-0.451
X51.985 Y8.027 Z-0.417
X51.979 Z-0.38
G0 Z5
X51.985 Y7.787
G1 Z1 F200
Z-0.88
X51.991 Z-0.917 F300
X52.008 Y7.788 Z-0.951
X52.034 Z-0.977
X52.068 Y7.789 Z-0.994
X52.105 Y7.79 Z-1
X52.225 Y7.793
X52.262 Y7.8
X52.295 Y7.818
X52.321 Y7.845
X52.337 Y7.879
X52.342 Y7.916
G3 X49.393 Y7.843 I-1.475 J-0.036 F100
X52.342 Y7.916 I1.475 J0.036
G1 X52.335 Y7.953 F300
X52.317 Y7.986
X52.29 Y8.012
X52.256 Y8.028
X52.219 Y8.033
X52.099 Y8.03
X52.062 Y8.029 Z-0.994
X52.028 Y8.028 Z-0.977
X52.002 Z-0.951
X51.985 Y8.027 Z-0.917
X51.979 Z-0.88
G0 Z5
X51.985 Y7.787
G1 Z0.5 F200
Z-1.28
X51.991 Z-1.317 F300
X52.008 Y7.788 Z-1.351
X52.034 Z-1.377
X52.068 Y7.789 Z-1.394
X52.105 Y7.79 Z-1.4
X52.225 Y7.793
X52.262 Y7.8
X52.295 Y7.818
X52.321 Y7.845
X52.337 Y7.879
X52.342 Y7.916
G3 X49.393 Y7.843 I-1.475 J-0.036 F100
X52.342 Y7.916 I1.475 J0.036
G1 X52.335 Y7.953 F300
X52.317 Y7.986
X52.29 Y8.012
X52.256 Y8.028
X52.219 Y8.033
X52.099 Y8.03
X52.062 Y8.029 Z-1.394
X52.028 Y8.028 Z-1.377
X52.002 Z-1.351
X51.985 Y8.027 Z-1.317
X51.979 Z-1.28
G0 Z5
X51.985 Y7.787
G1 Z0.1 F200
Z-1.48
X51.991 Z-1.517 F300
X52.008 Y7.788 Z-1.551
X52.034 Z-1.577
X52.068 Y7.789 Z-1.594
X52.105 Y7.79 Z-1.6
X52.225 Y7.793
X52.262 Y7.8
X52.295 Y7.818
X52.321 Y7.845
X52.337 Y7.879
X52.342 Y7.916
G3 X49.393 Y7.843 I-1.475 J-0.036 F100
X52.342 Y7.916 I1.475 J0.036
G1 X52.335 Y7.953 F300
X52.317 Y7.986
X52.29 Y8.012
X52.256 Y8.028
X52.219 Y8.033
X52.099 Y8.03
X52.062 Y8.029 Z-1.594
X52.028 Y8.028 Z-1.577
X52.002 Z-1.551
X51.985 Y8.027 Z-1.517
X51.979 Z-1.48
G0 Z5
X51.384 Y16.202
G1 Z1.5 F200
Z-0.38
X51.39 Z-0.417 F300
X51.407 Z-0.451
X51.433 Z-0.477
X51.467 Z-0.494
X51.504 Z-0.5
X51.624
X51.661 Y16.208
X51.694 Y16.225
X51.721 Y16.251
X51.738 Y16.285
X51.744 Y16.322
Y16.471 F100
X49.948
X49.947 Y16.173
X51.744
Y16.322
X51.738 Y16.359 F300
X51.721 Y16.392
X51.695 Y16.419
X51.661 Y16.436
X51.624 Y16.442
X51.504
X51.467 Z-0.494
X51.434 Z-0.477
X51.407 Z-0.451
X51.39 Z-0.417
X51.384 Z-0.38
G0 Z5
Y16.202
G1 Z1 F200
Z-0.88
X51.39 Z-0.917 F300
X51.407 Z-0.951
X51.433 Z-0.977
X51.467 Z-0.994
X51.504 Z-1
X51.624
X51.661 Y16.208
X51.694 Y16.225
X51.721 Y16.251
X51.738 Y16.285
X51.744 Y16.322
Y16.471 F100
X49.948
X49.947 Y16.173
X51.744
Y16.322
X51.738 Y16.359 F300
X51.721 Y16.392
X51.695 Y16.419
X51.661 Y16.436
X51.624 Y16.442
X51.504
X51.467 Z-0.994
X51.434 Z-0.977
X51.407 Z-0.951
X51.39 Z-0.917
X51.384 Z-0.88
G0 Z5
Y16.202
G1 Z0.5 F200
Z-1.28
X51.39 Z-1.317 F300
X51.407 Z-1.351
X51.433 Z-1.377
X51.467 Z-1.394
X51.504 Z-1.4
X51.624
X51.661 Y16.208
X51.694 Y16.225
X51.721 Y16.251
X51.738 Y16.285
X51.744 Y16.322
Y16.471 F100
X49.948
X49.947 Y16.173
X51.744
Y16.322
X51.738 Y16.359 F300
X51.721 Y16.392
X51.695 Y16.419
X51.661 Y16.436
X51.624 Y16.442
X51.504
X51.467 Z-1.394
X51.434 Z-1.377
X51.407 Z-1.351
X51.39 Z-1.317
X51.384 Z-1.28
G0 Z5
Y16.202
G1 Z0.1 F200
Z-1.48
X51.39 Z-1.517 F300
X51.407 Z-1.551
X51.433 Z-1.577
X51.467 Z-1.594
X51.504 Z-1.6
X51.624
X51.661 Y16.208
X51.694 Y16.225
X51.721 Y16.251
X51.738 Y16.285
X51.744 Y16.322
Y16.471 F100
X49.948
X49.947 Y16.173
X51.744
Y16.322
X51.738 Y16.359 F300
X51.721 Y16.392
X51.695 Y16.419
X51.661 Y16.436
X51.624 Y16.442
X51.504
X51.467 Z-1.594
X51.434 Z-1.577
X51.407 Z-1.551
X51.39 Z-1.517
X51.384 Z-1.48
G0 Z5
X51.957 Y20.255
G1 Z1.5 F200
Z-0.38
X51.963 Z-0.417 F300
X51.98 Z-0.451
X52.007 Z-0.477
X52.04 Z-0.494
X52.077 Z-0.5
X52.197
X52.234 Y20.261
X52.268 Y20.278
X52.294 Y20.305
X52.312 Y20.338
X52.317 Y20.375
G3 X49.367 Y20.375 I-1.475 J0 F100
X52.317 Y20.375 I1.475 J0
G1 X52.312 Y20.412 F300
X52.294 Y20.446
X52.268 Y20.472
X52.234 Y20.489
X52.197 Y20.495
X52.077
X52.04 Z-0.494
X52.007 Z-0.477
X51.98 Z-0.451
X51.963 Z-0.417
X51.957 Z-0.38
G0 Z5
Y20.255
G1 Z1 F200
Z-0.88
X51.963 Z-0.917 F300
X51.98 Z-0.951
X52.007 Z-0.977
X52.04 Z-0.994
X52.077 Z-1
X52.197
X52.234 Y20.261
X52.268 Y20.278
X52.294 Y20.305
X52.312 Y20.338
X52.317 Y20.375
G3 X49.367 Y20.375 I-1.475 J0 F100
X52.317 Y20.375 I1.475 J0
G1 X52.312 Y20.412 F300
X52.294 Y20.446
X52.268 Y20.472
X52.234 Y20.489
X52.197 Y20.495
X52.077
X52.04 Z-0.994
X52.007 Z-0.977
X51.98 Z-0.951
X51.963 Z-0.917
X51.957 Z-0.88
G0 Z5
Y20.255
G1 Z0.5 F200
Z-1.28
X51.963 Z-1.317 F300
X51.98 Z-1.351
X52.007 Z-1.377
X52.04 Z-1.394
X52.077 Z-1.4
X52.197
X52.234 Y20.261
X52.268 Y20.278
X52.294 Y20.305
X52.312 Y20.338
X52.317 Y20.375
G3 X49.367 Y20.375 I-1.475 J0 F100
X52.317 Y20.375 I1.475 J0
G1 X52.312 Y20.412 F300
X52.294 Y20.446
X52.268 Y20.472
X52.234 Y20.489
X52.197 Y20.495
X52.077
X52.04 Z-1.394
X52.007 Z-1.377
X51.98 Z-1.351
X51.963 Z-1.317
X51.957 Z-1.28
G0 Z5
Y20.255
G1 Z0.1 F200
Z-1.48
X51.963 Z-1.517 F300
X51.98 Z-1.551
X52.007 Z-1.577
X52.04 Z-1.594
X52.077 Z-1.6
X52.197
X52.234 Y20.261
X52.268 Y20.278
X52.294 Y20.305
X52.312 Y20.338
X52.317 Y20.375
G3 X49.367 Y20.375 I-1.475 J0 F100
X52.317 Y20.375 I1.475 J0
G1 X52.312 Y20.412 F300
X52.294 Y20.446
X52.268 Y20.472
X52.234 Y20.489
X52.197 Y20.495
X52.077
X52.04 Z-1.594
X52.007 Z-1.577
X51.98 Z-1.551
X51.963 Z-1.517
X51.957 Z-1.48
G0 Z5
X51.409 Y28.674
G1 Z1.5 F200
Z-0.38
X51.415 Z-0.417 F300
X51.432 Z-0.451
X51.459 Z-0.477
X51.492 Z-0.494
X51.529 Z-0.5
X51.649 Y28.673
X51.686 Y28.679
X51.72 Y28.696
X51.746 Y28.723
X51.764 Y28.756
X51.769 Y28.793
X51.77 Y28.943 F100
X49.973
Y28.645
X51.769 Y28.644
Y28.793
X51.764 Y28.83 F300
X51.747 Y28.864
X51.72 Y28.89
X51.687 Y28.908
X51.65 Y28.913
X51.53 Y28.914
X51.493 Z-0.494
X51.459 Z-0.477
X51.433 Z-0.451
X51.415 Z-0.417
X51.41 Z-0.38
G0 Z5
X51.409 Y28.674
G1 Z1 F200
Z-0.88
X51.415 Z-0.917 F300
X51.432 Z-0.951
X51.459 Z-0.977
X51.492 Z-0.994
X51.529 Z-1
X51.649 Y28.673
X51.686 Y28.679
X51.72 Y28.696
X51.746 Y28.723
X51.764 Y28.756
X51.769 Y28.793
X51.77 Y28.943 F100
X49.973
Y28.645
X51.769 Y28.644
Y28.793
X51.764 Y28.83 F300
X51.747 Y28.864
X51.72 Y28.89
X51.687 Y28.908
X51.65 Y28.913
X51.53 Y28.914
X51.493 Z-0.994
X51.459 Z-0.977
X51.433 Z-0.951
X51.415 Z-0.917
X51.41 Z-0.88
G0 Z5
X51.409 Y28.674
G1 Z0.5 F200
Z-1.28
X51.415 Z-1.317 F300
X51.432 Z-1.351
X51.459 Z-1.377
X51.492 Z-1.394
X51.529 Z-1.4
X51.649 Y28.673
X51.686 Y28.679
X51.72 Y28.696
X51.746 Y28.723
X51.764 Y28.756
X51.769 Y28.793
X51.77 Y28.943 F100
X49.973
Y28.645
X51.769 Y28.644
Y28.793
X51.764 Y28.83 F300
X51.747 Y28.864
X51.72 Y28.89
X51.687 Y28.908
X51.65 Y28.913
X51.53 Y28.914
X51.493 Z-1.394
X51.459 Z-1.377
X51.433 Z-1.351
X51.415 Z-1.317
X51.41 Z-1.28
G0 Z5
X51.409 Y28.674
G1 Z0.1 F200
Z-1.48
X51.415 Z-1.517 F300
X51.432 Z-1.551
X51.459 Z-1.577
X51.492 Z-1.594
X51.529 Z-1.6
X51.649 Y28.673
X51.686 Y28.679
X51.72 Y28.696
X51.746 Y28.723
X51.764 Y28.756
X51.769 Y28.793
X51.77 Y28.943 F100
X49.973
Y28.645
X51.769 Y28.644
Y28.793
X51.764 Y28.83 F300
X51.747 Y28.864
X51.72 Y28.89
X51.687 Y28.908
X51.65 Y28.913
X51.53 Y28.914
X51.493 Z-1.594
X51.459 Z-1.577
X51.433 Z-1.551
X51.415 Z-1.517
X51.41 Z-1.48
G0 Z5
X51.957 Y32.755
G1 Z1.5 F200
Z-0.38
X51.963 Z-0.417 F300
X51.98 Z-0.451
X52.007 Z-0.477
X52.04 Z-0.494
X52.077 Z-0.5
X52.197
X52.234 Y32.761
X52.268 Y32.778
X52.294 Y32.805
X52.312 Y32.838
X52.317 Y32.875
G3 X49.367 Y32.875 I-1.475 J0 F100
X52.317 Y32.875 I1.475 J0
G1 X52.312 Y32.912 F300
X52.294 Y32.946
X52.268 Y32.972
X52.234 Y32.989
X52.197 Y32.995
X52.077
X52.04 Z-0.494
X52.007 Z-0.477
X51.98 Z-0.451
X51.963 Z-0.417
X51.957 Z-0.38
G0 Z5
Y32.755
G1 Z1 F200
Z-0.88
X51.963 Z-0.917 F300
X51.98 Z-0.951
X52.007 Z-0.977
X52.04 Z-0.994
X52.077 Z-1
X52.197
X52.234 Y32.761
X52.268 Y32.778
X52.294 Y32.805
X52.312 Y32.838
X52.317 Y32.875
G3 X49.367 Y32.875 I-1.475 J0 F100
X52.317 Y32.875 I1.475 J0
G1 X52.312 Y32.912 F300
X52.294 Y32.946
X52.268 Y32.972
X52.234 Y32.989
X52.197 Y32.995
X52.077
X52.04 Z-0.994
X52.007 Z-0.977
X51.98 Z-0.951
X51.963 Z-0.917
X51.957 Z-0.88
G0 Z5
Y32.755
G1 Z0.5 F200
Z-1.28
X51.963 Z-1.317 F300
X51.98 Z-1.351
X52.007 Z-1.377
X52.04 Z-1.394
X52.077 Z-1.4
X52.197
X52.234 Y32.761
X52.268 Y32.778
X52.294 Y32.805
X52.312 Y32.838
X52.317 Y32.875
G3 X49.367 Y32.875 I-1.475 J0 F100
X52.317 Y32.875 I1.475 J0
G1 X52.312 Y32.912 F300
X52.294 Y32.946
X52.268 Y32.972
X52.234 Y32.989
X52.197 Y32.995
X52.077
X52.04 Z-1.394
X52.007 Z-1.377
X51.98 Z-1.351
X51.963 Z-1.317
X51.957 Z-1.28
G0 Z5
Y32.755
G1 Z0.1 F200
Z-1.48
X51.963 Z-1.517 F300
X51.98 Z-1.551
X52.007 Z-1.577
X52.04 Z-1.594
X52.077 Z-1.6
X52.197
X52.234 Y32.761
X52.268 Y32.778
X52.294 Y32.805
X52.312 Y32.838
X52.317 Y32.875
G3 X49.367 Y32.875 I-1.475 J0 F100
X52.317 Y32.875 I1.475 J0
G1 X52.312 Y32.912 F300
X52.294 Y32.946
X52.268 Y32.972
X52.234 Y32.989
X52.197 Y32.995
X52.077
X52.04 Z-1.594
X52.007 Z-1.577
X51.98 Z-1.551
X51.963 Z-1.517
X51.957 Z-1.48
G0 Z5
X51.409 Y41.196
G1 Z1.5 F200
Z-0.38
X51.415 Z-0.417 F300
X51.432 Z-0.451
X51.459 Z-0.477
X51.492 Z-0.494
X51.529 Z-0.5
X51.649
X51.686 Y41.201
X51.72 Y41.218
X51.746 Y41.245
X51.764 Y41.278
X51.769 Y41.315
X51.77 Y41.465 F100
X49.973
Y41.167
X51.769 Y41.166
Y41.315
X51.764 Y41.353 F300
X51.747 Y41.386
X51.72 Y41.413
X51.687 Y41.43
X51.65 Y41.436
X51.53
X51.493 Z-0.494
X51.459 Z-0.477
X51.433 Z-0.451
X51.415 Z-0.417
X51.41 Z-0.38
G0 Z5
X51.409 Y41.196
G1 Z1 F200
Z-0.88
X51.415 Z-0.917 F300
X51.432 Z-0.951
X51.459 Z-0.977
X51.492 Z-0.994
X51.529 Z-1
X51.649
X51.686 Y41.201
X51.72 Y41.218
X51.746 Y41.245
X51.764 Y41.278
X51.769 Y41.315
X51.77 Y41.465 F100
X49.973
Y41.167
X51.769 Y41.166
Y41.315
X51.764 Y41.353 F300
X51.747 Y41.386
X51.72 Y41.413
X51.687 Y41.43
X51.65 Y41.436
X51.53
X51.493 Z-0.994
X51.459 Z-0.977
X51.433 Z-0.951
X51.415 Z-0.917
X51.41 Z-0.88
G0 Z5
X51.409 Y41.196
G1 Z0.5 F200
Z-1.28
X51.415 Z-1.317 F300
X51.432 Z-1.351
X51.459 Z-1.377
X51.492 Z-1.394
X51.529 Z-1.4
X51.649
X51.686 Y41.201
X51.72 Y41.218
X51.746 Y41.245
X51.764 Y41.278
X51.769 Y41.315
X51.77 Y41.465 F100
X49.973
Y41.167
X51.769 Y41.166
Y41.315
X51.764 Y41.353 F300
X51.747 Y41.386
X51.72 Y41.413
X51.687 Y41.43
X51.65 Y41.436
X51.53
X51.493 Z-1.394
X51.459 Z-1.377
X51.433 Z-1.351
X51.415 Z-1.317
X51.41 Z-1.28
G0 Z5
X51.409 Y41.196
G1 Z0.1 F200
Z-1.48
X51.415 Z-1.517 F300
X51.432 Z-1.551
X51.459 Z-1.577
X51.492 Z-1.594
X51.529 Z-1.6
X51.649
X51.686 Y41.201
X51.72 Y41.218
X51.746 Y41.245
X51.764 Y41.278
X51.769 Y41.315
X51.77 Y41.465 F100
X49.973
Y41.167
X51.769 Y41.166
Y41.315
X51.764 Y41.353 F300
X51.747 Y41.386
X51.72 Y41.413
X51.687 Y41.43
X51.65 Y41.436
X51.53
X51.493 Z-1.594
X51.459 Z-1.577
X51.433 Z-1.551
X51.415 Z-1.517
X51.41 Z-1.48
G0 Z5
X51.96 Y45.283
G1 Z1.5 F200
Z-0.38
X51.966 Z-0.417 F300
X51.983 Z-0.451
X52.009 Y45.284 Z-0.477
X52.043 Y45.285 Z-0.494
X52.08 Z-0.5
X52.2 Y45.288
X52.237 Y45.295
X52.27 Y45.313
X52.296 Y45.34
X52.312 Y45.374
X52.317 Y45.411
G3 X49.368 Y45.339 I-1.475 J-0.036 F100
X52.317 Y45.411 I1.475 J0.036
G1 X52.31 Y45.448 F300
X52.292 Y45.481
X52.265 Y45.507
X52.231 Y45.523
X52.194 Y45.528
X52.074 Y45.525
X52.037 Y45.524 Z-0.494
X52.004 Z-0.477
X51.977 Y45.523 Z-0.451
X51.96 Z-0.417
X51.954 Y45.522 Z-0.38
G0 Z5
X51.96 Y45.283
G1 Z1 F200
Z-0.88
X51.966 Z-0.917 F300
X51.983 Z-0.951
X52.009 Y45.284 Z-0.977
X52.043 Y45.285 Z-0.994
X52.08 Z-1
X52.2 Y45.288
X52.237 Y45.295
X52.27 Y45.313
X52.296 Y45.34
X52.312 Y45.374
X52.317 Y45.411
G3 X49.368 Y45.339 I-1.475 J-0.036 F100
X52.317 Y45.411 I1.475 J0.036
G1 X52.31 Y45.448 F300
X52.292 Y45.481
X52.265 Y45.507
X52.231 Y45.523
X52.194 Y45.528
X52.074 Y45.525
X52.037 Y45.524 Z-0.994
X52.004 Z-0.977
X51.977 Y45.523 Z-0.951
X51.96 Z-0.917
X51.954 Y45.522 Z-0.88
G0 Z5
X51.96 Y45.283
G1 Z0.5 F200
Z-1.28
X51.966 Z-1.317 F300
X51.983 Z-1.351
X52.009 Y45.284 Z-1.377
X52.043 Y45.285 Z-1.394
X52.08 Z-1.4
X52.2 Y45.288
X52.237 Y45.295
X52.27 Y45.313
X52.296 Y45.34
X52.312 Y45.374
X52.317 Y45.411
G3 X49.368 Y45.339 I-1.475 J-0.036 F100
X52.317 Y45.411 I1.475 J0.036
G1 X52.31 Y45.448 F300
X52.292 Y45.481
X52.265 Y45.507
X52.231 Y45.523
X52.194 Y45.528
X52.074 Y45.525
X52.037 Y45.524 Z-1.394
X52.004 Z-1.377
X51.977 Y45.523 Z-1.351
X51.96 Z-1.317
X51.954 Y45.522 Z-1.28
G0 Z5
X51.96 Y45.283
G1 Z0.1 F200
Z-1.48
X51.966 Z-1.517 F300
X51.983 Z-1.551
X52.009 Y45.284 Z-1.577
X52.043 Y45.285 Z-1.594
X52.08 Z-1.6
X52.2 Y45.288
X52.237 Y45.295
X52.27 Y45.313
X52.296 Y45.34
X52.312 Y45.374
X52.317 Y45.411
G3 X49.368 Y45.339 I-1.475 J-0.036 F100
X52.317 Y45.411 I1.475 J0.036
G1 X52.31 Y45.448 F300
X52.292 Y45.481
X52.265 Y45.507
X52.231 Y45.523
X52.194 Y45.528
X52.074 Y45.525
X52.037 Y45.524 Z-1.594
X52.004 Z-1.577
X51.977 Y45.523 Z-1.551
X51.96 Z-1.517
X51.954 Y45.522 Z-1.48
G0 Z5
X51.384 Y53.743
G1 Z1.5 F200
Z-0.38
X51.39 Z-0.417 F300
X51.407 Z-0.451
X51.433 Z-0.477
X51.467 Z-0.494
X51.504 Z-0.5
X51.624
X51.661 Y53.749
X51.694 Y53.766
X51.721 Y53.793
X51.738 Y53.826
X51.744 Y53.863
Y54.013 F100
X49.948
X49.947 Y53.715
X51.744 Y53.714
Y53.863
X51.738 Y53.9 F300
X51.721 Y53.934
X51.695 Y53.96
X51.661 Y53.977
X51.624 Y53.983
X51.504
X51.467 Z-0.494
X51.434 Z-0.477
X51.407 Z-0.451
X51.39 Z-0.417
X51.384 Z-0.38
G0 Z5
Y53.743
G1 Z1 F200
Z-0.88
X51.39 Z-0.917 F300
X51.407 Z-0.951
X51.433 Z-0.977
X51.467 Z-0.994
X51.504 Z-1
X51.624
X51.661 Y53.749
X51.694 Y53.766
X51.721 Y53.793
X51.738 Y53.826
X51.744 Y53.863
Y54.013 F100
X49.948
X49.947 Y53.715
X51.744 Y53.714
Y53.863
X51.738 Y53.9 F300
X51.721 Y53.934
X51.695 Y53.96
X51.661 Y53.977
X51.624 Y53.983
X51.504
X51.467 Z-0.994
X51.434 Z-0.977
X51.407 Z-0.951
X51.39 Z-0.917
X51.384 Z-0.88
G0 Z5
Y53.743
G1 Z0.5 F200
Z-1.28
X51.39 Z-1.317 F300
X51.407 Z-1.351
X51.433 Z-1.377
X51.467 Z-1.394
X51.504 Z-1.4
X51.624
X51.661 Y53.749
X51.694 Y53.766
X51.721 Y53.793
X51.738 Y53.826
X51.744 Y53.863
Y54.013 F100
X49.948
X49.947 Y53.715
X51.744 Y53.714
Y53.863
X51.738 Y53.9 F300
X51.721 Y53.934
X51.695 Y53.96
X51.661 Y53.977
X51.624 Y53.983
X51.504
X51.467 Z-1.394
X51.434 Z-1.377
X51.407 Z-1.351
X51.39 Z-1.317
X51.384 Z-1.28
G0 Z5
Y53.743
G1 Z0.1 F200
Z-1.48
X51.39 Z-1.517 F300
X51.407 Z-1.551
X51.433 Z-1.577
X51.467 Z-1.594
X51.504 Z-1.6
X51.624
X51.661 Y53.749
X51.694 Y53.766
X51.721 Y53.793
X51.738 Y53.826
X51.744 Y53.863
Y54.013 F100
X49.948
X49.947 Y53.715
X51.744 Y53.714
Y53.863
X51.738 Y53.9 F300
X51.721 Y53.934
X51.695 Y53.96
X51.661 Y53.977
X51.624 Y53.983
X51.504
X51.467 Z-1.594
X51.434 Z-1.577
X51.407 Z-1.551
X51.39 Z-1.517
X51.384 Z-1.48
G0 Z5
X51.957 Y57.755
G1 Z1.5 F200
Z-0.38
X51.963 Z-0.417 F300
X51.98 Z-0.451
X52.007 Z-0.477
X52.04 Z-0.494
X52.077 Z-0.5
X52.197
X52.234 Y57.761
X52.268 Y57.778
X52.294 Y57.805
X52.312 Y57.838
X52.317 Y57.875
G3 X49.367 Y57.875 I-1.475 J0 F100
X52.317 Y57.875 I1.475 J0
G1 X52.312 Y57.912 F300
X52.294 Y57.946
X52.268 Y57.972
X52.234 Y57.989
X52.197 Y57.995
X52.077
X52.04 Z-0.494
X52.007 Z-0.477
X51.98 Z-0.451
X51.963 Z-0.417
X51.957 Z-0.38
G0 Z5
Y57.755
G1 Z1 F200
Z-0.88
X51.963 Z-0.917 F300
X51.98 Z-0.951
X52.007 Z-0.977
X52.04 Z-0.994
X52.077 Z-1
X52.197
X52.234 Y57.761
X52.268 Y57.778
X52.294 Y57.805
X52.312 Y57.838
X52.317 Y57.875
G3 X49.367 Y57.875 I-1.475 J0 F100
X52.317 Y57.875 I1.475 J0
G1 X52.312 Y57.912 F300
X52.294 Y57.946
X52.268 Y57.972
X52.234 Y57.989
X52.197 Y57.995
X52.077
X52.04 Z-0.994
X52.007 Z-0.977
X51.98 Z-0.951
X51.963 Z-0.917
X51.957 Z-0.88
G0 Z5
Y57.755
G1 Z0.5 F200
Z-1.28
X51.963 Z-1.317 F300
X51.98 Z-1.351
X52.007 Z-1.377
X52.04 Z-1.394
X52.077 Z-1.4
X52.197
X52.234 Y57.761
X52.268 Y57.778
X52.294 Y57.805
X52.312 Y57.838
X52.317 Y57.875
G3 X49.367 Y57.875 I-1.475 J0 F100
X52.317 Y57.875 I1.475 J0
G1 X52.312 Y57.912 F300
X52.294 Y57.946
X52.268 Y57.972
X52.234 Y57.989
X52.197 Y57.995
X52.077
X52.04 Z-1.394
X52.007 Z-1.377
X51.98 Z-1.351
X51.963 Z-1.317
X51.957 Z-1.28
G0 Z5
Y57.755
G1 Z0.1 F200
Z-1.48
X51.963 Z-1.517 F300
X51.98 Z-1.551
X52.007 Z-1.577
X52.04 Z-1.594
X52.077 Z-1.6
X52.197
X52.234 Y57.761
X52.268 Y57.778
X52.294 Y57.805
X52.312 Y57.838
X52.317 Y57.875
G3 X49.367 Y57.875 I-1.475 J0 F100
X52.317 Y57.875 I1.475 J0
G1 X52.312 Y57.912 F300
X52.294 Y57.946
X52.268 Y57.972
X52.234 Y57.989
X52.197 Y57.995
X52.077
X52.04 Z-1.594
X52.007 Z-1.577
X51.98 Z-1.551
X51.963 Z-1.517
X51.957 Z-1.48
G0 Z5
X62.96 Y57.783
G1 Z1.5 F200
Z-0.38
X62.966 Z-0.417 F300
X62.983 Z-0.451
X63.009 Y57.784 Z-0.477
X63.043 Y57.785 Z-0.494
X63.08 Z-0.5
X63.2 Y57.788
X63.237 Y57.795
X63.27 Y57.813
X63.296 Y57.84
X63.312 Y57.874
X63.317 Y57.911
G3 X60.368 Y57.839 I-1.475 J-0.036 F100
X63.317 Y57.911 I1.475 J0.036
G1 X63.31 Y57.948 F300
X63.292 Y57.981
X63.265 Y58.007
X63.231 Y58.023
X63.194 Y58.028
X63.074 Y58.025
X63.037 Y58.024 Z-0.494
X63.004 Z-0.477
X62.977 Y58.023 Z-0.451
X62.96 Z-0.417
X62.954 Y58.022 Z-0.38
G0 Z5
X62.96 Y57.783
G1 Z1 F200
Z-0.88
X62.966 Z-0.917 F300
X62.983 Z-0.951
X63.009 Y57.784 Z-0.977
X63.043 Y57.785 Z-0.994
X63.08 Z-1
X63.2 Y57.788
X63.237 Y57.795
X63.27 Y57.813
X63.296 Y57.84
X63.312 Y57.874
X63.317 Y57.911
G3 X60.368 Y57.839 I-1.475 J-0.036 F100
X63.317 Y57.911 I1.475 J0.036
G1 X63.31 Y57.948 F300
X63.292 Y57.981
X63.265 Y58.007
X63.231 Y58.023
X63.194 Y58.028
X63.074 Y58.025
X63.037 Y58.024 Z-0.994
X63.004 Z-0.977
X62.977 Y58.023 Z-0.951
X62.96 Z-0.917
X62.954 Y58.022 Z-0.88
G0 Z5
X62.96 Y57.783
G1 Z0.5 F200
Z-1.28
X62.966 Z-1.317 F300
X62.983 Z-1.351
X63.009 Y57.784 Z-1.377
X63.043 Y57.785 Z-1.394
X63.08 Z-1.4
X63.2 Y57.788
X63.237 Y57.795
X63.27 Y57.813
X63.296 Y57.84
X63.312 Y57.874
X63.317 Y57.911
G3 X60.368 Y57.839 I-1.475 J-0.036 F100
X63.317 Y57.911 I1.475 J0.036
G1 X63.31 Y57.948 F300
X63.292 Y57.981
X63.265 Y58.007
X63.231 Y58.023
X63.194 Y58.028
X63.074 Y58.025
X63.037 Y58.024 Z-1.394
X63.004 Z-1.377
X62.977 Y58.023 Z-1.351
X62.96 Z-1.317
X62.954 Y58.022 Z-1.28
G0 Z5
X62.96 Y57.783
G1 Z0.1 F200
Z-1.48
X62.966 Z-1.517 F300
X62.983 Z-1.551
X63.009 Y57.784 Z-1.577
X63.043 Y57.785 Z-1.594
X63.08 Z-1.6
X63.2 Y57.788
X63.237 Y57.795
X63.27 Y57.813
X63.296 Y57.84
X63.312 Y57.874
X63.317 Y57.911
G3 X60.368 Y57.839 I-1.475 J-0.036 F100
X63.317 Y57.911 I1.475 J0.036
G1 X63.31 Y57.948 F300
X63.292 Y57.981
X63.265 Y58.007
X63.231 Y58.023
X63.194 Y58.028
X63.074 Y58.025
X63.037 Y58.024 Z-1.594
X63.004 Z-1.577
X62.977 Y58.023 Z-1.551
X62.96 Z-1.517
X62.954 Y58.022 Z-1.48
G0 Z5
X62.382 Y53.743
G1 Z1.5 F200
Z-0.38
X62.388 Z-0.417 F300
X62.405 Z-0.451
X62.432 Z-0.477
X62.465 Z-0.494
X62.502 Z-0.5
X62.622
X62.659 Y53.749
X62.693 Y53.766
X62.719 Y53.793
X62.736 Y53.826
X62.742 Y53.863
Y54.013 F100
X60.946
Y53.715
X62.742 Y53.714
Y53.863
X62.736 Y53.9 F300
X62.719 Y53.934
X62.693 Y53.96
X62.659 Y53.977
X62.622 Y53.983
X62.502
X62.465 Z-0.494
X62.432 Z-0.477
X62.405 Z-0.451
X62.388 Z-0.417
X62.382 Z-0.38
G0 Z5
Y53.743
G1 Z1 F200
Z-0.88
X62.388 Z-0.917 F300
X62.405 Z-0.951
X62.432 Z-0.977
X62.465 Z-0.994
X62.502 Z-1
X62.622
X62.659 Y53.749
X62.693 Y53.766
X62.719 Y53.793
X62.736 Y53.826
X62.742 Y53.863
Y54.013 F100
X60.946
Y53.715
X62.742 Y53.714
Y53.863
X62.736 Y53.9 F300
X62.719 Y53.934
X62.693 Y53.96
X62.659 Y53.977
X62.622 Y53.983
X62.502
X62.465 Z-0.994
X62.432 Z-0.977
X62.405 Z-0.951
X62.388 Z-0.917
X62.382 Z-0.88
G0 Z5
Y53.743
G1 Z0.5 F200
Z-1.28
X62.388 Z-1.317 F300
X62.405 Z-1.351
X62.432 Z-1.377
X62.465 Z-1.394
X62.502 Z-1.4
X62.622
X62.659 Y53.749
X62.693 Y53.766
X62.719 Y53.793
X62.736 Y53.826
X62.742 Y53.863
Y54.013 F100
X60.946
Y53.715
X62.742 Y53.714
Y53.863
X62.736 Y53.9 F300
X62.719 Y53.934
X62.693 Y53.96
X62.659 Y53.977
X62.622 Y53.983
X62.502
X62.465 Z-1.394
X62.432 Z-1.377
X62.405 Z-1.351
X62.388 Z-1.317
X62.382 Z-1.28
G0 Z5
Y53.743
G1 Z0.1 F200
Z-1.48
X62.388 Z-1.517 F300
X62.405 Z-1.551
X62.432 Z-1.577
X62.465 Z-1.594
X62.502 Z-1.6
X62.622
X62.659 Y53.749
X62.693 Y53.766
X62.719 Y53.793
X62.736 Y53.826
X62.742 Y53.863
Y54.013 F100
X60.946
Y53.715
X62.742 Y53.714
Y53.863
X62.736 Y53.9 F300
X62.719 Y53.934
X62.693 Y53.96
X62.659 Y53.977
X62.622 Y53.983
X62.502
X62.465 Z-1.594
X62.432 Z-1.577
X62.405 Z-1.551
X62.388 Z-1.517
X62.382 Z-1.48
G0 Z5
X62.957 Y45.255
G1 Z1.5 F200
Z-0.38
X62.963 Z-0.417 F300
X62.98 Z-0.451
X63.007 Z-0.477
X63.04 Z-0.494
X63.077 Z-0.5
X63.197
X63.234 Y45.261
X63.268 Y45.278
X63.294 Y45.305
X63.312 Y45.338
X63.317 Y45.375
G3 X60.367 Y45.375 I-1.475 J0 F100
X63.317 Y45.375 I1.475 J0
G1 X63.312 Y45.412 F300
X63.294 Y45.446
X63.268 Y45.472
X63.234 Y45.489
X63.197 Y45.495
X63.077
X63.04 Z-0.494
X63.007 Z-0.477
X62.98 Z-0.451
X62.963 Z-0.417
X62.957 Z-0.38
G0 Z5
Y45.255
G1 Z1 F200
Z-0.88
X62.963 Z-0.917 F300
X62.98 Z-0.951
X63.007 Z-0.977
X63.04 Z-0.994
X63.077 Z-1
X63.197
X63.234 Y45.261
X63.268 Y45.278
X63.294 Y45.305
X63.312 Y45.338
X63.317 Y45.375
G3 X60.367 Y45.375 I-1.475 J0 F100
X63.317 Y45.375 I1.475 J0
G1 X63.312 Y45.412 F300
X63.294 Y45.446
X63.268 Y45.472
X63.234 Y45.489
X63.197 Y45.495
X63.077
X63.04 Z-0.994
X63.007 Z-0.977
X62.98 Z-0.951
X62.963 Z-0.917
X62.957 Z-0.88
G0 Z5
Y45.255
G1 Z0.5 F200
Z-1.28
X62.963 Z-1.317 F300
X62.98 Z-1.351
X63.007 Z-1.377
X63.04 Z-1.394
X63.077 Z-1.4
X63.197
X63.234 Y45.261
X63.268 Y45.278
X63.294 Y45.305
X63.312 Y45.338
X63.317 Y45.375
G3 X60.367 Y45.375 I-1.475 J0 F100
X63.317 Y45.375 I1.475 J0
G1 X63.312 Y45.412 F300
X63.294 Y45.446
X63.268 Y45.472
X63.234 Y45.489
X63.197 Y45.495
X63.077
X63.04 Z-1.394
X63.007 Z-1.377
X62.98 Z-1.351
X62.963 Z-1.317
X62.957 Z-1.28
G0 Z5
Y45.255
G1 Z0.1 F200
Z-1.48
X62.963 Z-1.517 F300
X62.98 Z-1.551
X63.007 Z-1.577
X63.04 Z-1.594
X63.077 Z-1.6
X63.197
X63.234 Y45.261
X63.268 Y45.278
X63.294 Y45.305
X63.312 Y45.338
X63.317 Y45.375
G3 X60.367 Y45.375 I-1.475 J0 F100
X63.317 Y45.375 I1.475 J0
G1 X63.312 Y45.412 F300
X63.294 Y45.446
X63.268 Y45.472
X63.234 Y45.489
X63.197 Y45.495
X63.077
X63.04 Z-1.594
X63.007 Z-1.577
X62.98 Z-1.551
X62.963 Z-1.517
X62.957 Z-1.48
G0 Z5
X62.408 Y41.196
G1 Z1.5 F200
Z-0.38
X62.413 Z-0.417 F300
X62.43 Z-0.451
X62.457 Z-0.477
X62.49 Z-0.494
X62.528 Z-0.5
X62.648
X62.685 Y41.201
X62.718 Y41.218
X62.745 Y41.245
X62.762 Y41.278
X62.768 Y41.315
Y41.465 F100
X60.971
Y41.167
X62.768 Y41.166
Y41.315
X62.762 Y41.353 F300
X62.745 Y41.386
X62.718 Y41.413
X62.685 Y41.43
X62.648 Y41.436
X62.528
X62.491 Z-0.494
X62.457 Z-0.477
X62.431 Z-0.451
X62.414 Z-0.417
X62.408 Z-0.38
G0 Z5
Y41.196
G1 Z1 F200
Z-0.88
X62.413 Z-0.917 F300
X62.43 Z-0.951
X62.457 Z-0.977
X62.49 Z-0.994
X62.528 Z-1
X62.648
X62.685 Y41.201
X62.718 Y41.218
X62.745 Y41.245
X62.762 Y41.278
X62.768 Y41.315
Y41.465 F100
X60.971
Y41.167
X62.768 Y41.166
Y41.315
X62.762 Y41.353 F300
X62.745 Y41.386
X62.718 Y41.413
X62.685 Y41.43
X62.648 Y41.436
X62.528
X62.491 Z-0.994
X62.457 Z-0.977
X62.431 Z-0.951
X62.414 Z-0.917
X62.408 Z-0.88
G0 Z5
Y41.196
G1 Z0.5 F200
Z-1.28
X62.413 Z-1.317 F300
X62.43 Z-1.351
X62.457 Z-1.377
X62.49 Z-1.394
X62.528 Z-1.4
X62.648
X62.685 Y41.201
X62.718 Y41.218
X62.745 Y41.245
X62.762 Y41.278
X62.768 Y41.315
Y41.465 F100
X60.971
Y41.167
X62.768 Y41.166
Y41.315
X62.762 Y41.353 F300
X62.745 Y41.386
X62.718 Y41.413
X62.685 Y41.43
X62.648 Y41.436
X62.528
X62.491 Z-1.394
X62.457 Z-1.377
X62.431 Z-1.351
X62.414 Z-1.317
X62.408 Z-1.28
G0 Z5
Y41.196
G1 Z0.1 F200
Z-1.48
X62.413 Z-1.517 F300
X62.43 Z-1.551
X62.457 Z-1.577
X62.49 Z-1.594
X62.528 Z-1.6
X62.648
X62.685 Y41.201
X62.718 Y41.218
X62.745 Y41.245
X62.762 Y41.278
X62.768 Y41.315
Y41.465 F100
X60.971
Y41.167
X62.768 Y41.166
Y41.315
X62.762 Y41.353 F300
X62.745 Y41.386
X62.718 Y41.413
X62.685 Y41.43
X62.648 Y41.436
X62.528
X62.491 Z-1.594
X62.457 Z-1.577
X62.431 Z-1.551
X62.414 Z-1.517
X62.408 Z-1.48
G0 Z5
X62.957 Y32.755
G1 Z1.5 F200
Z-0.38
X62.963 Z-0.417 F300
X62.98 Z-0.451
X63.007 Z-0.477
X63.04 Z-0.494
X63.077 Z-0.5
X63.197
X63.234 Y32.761
X63.268 Y32.778
X63.294 Y32.805
X63.312 Y32.838
X63.317 Y32.875
G3 X60.367 Y32.875 I-1.475 J0 F100
X63.317 Y32.875 I1.475 J0
G1 X63.312 Y32.912 F300
X63.294 Y32.946
X63.268 Y32.972
X63.234 Y32.989
X63.197 Y32.995
X63.077
X63.04 Z-0.494
X63.007 Z-0.477
X62.98 Z-0.451
X62.963 Z-0.417
X62.957 Z-0.38
G0 Z5
Y32.755
G1 Z1 F200
Z-0.88
X62.963 Z-0.917 F300
X62.98 Z-0.951
X63.007 Z-0.977
X63.04 Z-0.994
X63.077 Z-1
X63.197
X63.234 Y32.761
X63.268 Y32.778
X63.294 Y32.805
X63.312 Y32.838
X63.317 Y32.875
G3 X60.367 Y32.875 I-1.475 J0 F100
X63.317 Y32.875 I1.475 J0
G1 X63.312 Y32.912 F300
X63.294 Y32.946
X63.268 Y32.972
X63.234 Y32.989
X63.197 Y32.995
X63.077
X63.04 Z-0.994
X63.007 Z-0.977
X62.98 Z-0.951
X62.963 Z-0.917
X62.957 Z-0.88
G0 Z5
Y32.755
G1 Z0.5 F200
Z-1.28
X62.963 Z-1.317 F300
X62.98 Z-1.351
X63.007 Z-1.377
X63.04 Z-1.394
X63.077 Z-1.4
X63.197
X63.234 Y32.761
X63.268 Y32.778
X63.294 Y32.805
X63.312 Y32.838
X63.317 Y32.875
G3 X60.367 Y32.875 I-1.475 J0 F100
X63.317 Y32.875 I1.475 J0
G1 X63.312 Y32.912 F300
X63.294 Y32.946
X63.268 Y32.972
X63.234 Y32.989
X63.197 Y32.995
X63.077
X63.04 Z-1.394
X63.007 Z-1.377
X62.98 Z-1.351
X62.963 Z-1.317
X62.957 Z-1.28
G0 Z5
Y32.755
G1 Z0.1 F200
Z-1.48
X62.963 Z-1.517 F300
X62.98 Z-1.551
X63.007 Z-1.577
X63.04 Z-1.594
X63.077 Z-1.6
X63.197
X63.234 Y32.761
X63.268 Y32.778
X63.294 Y32.805
X63.312 Y32.838
X63.317 Y32.875
G3 X60.367 Y32.875 I-1.475 J0 F100
X63.317 Y32.875 I1.475 J0
G1 X63.312 Y32.912 F300
X63.294 Y32.946
X63.268 Y32.972
X63.234 Y32.989
X63.197 Y32.995
X63.077
X63.04 Z-1.594
X63.007 Z-1.577
X62.98 Z-1.551
X62.963 Z-1.517
X62.957 Z-1.48
G0 Z5
X62.408 Y28.674
G1 Z1.5 F200
Z-0.38
X62.413 Z-0.417 F300
X62.43 Z-0.451
X62.457 Z-0.477
X62.49 Z-0.494
X62.528 Z-0.5
X62.648 Y28.673
X62.685 Y28.679
X62.718 Y28.696
X62.745 Y28.723
X62.762 Y28.756
X62.768 Y28.793
Y28.943 F100
X60.971
Y28.645
X62.768 Y28.644
Y28.793
X62.762 Y28.83 F300
X62.745 Y28.864
X62.718 Y28.89
X62.685 Y28.908
X62.648 Y28.913
X62.528 Y28.914
X62.491 Z-0.494
X62.457 Z-0.477
X62.431 Z-0.451
X62.414 Z-0.417
X62.408 Z-0.38
G0 Z5
Y28.674
G1 Z1 F200
Z-0.88
X62.413 Z-0.917 F300
X62.43 Z-0.951
X62.457 Z-0.977
X62.49 Z-0.994
X62.528 Z-1
X62.648 Y28.673
X62.685 Y28.679
X62.718 Y28.696
X62.745 Y28.723
X62.762 Y28.756
X62.768 Y28.793
Y28.943 F100
X60.971
Y28.645
X62.768 Y28.644
Y28.793
X62.762 Y28.83 F300
X62.745 Y28.864
X62.718 Y28.89
X62.685 Y28.908
X62.648 Y28.913
X62.528 Y28.914
X62.491 Z-0.994
X62.457 Z-0.977
X62.431 Z-0.951
X62.414 Z-0.917
X62.408 Z-0.88
G0 Z5
Y28.674
G1 Z0.5 F200
Z-1.28
X62.413 Z-1.317 F300
X62.43 Z-1.351
X62.457 Z-1.377
X62.49 Z-1.394
X62.528 Z-1.4
X62.648 Y28.673
X62.685 Y28.679
X62.718 Y28.696
X62.745 Y28.723
X62.762 Y28.756
X62.768 Y28.793
Y28.943 F100
X60.971
Y28.645
X62.768 Y28.644
Y28.793
X62.762 Y28.83 F300
X62.745 Y28.864
X62.718 Y28.89
X62.685 Y28.908
X62.648 Y28.913
X62.528 Y28.914
X62.491 Z-1.394
X62.457 Z-1.377
X62.431 Z-1.351
X62.414 Z-1.317
X62.408 Z-1.28
G0 Z5
Y28.674
G1 Z0.1 F200
Z-1.48
X62.413 Z-1.517 F300
X62.43 Z-1.551
X62.457 Z-1.577
X62.49 Z-1.594
X62.528 Z-1.6
X62.648 Y28.673
X62.685 Y28.679
X62.718 Y28.696
X62.745 Y28.723
X62.762 Y28.756
X62.768 Y28.793
Y28.943 F100
X60.971
Y28.645
X62.768 Y28.644
Y28.793
X62.762 Y28.83 F300
X62.745 Y28.864
X62.718 Y28.89
X62.685 Y28.908
X62.648 Y28.913
X62.528 Y28.914
X62.491 Z-1.594
X62.457 Z-1.577
X62.431 Z-1.551
X62.414 Z-1.517
X62.408 Z-1.48
G0 Z5
X62.957 Y20.255
G1 Z1.5 F200
Z-0.38
X62.963 Z-0.417 F300
X62.98 Z-0.451
X63.007 Z-0.477
X63.04 Z-0.494
X63.077 Z-0.5
X63.197
X63.234 Y20.261
X63.268 Y20.278
X63.294 Y20.305
X63.312 Y20.338
X63.317 Y20.375
G3 X60.367 Y20.375 I-1.475 J0 F100
X63.317 Y20.375 I1.475 J0
G1 X63.312 Y20.412 F300
X63.294 Y20.446
X63.268 Y20.472
X63.234 Y20.489
X63.197 Y20.495
X63.077
X63.04 Z-0.494
X63.007 Z-0.477
X62.98 Z-0.451
X62.963 Z-0.417
X62.957 Z-0.38
G0 Z5
Y20.255
G1 Z1 F200
Z-0.88
X62.963 Z-0.917 F300
X62.98 Z-0.951
X63.007 Z-0.977
X63.04 Z-0.994
X63.077 Z-1
X63.197
X63.234 Y20.261
X63.268 Y20.278
X63.294 Y20.305
X63.312 Y20.338
X63.317 Y20.375
G3 X60.367 Y20.375 I-1.475 J0 F100
X63.317 Y20.375 I1.475 J0
G1 X63.312 Y20.412 F300
X63.294 Y20.446
X63.268 Y20.472
X63.234 Y20.489
X63.197 Y20.495
X63.077
X63.04 Z-0.994
X63.007 Z-0.977
X62.98 Z-0.951
X62.963 Z-0.917
X62.957 Z-0.88
G0 Z5
Y20.255
G1 Z0.5 F200
Z-1.28
X62.963 Z-1.317 F300
X62.98 Z-1.351
X63.007 Z-1.377
X63.04 Z-1.394
X63.077 Z-1.4
X63.197
X63.234 Y20.261
X63.268 Y20.278
X63.294 Y20.305
X63.312 Y20.338
X63.317 Y20.375
G3 X60.367 Y20.375 I-1.475 J0 F100
X63.317 Y20.375 I1.475 J0
G1 X63.312 Y20.412 F300
X63.294 Y20.446
X63.268 Y20.472
X63.234 Y20.489
X63.197 Y20.495
X63.077
X63.04 Z-1.394
X63.007 Z-1.377
X62.98 Z-1.351
X62.963 Z-1.317
X62.957 Z-1.28
G0 Z5
Y20.255
G1 Z0.1 F200
Z-1.48
X62.963 Z-1.517 F300
X62.98 Z-1.551
X63.007 Z-1.577
X63.04 Z-1.594
X63.077 Z-1.6
X63.197
X63.234 Y20.261
X63.268 Y20.278
X63.294 Y20.305
X63.312 Y20.338
X63.317 Y20.375
G3 X60.367 Y20.375 I-1.475 J0 F100
X63.317 Y20.375 I1.475 J0
G1 X63.312 Y20.412 F300
X63.294 Y20.446
X63.268 Y20.472
X63.234 Y20.489
X63.197 Y20.495
X63.077
X63.04 Z-1.594
X63.007 Z-1.577
X62.98 Z-1.551
X62.963 Z-1.517
X62.957 Z-1.48
G0 Z5
X62.382 Y16.202
G1 Z1.5 F200
Z-0.38
X62.388 Z-0.417 F300
X62.405 Z-0.451
X62.432 Z-0.477
X62.465 Z-0.494
X62.502 Z-0.5
X62.622
X62.659 Y16.208
X62.693 Y16.225
X62.719 Y16.251
X62.736 Y16.285
X62.742 Y16.322
Y16.471 F100
X60.946
Y16.173
X62.742
Y16.322
X62.736 Y16.359 F300
X62.719 Y16.392
X62.693 Y16.419
X62.659 Y16.436
X62.622 Y16.442
X62.502
X62.465 Z-0.494
X62.432 Z-0.477
X62.405 Z-0.451
X62.388 Z-0.417
X62.382 Z-0.38
G0 Z5
Y16.202
G1 Z1 F200
Z-0.88
X62.388 Z-0.917 F300
X62.405 Z-0.951
X62.432 Z-0.977
X62.465 Z-0.994
X62.502 Z-1
X62.622
X62.659 Y16.208
X62.693 Y16.225
X62.719 Y16.251
X62.736 Y16.285
X62.742 Y16.322
Y16.471 F100
X60.946
Y16.173
X62.742
Y16.322
X62.736 Y16.359 F300
X62.719 Y16.392
X62.693 Y16.419
X62.659 Y16.436
X62.622 Y16.442
X62.502
X62.465 Z-0.994
X62.432 Z-0.977
X62.405 Z-0.951
X62.388 Z-0.917
X62.382 Z-0.88
G0 Z5
Y16.202
G1 Z0.5 F200
Z-1.28
X62.388 Z-1.317 F300
X62.405 Z-1.351
X62.432 Z-1.377
X62.465 Z-1.394
X62.502 Z-1.4
X62.622
X62.659 Y16.208
X62.693 Y16.225
X62.719 Y16.251
X62.736 Y16.285
X62.742 Y16.322
Y16.471 F100
X60.946
Y16.173
X62.742
Y16.322
X62.736 Y16.359 F300
X62.719 Y16.392
X62.693 Y16.419
X62.659 Y16.436
X62.622 Y16.442
X62.502
X62.465 Z-1.394
X62.432 Z-1.377
X62.405 Z-1.351
X62.388 Z-1.317
X62.382 Z-1.28
G0 Z5
Y16.202
G1 Z0.1 F200
Z-1.48
X62.388 Z-1.517 F300
X62.405 Z-1.551
X62.432 Z-1.577
X62.465 Z-1.594
X62.502 Z-1.6
X62.622
X62.659 Y16.208
X62.693 Y16.225
X62.719 Y16.251
X62.736 Y16.285
X62.742 Y16.322
Y16.471 F100
X60.946
Y16.173
X62.742
Y16.322
X62.736 Y16.359 F300
X62.719 Y16.392
X62.693 Y16.419
X62.659 Y16.436
X62.622 Y16.442
X62.502
X62.465 Z-1.594
X62.432 Z-1.577
X62.405 Z-1.551
X62.388 Z-1.517
X62.382 Z-1.48
G0 Z5
X62.985 Y7.787
G1 Z1.5 F200
Z-0.38
X62.991 Z-0.417 F300
X63.008 Y7.788 Z-0.451
X63.034 Z-0.477
X63.068 Y7.789 Z-0.494
X63.105 Y7.79 Z-0.5
X63.225 Y7.793
X63.262 Y7.8
X63.295 Y7.818
X63.321 Y7.845
X63.337 Y7.879
X63.342 Y7.916
G3 X60.393 Y7.843 I-1.475 J-0.036 F100
X63.342 Y7.916 I1.475 J0.036
G1 X63.335 Y7.953 F300
X63.317 Y7.986
X63.29 Y8.012
X63.256 Y8.028
X63.219 Y8.033
X63.099 Y8.03
X63.062 Y8.029 Z-0.494
X63.028 Y8.028 Z-0.477
X63.002 Z-0.451
X62.985 Y8.027 Z-0.417
X62.979 Z-0.38
G0 Z5
X62.985 Y7.787
G1 Z1 F200
Z-0.88
X62.991 Z-0.917 F300
X63.008 Y7.788 Z-0.951
X63.034 Z-0.977
X63.068 Y7.789 Z-0.994
X63.105 Y7.79 Z-1
X63.225 Y7.793
X63.262 Y7.8
X63.295 Y7.818
X63.321 Y7.845
X63.337 Y7.879
X63.342 Y7.916
G3 X60.393 Y7.843 I-1.475 J-0.036 F100
X63.342 Y7.916 I1.475 J0.036
G1 X63.335 Y7.953 F300
X63.317 Y7.986
X63.29 Y8.012
X63.256 Y8.028
X63.219 Y8.033
X63.099 Y8.03
X63.062 Y8.029 Z-0.994
X63.028 Y8.028 Z-0.977
X63.002 Z-0.951
X62.985 Y8.027 Z-0.917
X62.979 Z-0.88
G0 Z5
X62.985 Y7.787
G1 Z0.5 F200
Z-1.28
X62.991 Z-1.317 F300
X63.008 Y7.788 Z-1.351
X63.034 Z-1.377
X63.068 Y7.789 Z-1.394
X63.105 Y7.79 Z-1.4
X63.225 Y7.793
X63.262 Y7.8
X63.295 Y7.818
X63.321 Y7.845
X63.337 Y7.879
X63.342 Y7.916
G3 X60.393 Y7.843 I-1.475 J-0.036 F100
X63.342 Y7.916 I1.475 J0.036
G1 X63.335 Y7.953 F300
X63.317 Y7.986
X63.29 Y8.012
X63.256 Y8.028
X63.219 Y8.033
X63.099 Y8.03
X63.062 Y8.029 Z-1.394
X63.028 Y8.028 Z-1.377
X63.002 Z-1.351
X62.985 Y8.027 Z-1.317
X62.979 Z-1.28
G0 Z5
X62.985 Y7.787
G1 Z0.1 F200
Z-1.48
X62.991 Z-1.517 F300
X63.008 Y7.788 Z-1.551
X63.034 Z-1.577
X63.068 Y7.789 Z-1.594
X63.105 Y7.79 Z-1.6
X63.225 Y7.793
X63.262 Y7.8
X63.295 Y7.818
X63.321 Y7.845
X63.337 Y7.879
X63.342 Y7.916
G3 X60.393 Y7.843 I-1.475 J-0.036 F100
X63.342 Y7.916 I1.475 J0.036
G1 X63.335 Y7.953 F300
X63.317 Y7.986
X63.29 Y8.012
X63.256 Y8.028
X63.219 Y8.033
X63.099 Y8.03
X63.062 Y8.029 Z-1.594
X63.028 Y8.028 Z-1.577
X63.002 Z-1.551
X62.985 Y8.027 Z-1.517
X62.979 Z-1.48
G0 Z5
X29.957 Y20.255
G1 Z1.5 F200
Z-0.38
X29.963 Z-0.417 F300
X29.98 Z-0.451
X30.007 Z-0.477
X30.04 Z-0.494
X30.077 Z-0.5
X30.197
X30.234 Y20.261
X30.268 Y20.278
X30.294 Y20.305
X30.312 Y20.338
X30.317 Y20.375
G3 X27.367 Y20.375 I-1.475 J0 F100
X30.317 Y20.375 I1.475 J0
G1 X30.312 Y20.412 F300
X30.294 Y20.446
X30.268 Y20.472
X30.234 Y20.489
X30.197 Y20.495
X30.077
X30.04 Z-0.494
X30.007 Z-0.477
X29.98 Z-0.451
X29.963 Z-0.417
X29.957 Z-0.38
G0 Z5
Y20.255
G1 Z1 F200
Z-0.88
X29.963 Z-0.917 F300
X29.98 Z-0.951
X30.007 Z-0.977
X30.04 Z-0.994
X30.077 Z-1
X30.197
X30.234 Y20.261
X30.268 Y20.278
X30.294 Y20.305
X30.312 Y20.338
X30.317 Y20.375
G3 X27.367 Y20.375 I-1.475 J0 F100
X30.317 Y20.375 I1.475 J0
G1 X30.312 Y20.412 F300
X30.294 Y20.446
X30.268 Y20.472
X30.234 Y20.489
X30.197 Y20.495
X30.077
X30.04 Z-0.994
X30.007 Z-0.977
X29.98 Z-0.951
X29.963 Z-0.917
X29.957 Z-0.88
G0 Z5
Y20.255
G1 Z0.5 F200
Z-1.28
X29.963 Z-1.317 F300
X29.98 Z-1.351
X30.007 Z-1.377
X30.04 Z-1.394
X30.077 Z-1.4
X30.197
X30.234 Y20.261
X30.268 Y20.278
X30.294 Y20.305
X30.312 Y20.338
X30.317 Y20.375
G3 X27.367 Y20.375 I-1.475 J0 F100
X30.317 Y20.375 I1.475 J0
G1 X30.312 Y20.412 F300
X30.294 Y20.446
X30.268 Y20.472
X30.234 Y20.489
X30.197 Y20.495
X30.077
X30.04 Z-1.394
X30.007 Z-1.377
X29.98 Z-1.351
X29.963 Z-1.317
X29.957 Z-1.28
G0 Z5
Y20.255
G1 Z0.1 F200
Z-1.48
X29.963 Z-1.517 F300
X29.98 Z-1.551
X30.007 Z-1.577
X30.04 Z-1.594
X30.077 Z-1.6
X30.197
X30.234 Y20.261
X30.268 Y20.278
X30.294 Y20.305
X30.312 Y20.338
X30.317 Y20.375
G3 X27.367 Y20.375 I-1.475 J0 F100
X30.317 Y20.375 I1.475 J0
G1 X30.312 Y20.412 F300
X30.294 Y20.446
X30.268 Y20.472
X30.234 Y20.489
X30.197 Y20.495
X30.077
X30.04 Z-1.594
X30.007 Z-1.577
X29.98 Z-1.551
X29.963 Z-1.517
X29.957 Z-1.48
G0 Z5
X29.413 Y28.674
G1 Z1.5 F200
Z-0.38
X29.419 Z-0.417 F300
X29.436 Z-0.451
X29.462 Z-0.477
X29.496 Z-0.494
X29.533 Z-0.5
X29.653 Y28.673
X29.69 Y28.679
X29.723 Y28.696
X29.75 Y28.723
X29.767 Y28.756
X29.773 Y28.793
Y28.943 F100
X27.977
X27.976 Y28.645
X29.773 Y28.644
Y28.793
X29.767 Y28.83 F300
X29.75 Y28.864
X29.724 Y28.89
X29.69 Y28.908
X29.653 Y28.913
X29.533 Y28.914
X29.496 Z-0.494
X29.463 Z-0.477
X29.436 Z-0.451
X29.419 Z-0.417
X29.413 Z-0.38
G0 Z5
Y28.674
G1 Z1 F200
Z-0.88
X29.419 Z-0.917 F300
X29.436 Z-0.951
X29.462 Z-0.977
X29.496 Z-0.994
X29.533 Z-1
X29.653 Y28.673
X29.69 Y28.679
X29.723 Y28.696
X29.75 Y28.723
X29.767 Y28.756
X29.773 Y28.793
Y28.943 F100
X27.977
X27.976 Y28.645
X29.773 Y28.644
Y28.793
X29.767 Y28.83 F300
X29.75 Y28.864
X29.724 Y28.89
X29.69 Y28.908
X29.653 Y28.913
X29.533 Y28.914
X29.496 Z-0.994
X29.463 Z-0.977
X29.436 Z-0.951
X29.419 Z-0.917
X29.413 Z-0.88
G0 Z5
Y28.674
G1 Z0.5 F200
Z-1.28
X29.419 Z-1.317 F300
X29.436 Z-1.351
X29.462 Z-1.377
X29.496 Z-1.394
X29.533 Z-1.4
X29.653 Y28.673
X29.69 Y28.679
X29.723 Y28.696
X29.75 Y28.723
X29.767 Y28.756
X29.773 Y28.793
Y28.943 F100
X27.977
X27.976 Y28.645
X29.773 Y28.644
Y28.793
X29.767 Y28.83 F300
X29.75 Y28.864
X29.724 Y28.89
X29.69 Y28.908
X29.653 Y28.913
X29.533 Y28.914
X29.496 Z-1.394
X29.463 Z-1.377
X29.436 Z-1.351
X29.419 Z-1.317
X29.413 Z-1.28
G0 Z5
Y28.674
G1 Z0.1 F200
Z-1.48
X29.419 Z-1.517 F300
X29.436 Z-1.551
X29.462 Z-1.577
X29.496 Z-1.594
X29.533 Z-1.6
X29.653 Y28.673
X29.69 Y28.679
X29.723 Y28.696
X29.75 Y28.723
X29.767 Y28.756
X29.773 Y28.793
Y28.943 F100
X27.977
X27.976 Y28.645
X29.773 Y28.644
Y28.793
X29.767 Y28.83 F300
X29.75 Y28.864
X29.724 Y28.89
X29.69 Y28.908
X29.653 Y28.913
X29.533 Y28.914
X29.496 Z-1.594
X29.463 Z-1.577
X29.436 Z-1.551
X29.419 Z-1.517
X29.413 Z-1.48
G0 Z5
X30.385 Y32.793
G1 Z1.5 F200
Z-0.38
X30.391 Z-0.417 F300
X30.408 Z-0.451
X30.434 Y32.794 Z-0.477
X30.468 Y32.795 Z-0.494
X30.505 Y32.796 Z-0.5
X30.625 Y32.799
X30.662 Y32.806
X30.695 Y32.823
X30.721 Y32.851
X30.737 Y32.885
X30.742 Y32.922
G3 X26.943 Y32.828 I-1.899 J-0.047 F100
X30.742 Y32.922 I1.899 J0.047
G1 X30.735 Y32.959 F300
X30.717 Y32.992
X30.69 Y33.018
X30.656 Y33.034
X30.619 Y33.039
X30.499 Y33.036
X30.462 Y33.035 Z-0.494
X30.428 Y33.034 Z-0.477
X30.402 Y33.033 Z-0.451
X30.385 Z-0.417
X30.379 Z-0.38
G0 Z5
X30.385 Y32.793
G1 Z1 F200
Z-0.88
X30.391 Z-0.917 F300
X30.408 Z-0.951
X30.434 Y32.794 Z-0.977
X30.468 Y32.795 Z-0.994
X30.505 Y32.796 Z-1
X30.625 Y32.799
X30.662 Y32.806
X30.695 Y32.823
X30.721 Y32.851
X30.737 Y32.885
X30.742 Y32.922
G3 X26.943 Y32.828 I-1.899 J-0.047 F100
X30.742 Y32.922 I1.899 J0.047
G1 X30.735 Y32.959 F300
X30.717 Y32.992
X30.69 Y33.018
X30.656 Y33.034
X30.619 Y33.039
X30.499 Y33.036
X30.462 Y33.035 Z-0.994
X30.428 Y33.034 Z-0.977
X30.402 Y33.033 Z-0.951
X30.385 Z-0.917
X30.379 Z-0.88
G0 Z5
X30.385 Y32.793
G1 Z0.5 F200
Z-1.28
X30.391 Z-1.317 F300
X30.408 Z-1.351
X30.434 Y32.794 Z-1.377
X30.468 Y32.795 Z-1.394
X30.505 Y32.796 Z-1.4
X30.625 Y32.799
X30.662 Y32.806
X30.695 Y32.823
X30.721 Y32.851
X30.737 Y32.885
X30.742 Y32.922
G3 X26.943 Y32.828 I-1.899 J-0.047 F100
X30.742 Y32.922 I1.899 J0.047
G1 X30.735 Y32.959 F300
X30.717 Y32.992
X30.69 Y33.018
X30.656 Y33.034
X30.619 Y33.039
X30.499 Y33.036
X30.462 Y33.035 Z-1.394
X30.428 Y33.034 Z-1.377
X30.402 Y33.033 Z-1.351
X30.385 Z-1.317
X30.379 Z-1.28
G0 Z5
X30.385 Y32.793
G1 Z0.1 F200
Z-1.48
X30.391 Z-1.517 F300
X30.408 Z-1.551
X30.434 Y32.794 Z-1.577
X30.468 Y32.795 Z-1.594
X30.505 Y32.796 Z-1.6
X30.625 Y32.799
X30.662 Y32.806
X30.695 Y32.823
X30.721 Y32.851
X30.737 Y32.885
X30.742 Y32.922
G3 X26.943 Y32.828 I-1.899 J-0.047 F100
X30.742 Y32.922 I1.899 J0.047
G1 X30.735 Y32.959 F300
X30.717 Y32.992
X30.69 Y33.018
X30.656 Y33.034
X30.619 Y33.039
X30.499 Y33.036
X30.462 Y33.035 Z-1.594
X30.428 Y33.034 Z-1.577
X30.402 Y33.033 Z-1.551
X30.385 Z-1.517
X30.379 Z-1.48
G0 Z5
X29.413 Y41.196
G1 Z1.5 F200
Z-0.38
X29.419 Z-0.417 F300
X29.436 Z-0.451
X29.462 Z-0.477
X29.496 Z-0.494
X29.533 Z-0.5
X29.653
X29.69 Y41.201
X29.723 Y41.218
X29.75 Y41.245
X29.767 Y41.278
X29.773 Y41.315
Y41.465 F100
X27.977
X27.976 Y41.167
X29.773 Y41.166
Y41.315
X29.767 Y41.353 F300
X29.75 Y41.386
X29.724 Y41.413
X29.69 Y41.43
X29.653 Y41.436
X29.533
X29.496 Z-0.494
X29.463 Z-0.477
X29.436 Z-0.451
X29.419 Z-0.417
X29.413 Z-0.38
G0 Z5
Y41.196
G1 Z1 F200
Z-0.88
X29.419 Z-0.917 F300
X29.436 Z-0.951
X29.462 Z-0.977
X29.496 Z-0.994
X29.533 Z-1
X29.653
X29.69 Y41.201
X29.723 Y41.218
X29.75 Y41.245
X29.767 Y41.278
X29.773 Y41.315
Y41.465 F100
X27.977
X27.976 Y41.167
X29.773 Y41.166
Y41.315
X29.767 Y41.353 F300
X29.75 Y41.386
X29.724 Y41.413
X29.69 Y41.43
X29.653 Y41.436
X29.533
X29.496 Z-0.994
X29.463 Z-0.977
X29.436 Z-0.951
X29.419 Z-0.917
X29.413 Z-0.88
G0 Z5
Y41.196
G1 Z0.5 F200
Z-1.28
X29.419 Z-1.317 F300
X29.436 Z-1.351
X29.462 Z-1.377
X29.496 Z-1.394
X29.533 Z-1.4
X29.653
X29.69 Y41.201
X29.723 Y41.218
X29.75 Y41.245
X29.767 Y41.278
X29.773 Y41.315
Y41.465 F100
X27.977
X27.976 Y41.167
X29.773 Y41.166
Y41.315
X29.767 Y41.353 F300
X29.75 Y41.386
X29.724 Y41.413
X29.69 Y41.43
X29.653 Y41.436
X29.533
X29.496 Z-1.394
X29.463 Z-1.377
X29.436 Z-1.351
X29.419 Z-1.317
X29.413 Z-1.28
G0 Z5
Y41.196
G1 Z0.1 F200
Z-1.48
X29.419 Z-1.517 F300
X29.436 Z-1.551
X29.462 Z-1.577
X29.496 Z-1.594
X29.533 Z-1.6
X29.653
X29.69 Y41.201
X29.723 Y41.218
X29.75 Y41.245
X29.767 Y41.278
X29.773 Y41.315
Y41.465 F100
X27.977
X27.976 Y41.167
X29.773 Y41.166
Y41.315
X29.767 Y41.353 F300
X29.75 Y41.386
X29.724 Y41.413
X29.69 Y41.43
X29.653 Y41.436
X29.533
X29.496 Z-1.594
X29.463 Z-1.577
X29.436 Z-1.551
X29.419 Z-1.517
X29.413 Z-1.48
G0 Z5
X29.957 Y45.255
G1 Z1.5 F200
Z-0.38
X29.963 Z-0.417 F300
X29.98 Z-0.451
X30.007 Z-0.477
X30.04 Z-0.494
X30.077 Z-0.5
X30.197
X30.234 Y45.261
X30.268 Y45.278
X30.294 Y45.305
X30.312 Y45.338
X30.317 Y45.375
G3 X27.367 Y45.375 I-1.475 J0 F100
X30.317 Y45.375 I1.475 J0
G1 X30.312 Y45.412 F300
X30.294 Y45.446
X30.268 Y45.472
X30.234 Y45.489
X30.197 Y45.495
X30.077
X30.04 Z-0.494
X30.007 Z-0.477
X29.98 Z-0.451
X29.963 Z-0.417
X29.957 Z-0.38
G0 Z5
Y45.255
G1 Z1 F200
Z-0.88
X29.963 Z-0.917 F300
X29.98 Z-0.951
X30.007 Z-0.977
X30.04 Z-0.994
X30.077 Z-1
X30.197
X30.234 Y45.261
X30.268 Y45.278
X30.294 Y45.305
X30.312 Y45.338
X30.317 Y45.375
G3 X27.367 Y45.375 I-1.475 J0 F100
X30.317 Y45.375 I1.475 J0
G1 X30.312 Y45.412 F300
X30.294 Y45.446
X30.268 Y45.472
X30.234 Y45.489
X30.197 Y45.495
X30.077
X30.04 Z-0.994
X30.007 Z-0.977
X29.98 Z-0.951
X29.963 Z-0.917
X29.957 Z-0.88
G0 Z5
Y45.255
G1 Z0.5 F200
Z-1.28
X29.963 Z-1.317 F300
X29.98 Z-1.351
X30.007 Z-1.377
X30.04 Z-1.394
X30.077 Z-1.4
X30.197
X30.234 Y45.261
X30.268 Y45.278
X30.294 Y45.305
X30.312 Y45.338
X30.317 Y45.375
G3 X27.367 Y45.375 I-1.475 J0 F100
X30.317 Y45.375 I1.475 J0
G1 X30.312 Y45.412 F300
X30.294 Y45.446
X30.268 Y45.472
X30.234 Y45.489
X30.197 Y45.495
X30.077
X30.04 Z-1.394
X30.007 Z-1.377
X29.98 Z-1.351
X29.963 Z-1.317
X29.957 Z-1.28
G0 Z5
Y45.255
G1 Z0.1 F200
Z-1.48
X29.963 Z-1.517 F300
X29.98 Z-1.551
X30.007 Z-1.577
X30.04 Z-1.594
X30.077 Z-1.6
X30.197
X30.234 Y45.261
X30.268 Y45.278
X30.294 Y45.305
X30.312 Y45.338
X30.317 Y45.375
G3 X27.367 Y45.375 I-1.475 J0 F100
X30.317 Y45.375 I1.475 J0
G1 X30.312 Y45.412 F300
X30.294 Y45.446
X30.268 Y45.472
X30.234 Y45.489
X30.197 Y45.495
X30.077
X30.04 Z-1.594
X30.007 Z-1.577
X29.98 Z-1.551
X29.963 Z-1.517
X29.957 Z-1.48
G0 Z5
X29.388 Y53.743
G1 Z1.5 F200
Z-0.38
X29.393 Z-0.417 F300
X29.41 Z-0.451
X29.437 Z-0.477
X29.47 Z-0.494
X29.508 Z-0.5
X29.628
X29.665 Y53.749
X29.698 Y53.766
X29.725 Y53.793
X29.742 Y53.826
X29.748 Y53.863
Y54.013 F100
X27.951
Y53.715
X29.748 Y53.714
Y53.863
X29.742 Y53.9 F300
X29.725 Y53.934
X29.698 Y53.96
X29.665 Y53.977
X29.628 Y53.983
X29.508
X29.471 Z-0.494
X29.437 Z-0.477
X29.411 Z-0.451
X29.394 Z-0.417
X29.388 Z-0.38
G0 Z5
Y53.743
G1 Z1 F200
Z-0.88
X29.393 Z-0.917 F300
X29.41 Z-0.951
X29.437 Z-0.977
X29.47 Z-0.994
X29.508 Z-1
X29.628
X29.665 Y53.749
X29.698 Y53.766
X29.725 Y53.793
X29.742 Y53.826
X29.748 Y53.863
Y54.013 F100
X27.951
Y53.715
X29.748 Y53.714
Y53.863
X29.742 Y53.9 F300
X29.725 Y53.934
X29.698 Y53.96
X29.665 Y53.977
X29.628 Y53.983
X29.508
X29.471 Z-0.994
X29.437 Z-0.977
X29.411 Z-0.951
X29.394 Z-0.917
X29.388 Z-0.88
G0 Z5
Y53.743
G1 Z0.5 F200
Z-1.28
X29.393 Z-1.317 F300
X29.41 Z-1.351
X29.437 Z-1.377
X29.47 Z-1.394
X29.508 Z-1.4
X29.628
X29.665 Y53.749
X29.698 Y53.766
X29.725 Y53.793
X29.742 Y53.826
X29.748 Y53.863
Y54.013 F100
X27.951
Y53.715
X29.748 Y53.714
Y53.863
X29.742 Y53.9 F300
X29.725 Y53.934
X29.698 Y53.96
X29.665 Y53.977
X29.628 Y53.983
X29.508
X29.471 Z-1.394
X29.437 Z-1.377
X29.411 Z-1.351
X29.394 Z-1.317
X29.388 Z-1.28
G0 Z5
Y53.743
G1 Z0.1 F200
Z-1.48
X29.393 Z-1.517 F300
X29.41 Z-1.551
X29.437 Z-1.577
X29.47 Z-1.594
X29.508 Z-1.6
X29.628
X29.665 Y53.749
X29.698 Y53.766
X29.725 Y53.793
X29.742 Y53.826
X29.748 Y53.863
Y54.013 F100
X27.951
Y53.715
X29.748 Y53.714
Y53.863
X29.742 Y53.9 F300
X29.725 Y53.934
X29.698 Y53.96
X29.665 Y53.977
X29.628 Y53.983
X29.508
X29.471 Z-1.594
X29.437 Z-1.577
X29.411 Z-1.551
X29.394 Z-1.517
X29.388 Z-1.48
G0 Z5
X30.382 Y57.755
G1 Z1.5 F200
Z-0.38
X30.388 Z-0.417 F300
X30.405 Z-0.451
X30.432 Z-0.477
X30.465 Z-0.494
X30.502 Z-0.5
X30.622
X30.659 Y57.761
X30.693 Y57.778
X30.719 Y57.805
X30.737 Y57.838
X30.742 Y57.875
G3 X26.942 Y57.875 I-1.9 J0 F100
X30.742 Y57.875 I1.9 J0
G1 X30.737 Y57.912 F300
X30.719 Y57.946
X30.693 Y57.972
X30.659 Y57.989
X30.622 Y57.995
X30.502
X30.465 Z-0.494
X30.432 Z-0.477
X30.405 Z-0.451
X30.388 Z-0.417
X30.382 Z-0.38
G0 Z5
Y57.755
G1 Z1 F200
Z-0.88
X30.388 Z-0.917 F300
X30.405 Z-0.951
X30.432 Z-0.977
X30.465 Z-0.994
X30.502 Z-1
X30.622
X30.659 Y57.761
X30.693 Y57.778
X30.719 Y57.805
X30.737 Y57.838
X30.742 Y57.875
G3 X26.942 Y57.875 I-1.9 J0 F100
X30.742 Y57.875 I1.9 J0
G1 X30.737 Y57.912 F300
X30.719 Y57.946
X30.693 Y57.972
X30.659 Y57.989
X30.622 Y57.995
X30.502
X30.465 Z-0.994
X30.432 Z-0.977
X30.405 Z-0.951
X30.388 Z-0.917
X30.382 Z-0.88
G0 Z5
Y57.755
G1 Z0.5 F200
Z-1.28
X30.388 Z-1.317 F300
X30.405 Z-1.351
X30.432 Z-1.377
X30.465 Z-1.394
X30.502 Z-1.4
X30.622
X30.659 Y57.761
X30.693 Y57.778
X30.719 Y57.805
X30.737 Y57.838
X30.742 Y57.875
G3 X26.942 Y57.875 I-1.9 J0 F100
X30.742 Y57.875 I1.9 J0
G1 X30.737 Y57.912 F300
X30.719 Y57.946
X30.693 Y57.972
X30.659 Y57.989
X30.622 Y57.995
X30.502
X30.465 Z-1.394
X30.432 Z-1.377
X30.405 Z-1.351
X30.388 Z-1.317
X30.382 Z-1.28
G0 Z5
Y57.755
G1 Z0.1 F200
Z-1.48
X30.388 Z-1.517 F300
X30.405 Z-1.551
X30.432 Z-1.577
X30.465 Z-1.594
X30.502 Z-1.6
X30.622
X30.659 Y57.761
X30.693 Y57.778
X30.719 Y57.805
X30.737 Y57.838
X30.742 Y57.875
G3 X26.942 Y57.875 I-1.9 J0 F100
X30.742 Y57.875 I1.9 J0
G1 X30.737 Y57.912 F300
X30.719 Y57.946
X30.693 Y57.972
X30.659 Y57.989
X30.622 Y57.995
X30.502
X30.465 Z-1.594
X30.432 Z-1.577
X30.405 Z-1.551
X30.388 Z-1.517
X30.382 Z-1.48
G0 Z5
X40.957 Y57.755
G1 Z1.5 F200
Z-0.38
X40.963 Z-0.417 F300
X40.98 Z-0.451
X41.007 Z-0.477
X41.04 Z-0.494
X41.077 Z-0.5
X41.197
X41.234 Y57.761
X41.268 Y57.778
X41.294 Y57.805
X41.312 Y57.838
X41.317 Y57.875
G3 X38.367 Y57.875 I-1.475 J0 F100
X41.317 Y57.875 I1.475 J0
G1 X41.312 Y57.912 F300
X41.294 Y57.946
X41.268 Y57.972
X41.234 Y57.989
X41.197 Y57.995
X41.077
X41.04 Z-0.494
X41.007 Z-0.477
X40.98 Z-0.451
X40.963 Z-0.417
X40.957 Z-0.38
G0 Z5
Y57.755
G1 Z1 F200
Z-0.88
X40.963 Z-0.917 F300
X40.98 Z-0.951
X41.007 Z-0.977
X41.04 Z-0.994
X41.077 Z-1
X41.197
X41.234 Y57.761
X41.268 Y57.778
X41.294 Y57.805
X41.312 Y57.838
X41.317 Y57.875
G3 X38.367 Y57.875 I-1.475 J0 F100
X41.317 Y57.875 I1.475 J0
G1 X41.312 Y57.912 F300
X41.294 Y57.946
X41.268 Y57.972
X41.234 Y57.989
X41.197 Y57.995
X41.077
X41.04 Z-0.994
X41.007 Z-0.977
X40.98 Z-0.951
X40.963 Z-0.917
X40.957 Z-0.88
G0 Z5
Y57.755
G1 Z0.5 F200
Z-1.28
X40.963 Z-1.317 F300
X40.98 Z-1.351
X41.007 Z-1.377
X41.04 Z-1.394
X41.077 Z-1.4
X41.197
X41.234 Y57.761
X41.268 Y57.778
X41.294 Y57.805
X41.312 Y57.838
X41.317 Y57.875
G3 X38.367 Y57.875 I-1.475 J0 F100
X41.317 Y57.875 I1.475 J0
G1 X41.312 Y57.912 F300
X41.294 Y57.946
X41.268 Y57.972
X41.234 Y57.989
X41.197 Y57.995
X41.077
X41.04 Z-1.394
X41.007 Z-1.377
X40.98 Z-1.351
X40.963 Z-1.317
X40.957 Z-1.28
G0 Z5
Y57.755
G1 Z0.1 F200
Z-1.48
X40.963 Z-1.517 F300
X40.98 Z-1.551
X41.007 Z-1.577
X41.04 Z-1.594
X41.077 Z-1.6
X41.197
X41.234 Y57.761
X41.268 Y57.778
X41.294 Y57.805
X41.312 Y57.838
X41.317 Y57.875
G3 X38.367 Y57.875 I-1.475 J0 F100
X41.317 Y57.875 I1.475 J0
G1 X41.312 Y57.912 F300
X41.294 Y57.946
X41.268 Y57.972
X41.234 Y57.989
X41.197 Y57.995
X41.077
X41.04 Z-1.594
X41.007 Z-1.577
X40.98 Z-1.551
X40.963 Z-1.517
X40.957 Z-1.48
G0 Z5
X40.386 Y53.743
G1 Z1.5 F200
Z-0.38
X40.392 Z-0.417 F300
X40.409 Z-0.451
X40.435 Z-0.477
X40.469 Z-0.494
X40.506 Z-0.5
X40.626
X40.663 Y53.749
X40.696 Y53.766
X40.723 Y53.793
X40.74 Y53.826
X40.746 Y53.863
Y54.013 F100
X38.949
Y53.715
X40.746 Y53.714
Y53.863
X40.74 Y53.9 F300
X40.723 Y53.934
X40.696 Y53.96
X40.663 Y53.977
X40.626 Y53.983
X40.506
X40.469 Z-0.494
X40.435 Z-0.477
X40.409 Z-0.451
X40.392 Z-0.417
X40.386 Z-0.38
G0 Z5
Y53.743
G1 Z1 F200
Z-0.88
X40.392 Z-0.917 F300
X40.409 Z-0.951
X40.435 Z-0.977
X40.469 Z-0.994
X40.506 Z-1
X40.626
X40.663 Y53.749
X40.696 Y53.766
X40.723 Y53.793
X40.74 Y53.826
X40.746 Y53.863
Y54.013 F100
X38.949
Y53.715
X40.746 Y53.714
Y53.863
X40.74 Y53.9 F300
X40.723 Y53.934
X40.696 Y53.96
X40.663 Y53.977
X40.626 Y53.983
X40.506
X40.469 Z-0.994
X40.435 Z-0.977
X40.409 Z-0.951
X40.392 Z-0.917
X40.386 Z-0.88
G0 Z5
Y53.743
G1 Z0.5 F200
Z-1.28
X40.392 Z-1.317 F300
X40.409 Z-1.351
X40.435 Z-1.377
X40.469 Z-1.394
X40.506 Z-1.4
X40.626
X40.663 Y53.749
X40.696 Y53.766
X40.723 Y53.793
X40.74 Y53.826
X40.746 Y53.863
Y54.013 F100
X38.949
Y53.715
X40.746 Y53.714
Y53.863
X40.74 Y53.9 F300
X40.723 Y53.934
X40.696 Y53.96
X40.663 Y53.977
X40.626 Y53.983
X40.506
X40.469 Z-1.394
X40.435 Z-1.377
X40.409 Z-1.351
X40.392 Z-1.317
X40.386 Z-1.28
G0 Z5
Y53.743
G1 Z0.1 F200
Z-1.48
X40.392 Z-1.517 F300
X40.409 Z-1.551
X40.435 Z-1.577
X40.469 Z-1.594
X40.506 Z-1.6
X40.626
X40.663 Y53.749
X40.696 Y53.766
X40.723 Y53.793
X40.74 Y53.826
X40.746 Y53.863
Y54.013 F100
X38.949
Y53.715
X40.746 Y53.714
Y53.863
X40.74 Y53.9 F300
X40.723 Y53.934
X40.696 Y53.96
X40.663 Y53.977
X40.626 Y53.983
X40.506
X40.469 Z-1.594
X40.435 Z-1.577
X40.409 Z-1.551
X40.392 Z-1.517
X40.386 Z-1.48
G0 Z5
X40.957 Y45.255
G1 Z1.5 F200
Z-0.38
X40.963 Z-0.417 F300
X40.98 Z-0.451
X41.007 Z-0.477
X41.04 Z-0.494
X41.077 Z-0.5
X41.197
X41.234 Y45.261
X41.268 Y45.278
X41.294 Y45.305
X41.312 Y45.338
X41.317 Y45.375
G3 X38.367 Y45.375 I-1.475 J0 F100
X41.317 Y45.375 I1.475 J0
G1 X41.312 Y45.412 F300
X41.294 Y45.446
X41.268 Y45.472
X41.234 Y45.489
X41.197 Y45.495
X41.077
X41.04 Z-0.494
X41.007 Z-0.477
X40.98 Z-0.451
X40.963 Z-0.417
X40.957 Z-0.38
G0 Z5
Y45.255
G1 Z1 F200
Z-0.88
X40.963 Z-0.917 F300
X40.98 Z-0.951
X41.007 Z-0.977
X41.04 Z-0.994
X41.077 Z-1
X41.197
X41.234 Y45.261
X41.268 Y45.278
X41.294 Y45.305
X41.312 Y45.338
X41.317 Y45.375
G3 X38.367 Y45.375 I-1.475 J0 F100
X41.317 Y45.375 I1.475 J0
G1 X41.312 Y45.412 F300
X41.294 Y45.446
X41.268 Y45.472
X41.234 Y45.489
X41.197 Y45.495
X41.077
X41.04 Z-0.994
X41.007 Z-0.977
X40.98 Z-0.951
X40.963 Z-0.917
X40.957 Z-0.88
G0 Z5
Y45.255
G1 Z0.5 F200
Z-1.28
X40.963 Z-1.317 F300
X40.98 Z-1.351
X41.007 Z-1.377
X41.04 Z-1.394
X41.077 Z-1.4
X41.197
X41.234 Y45.261
X41.268 Y45.278
X41.294 Y45.305
X41.312 Y45.338
X41.317 Y45.375
G3 X38.367 Y45.375 I-1.475 J0 F100
X41.317 Y45.375 I1.475 J0
G1 X41.312 Y45.412 F300
X41.294 Y45.446
X41.268 Y45.472
X41.234 Y45.489
X41.197 Y45.495
X41.077
X41.04 Z-1.394
X41.007 Z-1.377
X40.98 Z-1.351
X40.963 Z-1.317
X40.957 Z-1.28
G0 Z5
Y45.255
G1 Z0.1 F200
Z-1.48
X40.963 Z-1.517 F300
X40.98 Z-1.551
X41.007 Z-1.577
X41.04 Z-1.594
X41.077 Z-1.6
X41.197
X41.234 Y45.261
X41.268 Y45.278
X41.294 Y45.305
X41.312 Y45.338
X41.317 Y45.375
G3 X38.367 Y45.375 I-1.475 J0 F100
X41.317 Y45.375 I1.475 J0
G1 X41.312 Y45.412 F300
X41.294 Y45.446
X41.268 Y45.472
X41.234 Y45.489
X41.197 Y45.495
X41.077
X41.04 Z-1.594
X41.007 Z-1.577
X40.98 Z-1.551
X40.963 Z-1.517
X40.957 Z-1.48
G0 Z5
X40.411 Y41.196
G1 Z1.5 F200
Z-0.38
X40.417 Z-0.417 F300
X40.434 Z-0.451
X40.461 Z-0.477
X40.494 Z-0.494
X40.531 Z-0.5
X40.651
X40.688 Y41.201
X40.722 Y41.218
X40.748 Y41.245
X40.765 Y41.278
X40.771 Y41.315
Y41.465 F100
X38.975
Y41.167
X40.771 Y41.166
Y41.315
X40.765 Y41.353 F300
X40.748 Y41.386
X40.722 Y41.413
X40.688 Y41.43
X40.651 Y41.436
X40.531
X40.494 Z-0.494
X40.461 Z-0.477
X40.434 Z-0.451
X40.417 Z-0.417
X40.411 Z-0.38
G0 Z5
Y41.196
G1 Z1 F200
Z-0.88
X40.417 Z-0.917 F300
X40.434 Z-0.951
X40.461 Z-0.977
X40.494 Z-0.994
X40.531 Z-1
X40.651
X40.688 Y41.201
X40.722 Y41.218
X40.748 Y41.245
X40.765 Y41.278
X40.771 Y41.315
Y41.465 F100
X38.975
Y41.167
X40.771 Y41.166
Y41.315
X40.765 Y41.353 F300
X40.748 Y41.386
X40.722 Y41.413
X40.688 Y41.43
X40.651 Y41.436
X40.531
X40.494 Z-0.994
X40.461 Z-0.977
X40.434 Z-0.951
X40.417 Z-0.917
X40.411 Z-0.88
G0 Z5
Y41.196
G1 Z0.5 F200
Z-1.28
X40.417 Z-1.317 F300
X40.434 Z-1.351
X40.461 Z-1.377
X40.494 Z-1.394
X40.531 Z-1.4
X40.651
X40.688 Y41.201
X40.722 Y41.218
X40.748 Y41.245
X40.765 Y41.278
X40.771 Y41.315
Y41.465 F100
X38.975
Y41.167
X40.771 Y41.166
Y41.315
X40.765 Y41.353 F300
X40.748 Y41.386
X40.722 Y41.413
X40.688 Y41.43
X40.651 Y41.436
X40.531
X40.494 Z-1.394
X40.461 Z-1.377
X40.434 Z-1.351
X40.417 Z-1.317
X40.411 Z-1.28
G0 Z5
Y41.196
G1 Z0.1 F200
Z-1.48
X40.417 Z-1.517 F300
X40.434 Z-1.551
X40.461 Z-1.577
X40.494 Z-1.594
X40.531 Z-1.6
X40.651
X40.688 Y41.201
X40.722 Y41.218
X40.748 Y41.245
X40.765 Y41.278
X40.771 Y41.315
Y41.465 F100
X38.975
Y41.167
X40.771 Y41.166
Y41.315
X40.765 Y41.353 F300
X40.748 Y41.386
X40.722 Y41.413
X40.688 Y41.43
X40.651 Y41.436
X40.531
X40.494 Z-1.594
X40.461 Z-1.577
X40.434 Z-1.551
X40.417 Z-1.517
X40.411 Z-1.48
G0 Z5
X18.957 Y45.255
G1 Z1.5 F200
Z-0.38
X18.963 Z-0.417 F300
X18.98 Z-0.451
X19.007 Z-0.477
X19.04 Z-0.494
X19.077 Z-0.5
X19.197
X19.234 Y45.261
X19.268 Y45.278
X19.294 Y45.305
X19.312 Y45.338
X19.317 Y45.375
G3 X16.367 Y45.375 I-1.475 J0 F100
X19.317 Y45.375 I1.475 J0
G1 X19.312 Y45.412 F300
X19.294 Y45.446
X19.268 Y45.472
X19.234 Y45.489
X19.197 Y45.495
X19.077
X19.04 Z-0.494
X19.007 Z-0.477
X18.98 Z-0.451
X18.963 Z-0.417
X18.957 Z-0.38
G0 Z5
Y45.255
G1 Z1 F200
Z-0.88
X18.963 Z-0.917 F300
X18.98 Z-0.951
X19.007 Z-0.977
X19.04 Z-0.994
X19.077 Z-1
X19.197
X19.234 Y45.261
X19.268 Y45.278
X19.294 Y45.305
X19.312 Y45.338
X19.317 Y45.375
G3 X16.367 Y45.375 I-1.475 J0 F100
X19.317 Y45.375 I1.475 J0
G1 X19.312 Y45.412 F300
X19.294 Y45.446
X19.268 Y45.472
X19.234 Y45.489
X19.197 Y45.495
X19.077
X19.04 Z-0.994
X19.007 Z-0.977
X18.98 Z-0.951
X18.963 Z-0.917
X18.957 Z-0.88
G0 Z5
Y45.255
G1 Z0.5 F200
Z-1.28
X18.963 Z-1.317 F300
X18.98 Z-1.351
X19.007 Z-1.377
X19.04 Z-1.394
X19.077 Z-1.4
X19.197
X19.234 Y45.261
X19.268 Y45.278
X19.294 Y45.305
X19.312 Y45.338
X19.317 Y45.375
G3 X16.367 Y45.375 I-1.475 J0 F100
X19.317 Y45.375 I1.475 J0
G1 X19.312 Y45.412 F300
X19.294 Y45.446
X19.268 Y45.472
X19.234 Y45.489
X19.197 Y45.495
X19.077
X19.04 Z-1.394
X19.007 Z-1.377
X18.98 Z-1.351
X18.963 Z-1.317
X18.957 Z-1.28
G0 Z5
Y45.255
G1 Z0.1 F200
Z-1.48
X18.963 Z-1.517 F300
X18.98 Z-1.551
X19.007 Z-1.577
X19.04 Z-1.594
X19.077 Z-1.6
X19.197
X19.234 Y45.261
X19.268 Y45.278
X19.294 Y45.305
X19.312 Y45.338
X19.317 Y45.375
G3 X16.367 Y45.375 I-1.475 J0 F100
X19.317 Y45.375 I1.475 J0
G1 X19.312 Y45.412 F300
X19.294 Y45.446
X19.268 Y45.472
X19.234 Y45.489
X19.197 Y45.495
X19.077
X19.04 Z-1.594
X19.007 Z-1.577
X18.98 Z-1.551
X18.963 Z-1.517
X18.957 Z-1.48
G0 Z5
X19.382 Y32.755
G1 Z1.5 F200
Z-0.38
X19.388 Z-0.417 F300
X19.405 Z-0.451
X19.432 Z-0.477
X19.465 Z-0.494
X19.502 Z-0.5
X19.622
X19.659 Y32.761
X19.693 Y32.778
X19.719 Y32.805
X19.737 Y32.838
X19.742 Y32.875
G3 X15.942 Y32.875 I-1.9 J0 F100
X19.742 Y32.875 I1.9 J0
G1 X19.737 Y32.912 F300
X19.719 Y32.946
X19.693 Y32.972
X19.659 Y32.989
X19.622 Y32.995
X19.502
X19.465 Z-0.494
X19.432 Z-0.477
X19.405 Z-0.451
X19.388 Z-0.417
X19.382 Z-0.38
G0 Z5
Y32.755
G1 Z1 F200
Z-0.88
X19.388 Z-0.917 F300
X19.405 Z-0.951
X19.432 Z-0.977
X19.465 Z-0.994
X19.502 Z-1
X19.622
X19.659 Y32.761
X19.693 Y32.778
X19.719 Y32.805
X19.737 Y32.838
X19.742 Y32.875
G3 X15.942 Y32.875 I-1.9 J0 F100
X19.742 Y32.875 I1.9 J0
G1 X19.737 Y32.912 F300
X19.719 Y32.946
X19.693 Y32.972
X19.659 Y32.989
X19.622 Y32.995
X19.502
X19.465 Z-0.994
X19.432 Z-0.977
X19.405 Z-0.951
X19.388 Z-0.917
X19.382 Z-0.88
G0 Z5
Y32.755
G1 Z0.5 F200
Z-1.28
X19.388 Z-1.317 F300
X19.405 Z-1.351
X19.432 Z-1.377
X19.465 Z-1.394
X19.502 Z-1.4
X19.622
X19.659 Y32.761
X19.693 Y32.778
X19.719 Y32.805
X19.737 Y32.838
X19.742 Y32.875
G3 X15.942 Y32.875 I-1.9 J0 F100
X19.742 Y32.875 I1.9 J0
G1 X19.737 Y32.912 F300
X19.719 Y32.946
X19.693 Y32.972
X19.659 Y32.989
X19.622 Y32.995
X19.502
X19.465 Z-1.394
X19.432 Z-1.377
X19.405 Z-1.351
X19.388 Z-1.317
X19.382 Z-1.28
G0 Z5
Y32.755
G1 Z0.1 F200
Z-1.48
X19.388 Z-1.517 F300
X19.405 Z-1.551
X19.432 Z-1.577
X19.465 Z-1.594
X19.502 Z-1.6
X19.622
X19.659 Y32.761
X19.693 Y32.778
X19.719 Y32.805
X19.737 Y32.838
X19.742 Y32.875
G3 X15.942 Y32.875 I-1.9 J0 F100
X19.742 Y32.875 I1.9 J0
G1 X19.737 Y32.912 F300
X19.719 Y32.946
X19.693 Y32.972
X19.659 Y32.989
X19.622 Y32.995
X19.502
X19.465 Z-1.594
X19.432 Z-1.577
X19.405 Z-1.551
X19.388 Z-1.517
X19.382 Z-1.48
G0 Z5
X18.957 Y20.255
G1 Z1.5 F200
Z-0.38
X18.963 Z-0.417 F300
X18.98 Z-0.451
X19.007 Z-0.477
X19.04 Z-0.494
X19.077 Z-0.5
X19.197
X19.234 Y20.261
X19.268 Y20.278
X19.294 Y20.305
X19.312 Y20.338
X19.317 Y20.375
G3 X16.367 Y20.375 I-1.475 J0 F100
X19.317 Y20.375 I1.475 J0
G1 X19.312 Y20.412 F300
X19.294 Y20.446
X19.268 Y20.472
X19.234 Y20.489
X19.197 Y20.495
X19.077
X19.04 Z-0.494
X19.007 Z-0.477
X18.98 Z-0.451
X18.963 Z-0.417
X18.957 Z-0.38
G0 Z5
Y20.255
G1 Z1 F200
Z-0.88
X18.963 Z-0.917 F300
X18.98 Z-0.951
X19.007 Z-0.977
X19.04 Z-0.994
X19.077 Z-1
X19.197
X19.234 Y20.261
X19.268 Y20.278
X19.294 Y20.305
X19.312 Y20.338
X19.317 Y20.375
G3 X16.367 Y20.375 I-1.475 J0 F100
X19.317 Y20.375 I1.475 J0
G1 X19.312 Y20.412 F300
X19.294 Y20.446
X19.268 Y20.472
X19.234 Y20.489
X19.197 Y20.495
X19.077
X19.04 Z-0.994
X19.007 Z-0.977
X18.98 Z-0.951
X18.963 Z-0.917
X18.957 Z-0.88
G0 Z5
Y20.255
G1 Z0.5 F200
Z-1.28
X18.963 Z-1.317 F300
X18.98 Z-1.351
X19.007 Z-1.377
X19.04 Z-1.394
X19.077 Z-1.4
X19.197
X19.234 Y20.261
X19.268 Y20.278
X19.294 Y20.305
X19.312 Y20.338
X19.317 Y20.375
G3 X16.367 Y20.375 I-1.475 J0 F100
X19.317 Y20.375 I1.475 J0
G1 X19.312 Y20.412 F300
X19.294 Y20.446
X19.268 Y20.472
X19.234 Y20.489
X19.197 Y20.495
X19.077
X19.04 Z-1.394
X19.007 Z-1.377
X18.98 Z-1.351
X18.963 Z-1.317
X18.957 Z-1.28
G0 Z5
Y20.255
G1 Z0.1 F200
Z-1.48
X18.963 Z-1.517 F300
X18.98 Z-1.551
X19.007 Z-1.577
X19.04 Z-1.594
X19.077 Z-1.6
X19.197
X19.234 Y20.261
X19.268 Y20.278
X19.294 Y20.305
X19.312 Y20.338
X19.317 Y20.375
G3 X16.367 Y20.375 I-1.475 J0 F100
X19.317 Y20.375 I1.475 J0
G1 X19.312 Y20.412 F300
X19.294 Y20.446
X19.268 Y20.472
X19.234 Y20.489
X19.197 Y20.495
X19.077
X19.04 Z-1.594
X19.007 Z-1.577
X18.98 Z-1.551
X18.963 Z-1.517
X18.957 Z-1.48
G0 Z5
Y57.755
G1 Z1.5 F200
Z-0.38
X18.963 Z-0.417 F300
X18.98 Z-0.451
X19.007 Z-0.477
X19.04 Z-0.494
X19.077 Z-0.5
X19.197
X19.234 Y57.761
X19.268 Y57.778
X19.294 Y57.805
X19.312 Y57.838
X19.317 Y57.875
G3 X16.367 Y57.875 I-1.475 J0 F100
X19.317 Y57.875 I1.475 J0
G1 X19.312 Y57.912 F300
X19.294 Y57.946
X19.268 Y57.972
X19.234 Y57.989
X19.197 Y57.995
X19.077
X19.04 Z-0.494
X19.007 Z-0.477
X18.98 Z-0.451
X18.963 Z-0.417
X18.957 Z-0.38
G0 Z5
Y57.755
G1 Z1 F200
Z-0.88
X18.963 Z-0.917 F300
X18.98 Z-0.951
X19.007 Z-0.977
X19.04 Z-0.994
X19.077 Z-1
X19.197
X19.234 Y57.761
X19.268 Y57.778
X19.294 Y57.805
X19.312 Y57.838
X19.317 Y57.875
G3 X16.367 Y57.875 I-1.475 J0 F100
X19.317 Y57.875 I1.475 J0
G1 X19.312 Y57.912 F300
X19.294 Y57.946
X19.268 Y57.972
X19.234 Y57.989
X19.197 Y57.995
X19.077
X19.04 Z-0.994
X19.007 Z-0.977
X18.98 Z-0.951
X18.963 Z-0.917
X18.957 Z-0.88
G0 Z5
Y57.755
G1 Z0.5 F200
Z-1.28
X18.963 Z-1.317 F300
X18.98 Z-1.351
X19.007 Z-1.377
X19.04 Z-1.394
X19.077 Z-1.4
X19.197
X19.234 Y57.761
X19.268 Y57.778
X19.294 Y57.805
X19.312 Y57.838
X19.317 Y57.875
G3 X16.367 Y57.875 I-1.475 J0 F100
X19.317 Y57.875 I1.475 J0
G1 X19.312 Y57.912 F300
X19.294 Y57.946
X19.268 Y57.972
X19.234 Y57.989
X19.197 Y57.995
X19.077
X19.04 Z-1.394
X19.007 Z-1.377
X18.98 Z-1.351
X18.963 Z-1.317
X18.957 Z-1.28
G0 Z5
Y57.755
G1 Z0.1 F200
Z-1.48
X18.963 Z-1.517 F300
X18.98 Z-1.551
X19.007 Z-1.577
X19.04 Z-1.594
X19.077 Z-1.6
X19.197
X19.234 Y57.761
X19.268 Y57.778
X19.294 Y57.805
X19.312 Y57.838
X19.317 Y57.875
G3 X16.367 Y57.875 I-1.475 J0 F100
X19.317 Y57.875 I1.475 J0
G1 X19.312 Y57.912 F300
X19.294 Y57.946
X19.268 Y57.972
X19.234 Y57.989
X19.197 Y57.995
X19.077
X19.04 Z-1.594
X19.007 Z-1.577
X18.98 Z-1.551
X18.963 Z-1.517
X18.957 Z-1.48
G0 Z10
M5
M30
