(G-CODE GENERATED BY FLATCAM v8.994 - www.flatcam.org - Version Date: 2020/11/7)

(Name: po_midi_adapter-PTH.drl_slot_cnc)
(Type: G-code from Geometry)
(Units: MM)

(Created on Friday, 13 August 2021 at 19:08)

(This preprocessor is the default preprocessor used by FlatCAM.)
(It is made to work with MACH3 compatible motion controllers.)

(TOOL DIAMETER: 0.8 mm)
(Feedrate_XY: 100.0 mm/min)
(Feedrate_Z: 60.0 mm/min)
(Feedrate rapids 1500.0 mm/min)

(Z_Cut: -1.7 mm)
(DepthPerCut: 0.4 mm <=>5 passes)
(Z_Move: 2.0 mm)
(Z Start: None mm)
(Z End: 15.0 mm)
(X,Y End: None mm)
(Steps per circle: 64)
(Preprocessor Geometry: default)

(X range:    5.9906 ...   13.9615  mm)
(Y range:   29.8616 ...   34.4619  mm)

(Spindle Speed: 0.0 RPM)
G21
G90
G94

G01 F100.00

M5
G00 Z15.0000
G00 X0.0000 Y0.0000
T1
M6    
(MSG, Change to Tool Dia = 0.8000)
M0
G00 Z15.0000

M03
G01 F100.00
G00 X6.8379 Y29.9610
G01 F60.00
G01 Z-0.4000
G01 F100.00
G01 X6.8476 Y29.9601
G01 X6.8569 Y29.9572
G01 X6.8655 Y29.9526
G01 X6.8730 Y29.9465
G01 X6.8785 Y29.9399
G01 X6.8833 Y29.9315
G01 X6.8864 Y29.9222
G01 X6.8876 Y29.9125
G01 X6.8869 Y29.9028
G01 X6.8843 Y29.8934
G01 X6.8805 Y29.8858
G01 X6.8747 Y29.8779
G01 X6.8675 Y29.8714
G01 X6.8591 Y29.8664
G01 X6.8500 Y29.8631
G01 X6.8416 Y29.8618
G01 X6.0379 Y29.8617
G01 X6.0283 Y29.8631
G01 X6.0202 Y29.8659
G01 X6.0117 Y29.8707
G01 X6.0052 Y29.8762
G01 X5.9997 Y29.8827
G01 X5.9949 Y29.8912
G01 X5.9921 Y29.8992
G01 X5.9908 Y29.9077
G01 X5.9910 Y29.9174
G01 X5.9931 Y29.9269
G01 X5.9971 Y29.9358
G01 X6.0027 Y29.9438
G01 X6.0098 Y29.9505
G01 X6.0180 Y29.9557
G01 X6.0271 Y29.9592
G01 X6.0367 Y29.9609
G01 X6.8379 Y29.9610
G00 X6.8379 Y29.9610
G01 F60.00
G01 Z-0.8000
G01 F100.00
G01 X6.8476 Y29.9601
G01 X6.8569 Y29.9572
G01 X6.8655 Y29.9526
G01 X6.8730 Y29.9465
G01 X6.8785 Y29.9399
G01 X6.8833 Y29.9315
G01 X6.8864 Y29.9222
G01 X6.8876 Y29.9125
G01 X6.8869 Y29.9028
G01 X6.8843 Y29.8934
G01 X6.8805 Y29.8858
G01 X6.8747 Y29.8779
G01 X6.8675 Y29.8714
G01 X6.8591 Y29.8664
G01 X6.8500 Y29.8631
G01 X6.8416 Y29.8618
G01 X6.0379 Y29.8617
G01 X6.0283 Y29.8631
G01 X6.0202 Y29.8659
G01 X6.0117 Y29.8707
G01 X6.0052 Y29.8762
G01 X5.9997 Y29.8827
G01 X5.9949 Y29.8912
G01 X5.9921 Y29.8992
G01 X5.9908 Y29.9077
G01 X5.9910 Y29.9174
G01 X5.9931 Y29.9269
G01 X5.9971 Y29.9358
G01 X6.0027 Y29.9438
G01 X6.0098 Y29.9505
G01 X6.0180 Y29.9557
G01 X6.0271 Y29.9592
G01 X6.0367 Y29.9609
G01 X6.8379 Y29.9610
G00 X6.8379 Y29.9610
G01 F60.00
G01 Z-1.2000
G01 F100.00
G01 X6.8476 Y29.9601
G01 X6.8569 Y29.9572
G01 X6.8655 Y29.9526
G01 X6.8730 Y29.9465
G01 X6.8785 Y29.9399
G01 X6.8833 Y29.9315
G01 X6.8864 Y29.9222
G01 X6.8876 Y29.9125
G01 X6.8869 Y29.9028
G01 X6.8843 Y29.8934
G01 X6.8805 Y29.8858
G01 X6.8747 Y29.8779
G01 X6.8675 Y29.8714
G01 X6.8591 Y29.8664
G01 X6.8500 Y29.8631
G01 X6.8416 Y29.8618
G01 X6.0379 Y29.8617
G01 X6.0283 Y29.8631
G01 X6.0202 Y29.8659
G01 X6.0117 Y29.8707
G01 X6.0052 Y29.8762
G01 X5.9997 Y29.8827
G01 X5.9949 Y29.8912
G01 X5.9921 Y29.8992
G01 X5.9908 Y29.9077
G01 X5.9910 Y29.9174
G01 X5.9931 Y29.9269
G01 X5.9971 Y29.9358
G01 X6.0027 Y29.9438
G01 X6.0098 Y29.9505
G01 X6.0180 Y29.9557
G01 X6.0271 Y29.9592
G01 X6.0367 Y29.9609
G01 X6.8379 Y29.9610
G00 X6.8379 Y29.9610
G01 F60.00
G01 Z-1.6000
G01 F100.00
G01 X6.8476 Y29.9601
G01 X6.8569 Y29.9572
G01 X6.8655 Y29.9526
G01 X6.8730 Y29.9465
G01 X6.8785 Y29.9399
G01 X6.8833 Y29.9315
G01 X6.8864 Y29.9222
G01 X6.8876 Y29.9125
G01 X6.8869 Y29.9028
G01 X6.8843 Y29.8934
G01 X6.8805 Y29.8858
G01 X6.8747 Y29.8779
G01 X6.8675 Y29.8714
G01 X6.8591 Y29.8664
G01 X6.8500 Y29.8631
G01 X6.8416 Y29.8618
G01 X6.0379 Y29.8617
G01 X6.0283 Y29.8631
G01 X6.0202 Y29.8659
G01 X6.0117 Y29.8707
G01 X6.0052 Y29.8762
G01 X5.9997 Y29.8827
G01 X5.9949 Y29.8912
G01 X5.9921 Y29.8992
G01 X5.9908 Y29.9077
G01 X5.9910 Y29.9174
G01 X5.9931 Y29.9269
G01 X5.9971 Y29.9358
G01 X6.0027 Y29.9438
G01 X6.0098 Y29.9505
G01 X6.0180 Y29.9557
G01 X6.0271 Y29.9592
G01 X6.0367 Y29.9609
G01 X6.8379 Y29.9610
G00 X6.8379 Y29.9610
G01 F60.00
G01 Z-1.7000
G01 F100.00
G01 X6.8476 Y29.9601
G01 X6.8569 Y29.9572
G01 X6.8655 Y29.9526
G01 X6.8730 Y29.9465
G01 X6.8785 Y29.9399
G01 X6.8833 Y29.9315
G01 X6.8864 Y29.9222
G01 X6.8876 Y29.9125
G01 X6.8869 Y29.9028
G01 X6.8843 Y29.8934
G01 X6.8805 Y29.8858
G01 X6.8747 Y29.8779
G01 X6.8675 Y29.8714
G01 X6.8591 Y29.8664
G01 X6.8500 Y29.8631
G01 X6.8416 Y29.8618
G01 X6.0379 Y29.8617
G01 X6.0283 Y29.8631
G01 X6.0202 Y29.8659
G01 X6.0117 Y29.8707
G01 X6.0052 Y29.8762
G01 X5.9997 Y29.8827
G01 X5.9949 Y29.8912
G01 X5.9921 Y29.8992
G01 X5.9908 Y29.9077
G01 X5.9910 Y29.9174
G01 X5.9931 Y29.9269
G01 X5.9971 Y29.9358
G01 X6.0027 Y29.9438
G01 X6.0098 Y29.9505
G01 X6.0180 Y29.9557
G01 X6.0271 Y29.9592
G01 X6.0367 Y29.9609
G01 X6.8379 Y29.9610
G00 Z2.0000
G00 X8.7429 Y34.4619
G01 F60.00
G01 Z-0.4000
G01 F100.00
G01 X8.7514 Y34.4612
G01 X8.7608 Y34.4586
G01 X8.7695 Y34.4542
G01 X8.7772 Y34.4482
G01 X8.7835 Y34.4408
G01 X8.7878 Y34.4334
G01 X8.7911 Y34.4243
G01 X8.7925 Y34.4146
G01 X8.7921 Y34.4049
G01 X8.7897 Y34.3955
G01 X8.7855 Y34.3866
G01 X8.7797 Y34.3788
G01 X8.7735 Y34.3730
G01 X8.7652 Y34.3678
G01 X8.7562 Y34.3643
G01 X8.7466 Y34.3626
G01 X7.9429 Y34.3626
G01 X7.9344 Y34.3637
G01 X7.9252 Y34.3668
G01 X7.9167 Y34.3716
G01 X7.9102 Y34.3771
G01 X7.9040 Y34.3846
G01 X7.8999 Y34.3921
G01 X7.8971 Y34.4001
G01 X7.8958 Y34.4085
G01 X7.8960 Y34.4183
G01 X7.8981 Y34.4278
G01 X7.9021 Y34.4367
G01 X7.9077 Y34.4447
G01 X7.9148 Y34.4514
G01 X7.9230 Y34.4566
G01 X7.9321 Y34.4601
G01 X7.9417 Y34.4618
G01 X8.7429 Y34.4619
G00 X8.7429 Y34.4619
G01 F60.00
G01 Z-0.8000
G01 F100.00
G01 X8.7514 Y34.4612
G01 X8.7608 Y34.4586
G01 X8.7695 Y34.4542
G01 X8.7772 Y34.4482
G01 X8.7835 Y34.4408
G01 X8.7878 Y34.4334
G01 X8.7911 Y34.4243
G01 X8.7925 Y34.4146
G01 X8.7921 Y34.4049
G01 X8.7897 Y34.3955
G01 X8.7855 Y34.3866
G01 X8.7797 Y34.3788
G01 X8.7735 Y34.3730
G01 X8.7652 Y34.3678
G01 X8.7562 Y34.3643
G01 X8.7466 Y34.3626
G01 X7.9429 Y34.3626
G01 X7.9344 Y34.3637
G01 X7.9252 Y34.3668
G01 X7.9167 Y34.3716
G01 X7.9102 Y34.3771
G01 X7.9040 Y34.3846
G01 X7.8999 Y34.3921
G01 X7.8971 Y34.4001
G01 X7.8958 Y34.4085
G01 X7.8960 Y34.4183
G01 X7.8981 Y34.4278
G01 X7.9021 Y34.4367
G01 X7.9077 Y34.4447
G01 X7.9148 Y34.4514
G01 X7.9230 Y34.4566
G01 X7.9321 Y34.4601
G01 X7.9417 Y34.4618
G01 X8.7429 Y34.4619
G00 X8.7429 Y34.4619
G01 F60.00
G01 Z-1.2000
G01 F100.00
G01 X8.7514 Y34.4612
G01 X8.7608 Y34.4586
G01 X8.7695 Y34.4542
G01 X8.7772 Y34.4482
G01 X8.7835 Y34.4408
G01 X8.7878 Y34.4334
G01 X8.7911 Y34.4243
G01 X8.7925 Y34.4146
G01 X8.7921 Y34.4049
G01 X8.7897 Y34.3955
G01 X8.7855 Y34.3866
G01 X8.7797 Y34.3788
G01 X8.7735 Y34.3730
G01 X8.7652 Y34.3678
G01 X8.7562 Y34.3643
G01 X8.7466 Y34.3626
G01 X7.9429 Y34.3626
G01 X7.9344 Y34.3637
G01 X7.9252 Y34.3668
G01 X7.9167 Y34.3716
G01 X7.9102 Y34.3771
G01 X7.9040 Y34.3846
G01 X7.8999 Y34.3921
G01 X7.8971 Y34.4001
G01 X7.8958 Y34.4085
G01 X7.8960 Y34.4183
G01 X7.8981 Y34.4278
G01 X7.9021 Y34.4367
G01 X7.9077 Y34.4447
G01 X7.9148 Y34.4514
G01 X7.9230 Y34.4566
G01 X7.9321 Y34.4601
G01 X7.9417 Y34.4618
G01 X8.7429 Y34.4619
G00 X8.7429 Y34.4619
G01 F60.00
G01 Z-1.6000
G01 F100.00
G01 X8.7514 Y34.4612
G01 X8.7608 Y34.4586
G01 X8.7695 Y34.4542
G01 X8.7772 Y34.4482
G01 X8.7835 Y34.4408
G01 X8.7878 Y34.4334
G01 X8.7911 Y34.4243
G01 X8.7925 Y34.4146
G01 X8.7921 Y34.4049
G01 X8.7897 Y34.3955
G01 X8.7855 Y34.3866
G01 X8.7797 Y34.3788
G01 X8.7735 Y34.3730
G01 X8.7652 Y34.3678
G01 X8.7562 Y34.3643
G01 X8.7466 Y34.3626
G01 X7.9429 Y34.3626
G01 X7.9344 Y34.3637
G01 X7.9252 Y34.3668
G01 X7.9167 Y34.3716
G01 X7.9102 Y34.3771
G01 X7.9040 Y34.3846
G01 X7.8999 Y34.3921
G01 X7.8971 Y34.4001
G01 X7.8958 Y34.4085
G01 X7.8960 Y34.4183
G01 X7.8981 Y34.4278
G01 X7.9021 Y34.4367
G01 X7.9077 Y34.4447
G01 X7.9148 Y34.4514
G01 X7.9230 Y34.4566
G01 X7.9321 Y34.4601
G01 X7.9417 Y34.4618
G01 X8.7429 Y34.4619
G00 X8.7429 Y34.4619
G01 F60.00
G01 Z-1.7000
G01 F100.00
G01 X8.7514 Y34.4612
G01 X8.7608 Y34.4586
G01 X8.7695 Y34.4542
G01 X8.7772 Y34.4482
G01 X8.7835 Y34.4408
G01 X8.7878 Y34.4334
G01 X8.7911 Y34.4243
G01 X8.7925 Y34.4146
G01 X8.7921 Y34.4049
G01 X8.7897 Y34.3955
G01 X8.7855 Y34.3866
G01 X8.7797 Y34.3788
G01 X8.7735 Y34.3730
G01 X8.7652 Y34.3678
G01 X8.7562 Y34.3643
G01 X8.7466 Y34.3626
G01 X7.9429 Y34.3626
G01 X7.9344 Y34.3637
G01 X7.9252 Y34.3668
G01 X7.9167 Y34.3716
G01 X7.9102 Y34.3771
G01 X7.9040 Y34.3846
G01 X7.8999 Y34.3921
G01 X7.8971 Y34.4001
G01 X7.8958 Y34.4085
G01 X7.8960 Y34.4183
G01 X7.8981 Y34.4278
G01 X7.9021 Y34.4367
G01 X7.9077 Y34.4447
G01 X7.9148 Y34.4514
G01 X7.9230 Y34.4566
G01 X7.9321 Y34.4601
G01 X7.9417 Y34.4618
G01 X8.7429 Y34.4619
G00 Z2.0000
G00 X13.9118 Y29.9610
G01 F60.00
G01 Z-0.4000
G01 F100.00
G01 X13.9215 Y29.9601
G01 X13.9297 Y29.9577
G01 X13.9384 Y29.9533
G01 X13.9461 Y29.9473
G01 X13.9524 Y29.9399
G01 X13.9567 Y29.9326
G01 X13.9600 Y29.9234
G01 X13.9614 Y29.9138
G01 X13.9611 Y29.9052
G01 X13.9590 Y29.8957
G01 X13.9550 Y29.8868
G01 X13.9494 Y29.8789
G01 X13.9424 Y29.8721
G01 X13.9341 Y29.8669
G01 X13.9251 Y29.8634
G01 X13.9155 Y29.8618
G01 X13.1093 Y29.8617
G01 X13.0996 Y29.8631
G01 X13.0916 Y29.8659
G01 X13.0831 Y29.8707
G01 X13.0766 Y29.8762
G01 X13.0711 Y29.8827
G01 X13.0668 Y29.8901
G01 X13.0638 Y29.8981
G01 X13.0621 Y29.9077
G01 X13.0624 Y29.9174
G01 X13.0645 Y29.9269
G01 X13.0685 Y29.9358
G01 X13.0741 Y29.9438
G01 X13.0811 Y29.9505
G01 X13.0894 Y29.9557
G01 X13.0984 Y29.9592
G01 X13.1080 Y29.9609
G01 X13.9118 Y29.9610
G00 X13.9118 Y29.9610
G01 F60.00
G01 Z-0.8000
G01 F100.00
G01 X13.9215 Y29.9601
G01 X13.9297 Y29.9577
G01 X13.9384 Y29.9533
G01 X13.9461 Y29.9473
G01 X13.9524 Y29.9399
G01 X13.9567 Y29.9326
G01 X13.9600 Y29.9234
G01 X13.9614 Y29.9138
G01 X13.9611 Y29.9052
G01 X13.9590 Y29.8957
G01 X13.9550 Y29.8868
G01 X13.9494 Y29.8789
G01 X13.9424 Y29.8721
G01 X13.9341 Y29.8669
G01 X13.9251 Y29.8634
G01 X13.9155 Y29.8618
G01 X13.1093 Y29.8617
G01 X13.0996 Y29.8631
G01 X13.0916 Y29.8659
G01 X13.0831 Y29.8707
G01 X13.0766 Y29.8762
G01 X13.0711 Y29.8827
G01 X13.0668 Y29.8901
G01 X13.0638 Y29.8981
G01 X13.0621 Y29.9077
G01 X13.0624 Y29.9174
G01 X13.0645 Y29.9269
G01 X13.0685 Y29.9358
G01 X13.0741 Y29.9438
G01 X13.0811 Y29.9505
G01 X13.0894 Y29.9557
G01 X13.0984 Y29.9592
G01 X13.1080 Y29.9609
G01 X13.9118 Y29.9610
G00 X13.9118 Y29.9610
G01 F60.00
G01 Z-1.2000
G01 F100.00
G01 X13.9215 Y29.9601
G01 X13.9297 Y29.9577
G01 X13.9384 Y29.9533
G01 X13.9461 Y29.9473
G01 X13.9524 Y29.9399
G01 X13.9567 Y29.9326
G01 X13.9600 Y29.9234
G01 X13.9614 Y29.9138
G01 X13.9611 Y29.9052
G01 X13.9590 Y29.8957
G01 X13.9550 Y29.8868
G01 X13.9494 Y29.8789
G01 X13.9424 Y29.8721
G01 X13.9341 Y29.8669
G01 X13.9251 Y29.8634
G01 X13.9155 Y29.8618
G01 X13.1093 Y29.8617
G01 X13.0996 Y29.8631
G01 X13.0916 Y29.8659
G01 X13.0831 Y29.8707
G01 X13.0766 Y29.8762
G01 X13.0711 Y29.8827
G01 X13.0668 Y29.8901
G01 X13.0638 Y29.8981
G01 X13.0621 Y29.9077
G01 X13.0624 Y29.9174
G01 X13.0645 Y29.9269
G01 X13.0685 Y29.9358
G01 X13.0741 Y29.9438
G01 X13.0811 Y29.9505
G01 X13.0894 Y29.9557
G01 X13.0984 Y29.9592
G01 X13.1080 Y29.9609
G01 X13.9118 Y29.9610
G00 X13.9118 Y29.9610
G01 F60.00
G01 Z-1.6000
G01 F100.00
G01 X13.9215 Y29.9601
G01 X13.9297 Y29.9577
G01 X13.9384 Y29.9533
G01 X13.9461 Y29.9473
G01 X13.9524 Y29.9399
G01 X13.9567 Y29.9326
G01 X13.9600 Y29.9234
G01 X13.9614 Y29.9138
G01 X13.9611 Y29.9052
G01 X13.9590 Y29.8957
G01 X13.9550 Y29.8868
G01 X13.9494 Y29.8789
G01 X13.9424 Y29.8721
G01 X13.9341 Y29.8669
G01 X13.9251 Y29.8634
G01 X13.9155 Y29.8618
G01 X13.1093 Y29.8617
G01 X13.0996 Y29.8631
G01 X13.0916 Y29.8659
G01 X13.0831 Y29.8707
G01 X13.0766 Y29.8762
G01 X13.0711 Y29.8827
G01 X13.0668 Y29.8901
G01 X13.0638 Y29.8981
G01 X13.0621 Y29.9077
G01 X13.0624 Y29.9174
G01 X13.0645 Y29.9269
G01 X13.0685 Y29.9358
G01 X13.0741 Y29.9438
G01 X13.0811 Y29.9505
G01 X13.0894 Y29.9557
G01 X13.0984 Y29.9592
G01 X13.1080 Y29.9609
G01 X13.9118 Y29.9610
G00 X13.9118 Y29.9610
G01 F60.00
G01 Z-1.7000
G01 F100.00
G01 X13.9215 Y29.9601
G01 X13.9297 Y29.9577
G01 X13.9384 Y29.9533
G01 X13.9461 Y29.9473
G01 X13.9524 Y29.9399
G01 X13.9567 Y29.9326
G01 X13.9600 Y29.9234
G01 X13.9614 Y29.9138
G01 X13.9611 Y29.9052
G01 X13.9590 Y29.8957
G01 X13.9550 Y29.8868
G01 X13.9494 Y29.8789
G01 X13.9424 Y29.8721
G01 X13.9341 Y29.8669
G01 X13.9251 Y29.8634
G01 X13.9155 Y29.8618
G01 X13.1093 Y29.8617
G01 X13.0996 Y29.8631
G01 X13.0916 Y29.8659
G01 X13.0831 Y29.8707
G01 X13.0766 Y29.8762
G01 X13.0711 Y29.8827
G01 X13.0668 Y29.8901
G01 X13.0638 Y29.8981
G01 X13.0621 Y29.9077
G01 X13.0624 Y29.9174
G01 X13.0645 Y29.9269
G01 X13.0685 Y29.9358
G01 X13.0741 Y29.9438
G01 X13.0811 Y29.9505
G01 X13.0894 Y29.9557
G01 X13.0984 Y29.9592
G01 X13.1080 Y29.9609
G01 X13.9118 Y29.9610
G00 Z2.0000
M05
G00 Z2.0000
G00 Z15.00


