(G-CODE GENERATED BY FLATCAM v8.994 - www.flatcam.org - Version Date: 2020/11/7)

(Name: po_midi_adapter-Edge_Cuts.gbr_cutout_1_cnc)
(Type: G-code from Geometry)
(Units: MM)

(Created on Friday, 13 August 2021 at 19:14)

(This preprocessor is the default preprocessor used by FlatCAM.)
(It is made to work with MACH3 compatible motion controllers.)

(TOOL DIAMETER: 2.4 mm)
(Feedrate_XY: 100.0 mm/min)
(Feedrate_Z: 60.0 mm/min)
(Feedrate rapids 1500.0 mm/min)

(Z_Cut: -1.7 mm)
(DepthPerCut: 1.2 mm <=>2 passes)
(Z_Move: 2.0 mm)
(Z Start: None mm)
(Z End: 15.0 mm)
(X,Y End: None mm)
(Steps per circle: 64)
(Preprocessor Geometry: default)

(X range:    2.4727 ...   70.0353  mm)
(Y range:    1.4145 ...   68.3242  mm)

(Spindle Speed: 0.0 RPM)
G21
G90
G94

G01 F100.00

M5
G00 Z15.0000
G00 X0.0000 Y0.0000
T1
M6    
(MSG, Change to Tool Dia = 2.4000)
M0
G00 Z15.0000

M03
G01 F100.00
G00 X2.4760 Y31.7694
G01 F60.00
G01 Z-1.2000
G01 F100.00
G01 X2.4787 Y5.1767
G01 X2.4801 Y5.1186
G01 X2.4844 Y5.0517
G01 X2.5001 Y4.8763
G01 X2.5066 Y4.8186
G01 X2.5168 Y4.7524
G01 X2.5481 Y4.5791
G01 X2.5597 Y4.5222
G01 X2.5759 Y4.4572
G01 X2.6225 Y4.2874
G01 X2.6392 Y4.2317
G01 X2.6610 Y4.1684
G01 X2.7226 Y4.0035
G01 X2.7477 Y3.9413
G01 X2.7716 Y3.8884
G01 X2.8477 Y3.7296
G01 X2.8782 Y3.6699
G01 X2.9067 Y3.6194
G01 X2.9967 Y3.4680
G01 X3.0324 Y3.4113
G01 X3.0653 Y3.3635
G01 X3.1684 Y3.2208
G01 X3.2090 Y3.1674
G01 X3.2461 Y3.1228
G01 X3.3616 Y2.9898
G01 X3.4006 Y2.9468
G01 X3.4477 Y2.8991
G01 X3.5745 Y2.7770
G01 X3.6240 Y2.7318
G01 X3.6684 Y2.6944
G01 X3.8056 Y2.5841
G01 X3.8517 Y2.5487
G01 X3.9065 Y2.5102
G01 X4.0530 Y2.4125
G01 X4.0975 Y2.3841
G01 X5.0520 Y1.7989
G01 X5.0639 Y1.7916
G01 X5.1194 Y1.7601
G01 X5.1834 Y1.7276
G01 X5.2508 Y1.6979
G01 X5.3120 Y1.6742
G01 X5.3802 Y1.6519
G01 X5.4417 Y1.6348
G01 X5.4553 Y1.6314
G01 X6.1919 Y1.4536
G01 X6.2215 Y1.4468
G01 X6.2898 Y1.4337
G01 X6.3530 Y1.4246
G01 X6.4205 Y1.4182
G01 X6.4546 Y1.4169
G01 X6.4546 Y1.4162
G01 X6.5204 Y1.4145
G01 X33.1540 Y1.4145
G00 X33.1540 Y1.4145
G01 F60.00
G01 Z-1.7000
G01 F100.00
G01 X6.5204 Y1.4145
G01 X6.4546 Y1.4162
G01 X6.4546 Y1.4169
G01 X6.4205 Y1.4182
G01 X6.3530 Y1.4246
G01 X6.2898 Y1.4337
G01 X6.2215 Y1.4468
G01 X6.1919 Y1.4536
G01 X5.4553 Y1.6314
G01 X5.4417 Y1.6348
G01 X5.3802 Y1.6519
G01 X5.3120 Y1.6742
G01 X5.2508 Y1.6979
G01 X5.1834 Y1.7276
G01 X5.1194 Y1.7601
G01 X5.0639 Y1.7916
G01 X5.0520 Y1.7989
G01 X4.0975 Y2.3841
G01 X4.0530 Y2.4125
G01 X3.9065 Y2.5102
G01 X3.8517 Y2.5487
G01 X3.8056 Y2.5841
G01 X3.6684 Y2.6944
G01 X3.6240 Y2.7318
G01 X3.5745 Y2.7770
G01 X3.4477 Y2.8991
G01 X3.4006 Y2.9468
G01 X3.3616 Y2.9898
G01 X3.2461 Y3.1228
G01 X3.2090 Y3.1674
G01 X3.1684 Y3.2208
G01 X3.0653 Y3.3635
G01 X3.0324 Y3.4113
G01 X2.9967 Y3.4680
G01 X2.9067 Y3.6194
G01 X2.8782 Y3.6699
G01 X2.8477 Y3.7296
G01 X2.7716 Y3.8884
G01 X2.7477 Y3.9413
G01 X2.7226 Y4.0035
G01 X2.6610 Y4.1684
G01 X2.6392 Y4.2317
G01 X2.6225 Y4.2874
G01 X2.5759 Y4.4572
G01 X2.5597 Y4.5222
G01 X2.5481 Y4.5791
G01 X2.5168 Y4.7524
G01 X2.5066 Y4.8186
G01 X2.5001 Y4.8763
G01 X2.4844 Y5.0517
G01 X2.4801 Y5.1186
G01 X2.4787 Y5.1767
G01 X2.4760 Y31.7694
G00 Z2.0000
G00 X2.4753 Y38.1694
G01 F60.00
G01 Z-1.2000
G01 F100.00
G01 X2.4727 Y62.7115
G01 X2.4728 Y62.7277
G01 X2.4751 Y62.7914
G01 X2.4812 Y62.8648
G01 X2.4897 Y62.9281
G01 X2.5024 Y62.9984
G01 X2.6809 Y63.8051
G01 X2.6973 Y63.8885
G01 X2.6996 Y63.8979
G01 X2.7356 Y64.0184
G01 X2.7388 Y64.0275
G01 X2.7862 Y64.1439
G01 X2.8181 Y64.2090
G01 X2.9061 Y64.3766
G01 X2.9360 Y64.4303
G01 X2.9731 Y64.4907
G01 X3.0766 Y64.6492
G01 X3.1113 Y64.6998
G01 X3.1540 Y64.7564
G01 X3.2719 Y64.9045
G01 X3.3176 Y64.9587
G01 X3.3592 Y65.0039
G01 X3.4905 Y65.1402
G01 X3.5411 Y65.1899
G01 X3.5868 Y65.2310
G01 X3.7304 Y65.3542
G01 X3.7854 Y65.3989
G01 X3.8348 Y65.4355
G01 X3.9894 Y65.5446
G01 X4.0484 Y65.5839
G01 X4.1010 Y65.6157
G01 X4.2653 Y65.7098
G01 X4.3277 Y65.7433
G01 X4.3830 Y65.7700
G01 X4.5554 Y65.8481
G01 X4.6120 Y65.8721
G01 X4.6784 Y65.8970
G01 X4.8574 Y65.9585
G01 X4.9160 Y65.9770
G01 X4.9844 Y65.9955
G01 X5.1684 Y66.0398
G01 X5.2285 Y66.0528
G01 X5.2984 Y66.0647
G01 X5.4857 Y66.0914
G01 X5.5467 Y66.0987
G01 X5.6174 Y66.1039
G01 X5.8065 Y66.1129
G01 X5.8382 Y66.1140
G01 X5.8749 Y66.1144
G01 X33.1540 Y66.0717
G00 X33.1540 Y66.0717
G01 F60.00
G01 Z-1.7000
G01 F100.00
G01 X5.8749 Y66.1144
G01 X5.8382 Y66.1140
G01 X5.8065 Y66.1129
G01 X5.6174 Y66.1039
G01 X5.5467 Y66.0987
G01 X5.4857 Y66.0914
G01 X5.2984 Y66.0647
G01 X5.2285 Y66.0528
G01 X5.1684 Y66.0398
G01 X4.9844 Y65.9955
G01 X4.9160 Y65.9770
G01 X4.8574 Y65.9585
G01 X4.6784 Y65.8970
G01 X4.6120 Y65.8721
G01 X4.5554 Y65.8481
G01 X4.3830 Y65.7700
G01 X4.3277 Y65.7433
G01 X4.2653 Y65.7098
G01 X4.1010 Y65.6157
G01 X4.0484 Y65.5839
G01 X3.9894 Y65.5446
G01 X3.8348 Y65.4355
G01 X3.7854 Y65.3989
G01 X3.7304 Y65.3542
G01 X3.5868 Y65.2310
G01 X3.5411 Y65.1899
G01 X3.4905 Y65.1402
G01 X3.3592 Y65.0039
G01 X3.3176 Y64.9587
G01 X3.2719 Y64.9045
G01 X3.1540 Y64.7564
G01 X3.1113 Y64.6998
G01 X3.0766 Y64.6492
G01 X2.9731 Y64.4907
G01 X2.9360 Y64.4303
G01 X2.9061 Y64.3766
G01 X2.8181 Y64.2090
G01 X2.7862 Y64.1439
G01 X2.7388 Y64.0275
G01 X2.7356 Y64.0184
G01 X2.6996 Y63.8979
G01 X2.6973 Y63.8885
G01 X2.6809 Y63.8051
G01 X2.5024 Y62.9984
G01 X2.4897 Y62.9281
G01 X2.4812 Y62.8648
G01 X2.4751 Y62.7914
G01 X2.4728 Y62.7277
G01 X2.4727 Y62.7115
G01 X2.4753 Y38.1694
G00 Z2.0000
G00 X39.5540 Y66.0617
G01 F60.00
G01 Z-1.2000
G01 F100.00
G01 X45.0110 Y66.0531
G01 X45.0110 Y66.9115
G01 X45.0131 Y66.9846
G01 X45.0177 Y67.0483
G01 X45.0270 Y67.1212
G01 X45.0379 Y67.1842
G01 X45.0542 Y67.2559
G01 X45.0712 Y67.3175
G01 X45.0945 Y67.3872
G01 X45.1174 Y67.4469
G01 X45.1474 Y67.5140
G01 X45.1761 Y67.5711
G01 X45.2126 Y67.6350
G01 X45.2467 Y67.6889
G01 X45.2835 Y67.7411
G01 X45.3286 Y67.7993
G01 X45.3768 Y67.8549
G01 X45.4207 Y67.9011
G01 X45.4670 Y67.9452
G01 X45.5225 Y67.9934
G01 X45.5807 Y68.0385
G01 X45.6329 Y68.0753
G01 X45.6951 Y68.1145
G01 X45.7507 Y68.1460
G01 X45.8077 Y68.1747
G01 X45.8749 Y68.2048
G01 X45.9436 Y68.2311
G01 X46.0042 Y68.2511
G01 X46.0657 Y68.2682
G01 X46.1374 Y68.2845
G01 X46.2100 Y68.2969
G01 X46.2734 Y68.3048
G01 X46.3370 Y68.3095
G01 X46.4101 Y68.3115
G01 X64.4954 Y68.3242
G01 X64.5690 Y68.3222
G01 X64.6326 Y68.3176
G01 X64.6960 Y68.3098
G01 X64.7686 Y68.2974
G01 X64.8403 Y68.2811
G01 X64.9019 Y68.2641
G01 X64.9625 Y68.2441
G01 X65.0312 Y68.2179
G01 X65.0984 Y68.1878
G01 X65.1555 Y68.1591
G01 X65.2194 Y68.1227
G01 X65.2733 Y68.0886
G01 X65.3255 Y68.0518
G01 X65.3837 Y68.0067
G01 X65.4393 Y67.9585
G01 X65.4856 Y67.9145
G01 X65.5296 Y67.8683
G01 X65.5779 Y67.8127
G01 X65.6229 Y67.7546
G01 X65.6597 Y67.7025
G01 X65.6939 Y67.6485
G01 X65.7304 Y67.5846
G01 X65.7591 Y67.5276
G01 X65.7892 Y67.4605
G01 X65.8155 Y67.3917
G01 X65.8355 Y67.3310
G01 X65.8549 Y67.2601
G01 X65.8690 Y67.1978
G01 X65.8813 Y67.1253
G01 X65.8892 Y67.0619
G01 X65.8939 Y66.9982
G01 X65.8959 Y66.9247
G01 X65.8959 Y66.1104
G01 X68.6306 Y66.1271
G01 X68.6950 Y66.1258
G01 X68.7678 Y66.1208
G01 X68.8318 Y66.1132
G01 X68.9038 Y66.1011
G01 X68.9757 Y66.0850
G01 X69.0378 Y66.0680
G01 X69.1071 Y66.0451
G01 X69.1667 Y66.0223
G01 X69.2257 Y65.9964
G01 X69.2917 Y65.9637
G01 X69.3552 Y65.9277
G01 X69.4097 Y65.8934
G01 X69.4694 Y65.8514
G01 X69.5198 Y65.8123
G01 X69.5756 Y65.7642
G01 X69.6219 Y65.7203
G01 X69.6665 Y65.6738
G01 X69.7145 Y65.6188
G01 X69.7543 Y65.5682
G01 X69.7967 Y65.5087
G01 X69.8314 Y65.4544
G01 X69.8678 Y65.3911
G01 X69.8969 Y65.3337
G01 X69.9269 Y65.2671
G01 X69.9503 Y65.2071
G01 X69.9736 Y65.1379
G01 X69.9910 Y65.0759
G01 X70.0074 Y65.0047
G01 X70.0187 Y64.9413
G01 X70.0281 Y64.8689
G01 X70.0330 Y64.8047
G01 X70.0352 Y64.7317
G01 X70.0353 Y38.1694
G00 X70.0353 Y38.1694
G01 F60.00
G01 Z-1.7000
G01 F100.00
G01 X70.0352 Y64.7317
G01 X70.0330 Y64.8047
G01 X70.0281 Y64.8689
G01 X70.0187 Y64.9413
G01 X70.0074 Y65.0047
G01 X69.9910 Y65.0759
G01 X69.9736 Y65.1379
G01 X69.9503 Y65.2071
G01 X69.9269 Y65.2671
G01 X69.8969 Y65.3337
G01 X69.8678 Y65.3911
G01 X69.8314 Y65.4544
G01 X69.7967 Y65.5087
G01 X69.7543 Y65.5682
G01 X69.7145 Y65.6188
G01 X69.6665 Y65.6738
G01 X69.6219 Y65.7203
G01 X69.5756 Y65.7642
G01 X69.5198 Y65.8123
G01 X69.4694 Y65.8514
G01 X69.4097 Y65.8934
G01 X69.3552 Y65.9277
G01 X69.2917 Y65.9637
G01 X69.2257 Y65.9964
G01 X69.1667 Y66.0223
G01 X69.1071 Y66.0451
G01 X69.0378 Y66.0680
G01 X68.9757 Y66.0850
G01 X68.9038 Y66.1011
G01 X68.8318 Y66.1132
G01 X68.7678 Y66.1208
G01 X68.6950 Y66.1258
G01 X68.6306 Y66.1271
G01 X65.8959 Y66.1104
G01 X65.8959 Y66.9247
G01 X65.8939 Y66.9982
G01 X65.8892 Y67.0619
G01 X65.8813 Y67.1253
G01 X65.8690 Y67.1978
G01 X65.8549 Y67.2601
G01 X65.8355 Y67.3310
G01 X65.8155 Y67.3917
G01 X65.7892 Y67.4605
G01 X65.7591 Y67.5276
G01 X65.7304 Y67.5846
G01 X65.6939 Y67.6485
G01 X65.6597 Y67.7025
G01 X65.6229 Y67.7546
G01 X65.5779 Y67.8127
G01 X65.5296 Y67.8683
G01 X65.4856 Y67.9145
G01 X65.4393 Y67.9585
G01 X65.3837 Y68.0067
G01 X65.3255 Y68.0518
G01 X65.2733 Y68.0886
G01 X65.2194 Y68.1227
G01 X65.1555 Y68.1591
G01 X65.0984 Y68.1878
G01 X65.0312 Y68.2179
G01 X64.9625 Y68.2441
G01 X64.9019 Y68.2641
G01 X64.8403 Y68.2811
G01 X64.7686 Y68.2974
G01 X64.6960 Y68.3098
G01 X64.6326 Y68.3176
G01 X64.5690 Y68.3222
G01 X64.4954 Y68.3242
G01 X46.4101 Y68.3115
G01 X46.3370 Y68.3095
G01 X46.2734 Y68.3048
G01 X46.2100 Y68.2969
G01 X46.1374 Y68.2845
G01 X46.0657 Y68.2682
G01 X46.0042 Y68.2511
G01 X45.9436 Y68.2311
G01 X45.8749 Y68.2048
G01 X45.8077 Y68.1747
G01 X45.7507 Y68.1460
G01 X45.6951 Y68.1145
G01 X45.6329 Y68.0753
G01 X45.5807 Y68.0385
G01 X45.5225 Y67.9934
G01 X45.4670 Y67.9452
G01 X45.4207 Y67.9011
G01 X45.3768 Y67.8549
G01 X45.3286 Y67.7993
G01 X45.2835 Y67.7411
G01 X45.2467 Y67.6889
G01 X45.2126 Y67.6350
G01 X45.1761 Y67.5711
G01 X45.1474 Y67.5140
G01 X45.1174 Y67.4469
G01 X45.0945 Y67.3872
G01 X45.0712 Y67.3175
G01 X45.0542 Y67.2559
G01 X45.0379 Y67.1842
G01 X45.0270 Y67.1212
G01 X45.0177 Y67.0483
G01 X45.0131 Y66.9846
G01 X45.0110 Y66.9115
G01 X45.0110 Y66.0531
G01 X39.5540 Y66.0617
G00 Z2.0000
G00 X70.0353 Y31.7694
G01 F60.00
G01 Z-1.2000
G01 F100.00
G01 X70.0353 Y29.7115
G01 X70.0332 Y29.6379
G01 X70.0285 Y29.5743
G01 X70.0192 Y29.5012
G01 X70.0083 Y29.4384
G01 X69.9943 Y29.3761
G01 X69.9749 Y29.3051
G01 X69.9549 Y29.2445
G01 X69.9286 Y29.1757
G01 X69.8986 Y29.1085
G01 X69.8699 Y29.0515
G01 X69.8384 Y28.9960
G01 X69.7992 Y28.9337
G01 X69.7567 Y28.8736
G01 X69.7174 Y28.8233
G01 X69.6757 Y28.7750
G01 X69.6251 Y28.7215
G01 X69.5716 Y28.6710
G01 X69.5233 Y28.6293
G01 X69.4651 Y28.5842
G01 X69.4130 Y28.5474
G01 X69.3590 Y28.5133
G01 X69.2951 Y28.4768
G01 X69.2292 Y28.4439
G01 X69.1709 Y28.4181
G01 X69.1113 Y28.3951
G01 X69.0415 Y28.3718
G01 X68.9705 Y28.3524
G01 X68.9082 Y28.3384
G01 X68.8454 Y28.3275
G01 X68.7723 Y28.3183
G01 X68.7087 Y28.3136
G01 X68.6351 Y28.3115
G01 X58.8969 Y28.3129
G01 X58.8728 Y2.8133
G01 X58.8708 Y2.7404
G01 X58.8660 Y2.6767
G01 X58.8568 Y2.6037
G01 X58.8458 Y2.5408
G01 X58.8294 Y2.4691
G01 X58.8124 Y2.4075
G01 X58.7890 Y2.3378
G01 X58.7660 Y2.2782
G01 X58.7360 Y2.2111
G01 X58.7072 Y2.1540
G01 X58.6707 Y2.0902
G01 X58.6365 Y2.0362
G01 X58.5939 Y1.9762
G01 X58.5546 Y1.9259
G01 X58.5064 Y1.8704
G01 X58.4623 Y1.8241
G01 X58.4088 Y1.7736
G01 X58.3604 Y1.7319
G01 X58.3101 Y1.6927
G01 X58.2501 Y1.6502
G01 X58.1961 Y1.6160
G01 X58.1322 Y1.5796
G01 X58.0751 Y1.5509
G01 X58.0080 Y1.5209
G01 X57.9484 Y1.4979
G01 X57.8786 Y1.4747
G01 X57.8170 Y1.4576
G01 X57.7453 Y1.4413
G01 X57.6824 Y1.4304
G01 X57.6094 Y1.4212
G01 X57.5457 Y1.4166
G01 X57.4728 Y1.4145
G01 X39.5540 Y1.4145
G00 X39.5540 Y1.4145
G01 F60.00
G01 Z-1.7000
G01 F100.00
G01 X57.4728 Y1.4145
G01 X57.5457 Y1.4166
G01 X57.6094 Y1.4212
G01 X57.6824 Y1.4304
G01 X57.7453 Y1.4413
G01 X57.8170 Y1.4576
G01 X57.8786 Y1.4747
G01 X57.9484 Y1.4979
G01 X58.0080 Y1.5209
G01 X58.0751 Y1.5509
G01 X58.1322 Y1.5796
G01 X58.1961 Y1.6160
G01 X58.2501 Y1.6502
G01 X58.3101 Y1.6927
G01 X58.3604 Y1.7319
G01 X58.4088 Y1.7736
G01 X58.4623 Y1.8241
G01 X58.5064 Y1.8704
G01 X58.5546 Y1.9259
G01 X58.5939 Y1.9762
G01 X58.6365 Y2.0362
G01 X58.6707 Y2.0902
G01 X58.7072 Y2.1540
G01 X58.7360 Y2.2111
G01 X58.7660 Y2.2782
G01 X58.7890 Y2.3378
G01 X58.8124 Y2.4075
G01 X58.8294 Y2.4691
G01 X58.8458 Y2.5408
G01 X58.8568 Y2.6037
G01 X58.8660 Y2.6767
G01 X58.8708 Y2.7404
G01 X58.8728 Y2.8133
G01 X58.8969 Y28.3129
G01 X68.6351 Y28.3115
G01 X68.7087 Y28.3136
G01 X68.7723 Y28.3183
G01 X68.8454 Y28.3275
G01 X68.9082 Y28.3384
G01 X68.9705 Y28.3524
G01 X69.0415 Y28.3718
G01 X69.1113 Y28.3951
G01 X69.1709 Y28.4181
G01 X69.2292 Y28.4439
G01 X69.2951 Y28.4768
G01 X69.3590 Y28.5133
G01 X69.4130 Y28.5474
G01 X69.4651 Y28.5842
G01 X69.5233 Y28.6293
G01 X69.5716 Y28.6710
G01 X69.6251 Y28.7215
G01 X69.6757 Y28.7750
G01 X69.7174 Y28.8233
G01 X69.7567 Y28.8736
G01 X69.7992 Y28.9337
G01 X69.8384 Y28.9960
G01 X69.8699 Y29.0515
G01 X69.8986 Y29.1085
G01 X69.9286 Y29.1757
G01 X69.9549 Y29.2445
G01 X69.9749 Y29.3051
G01 X69.9943 Y29.3761
G01 X70.0083 Y29.4384
G01 X70.0192 Y29.5012
G01 X70.0285 Y29.5743
G01 X70.0332 Y29.6379
G01 X70.0353 Y29.7115
G01 X70.0353 Y31.7694
G00 Z2.0000
M05
G00 Z2.0000
G00 Z15.00


