(G-CODE GENERATED BY FLATCAM v8.994 - www.flatcam.org - Version Date: 2020/11/7)

(Name: po_midi_adapter-PTH.drl_mill_cnc)
(Type: G-code from Geometry)
(Units: MM)

(Created on Wednesday, 11 August 2021 at 00:23)

(This preprocessor is used with a motion controller loaded with GRBL firmware.)
(It is configured to be compatible with almost any version of GRBL firmware.)

(TOOL DIAMETER: 0.8 mm)
(Feedrate_XY: 80.0 mm/min)
(Feedrate_Z: 60.0 mm/min)
(Feedrate rapids 1500.0 mm/min)

(Z_Cut: -0.1 mm)
(Z_Move: 2.0 mm)
(Z Start: None mm)
(Z End: 15.0 mm)
(X,Y End: None mm)
(Steps per circle: 64)
(Steps per circle: 64)
(Preprocessor Geometry: GRBL_11_no_M6)

(X range:    6.2117 ...   65.9590  mm)
(Y range:    9.0960 ...   65.6238  mm)

(Spindle Speed: 0.0 RPM)
G21
G90
G17
G94


G01 F80.00

M5             
G00 Z15.0000
G00 X0.0000 Y0.0000                
T1
(MSG, Change to Tool Dia = 0.8000)
M0
G00 Z15.0000
        
M03
G01 F80.00
G00 X10.2136 Y9.3957
G01 F60.00
G01 Z-0.1000
G01 F80.00
G01 X10.2122 Y9.3664 F80.00
G01 X10.2078 Y9.3373 F80.00
G01 X10.2007 Y9.3087 F80.00
G01 X10.1908 Y9.2810 F80.00
G01 X10.1782 Y9.2544 F80.00
G01 X10.1631 Y9.2292 F80.00
G01 X10.1456 Y9.2056 F80.00
G01 X10.1258 Y9.1838 F80.00
G01 X10.1040 Y9.1640 F80.00
G01 X10.0804 Y9.1465 F80.00
G01 X10.0551 Y9.1314 F80.00
G01 X10.0286 Y9.1188 F80.00
G01 X10.0009 Y9.1089 F80.00
G01 X9.9723 Y9.1017 F80.00
G01 X9.9432 Y9.0974 F80.00
G01 X9.9138 Y9.0960 F80.00
G01 X9.8845 Y9.0974 F80.00
G01 X9.8554 Y9.1017 F80.00
G01 X9.8268 Y9.1089 F80.00
G01 X9.7991 Y9.1188 F80.00
G01 X9.7725 Y9.1314 F80.00
G01 X9.7473 Y9.1465 F80.00
G01 X9.7237 Y9.1640 F80.00
G01 X9.7019 Y9.1838 F80.00
G01 X9.6821 Y9.2056 F80.00
G01 X9.6646 Y9.2292 F80.00
G01 X9.6495 Y9.2544 F80.00
G01 X9.6369 Y9.2810 F80.00
G01 X9.6270 Y9.3087 F80.00
G01 X9.6198 Y9.3373 F80.00
G01 X9.6155 Y9.3664 F80.00
G01 X9.6141 Y9.3957 F80.00
G01 X9.6155 Y9.4251 F80.00
G01 X9.6198 Y9.4542 F80.00
G01 X9.6270 Y9.4828 F80.00
G01 X9.6369 Y9.5105 F80.00
G01 X9.6495 Y9.5370 F80.00
G01 X9.6646 Y9.5623 F80.00
G01 X9.6821 Y9.5859 F80.00
G01 X9.7019 Y9.6077 F80.00
G01 X9.7237 Y9.6275 F80.00
G01 X9.7473 Y9.6450 F80.00
G01 X9.7725 Y9.6601 F80.00
G01 X9.7991 Y9.6727 F80.00
G01 X9.8268 Y9.6826 F80.00
G01 X9.8554 Y9.6897 F80.00
G01 X9.8845 Y9.6941 F80.00
G01 X9.9138 Y9.6955 F80.00
G01 X9.9432 Y9.6941 F80.00
G01 X9.9723 Y9.6897 F80.00
G01 X10.0009 Y9.6826 F80.00
G01 X10.0286 Y9.6727 F80.00
G01 X10.0551 Y9.6601 F80.00
G01 X10.0804 Y9.6450 F80.00
G01 X10.1040 Y9.6275 F80.00
G01 X10.1258 Y9.6077 F80.00
G01 X10.1456 Y9.5859 F80.00
G01 X10.1631 Y9.5623 F80.00
G01 X10.1782 Y9.5370 F80.00
G01 X10.1908 Y9.5105 F80.00
G01 X10.2007 Y9.4828 F80.00
G01 X10.2078 Y9.4542 F80.00
G01 X10.2122 Y9.4251 F80.00
G01 X10.2136 Y9.3957 F80.00
G00 Z2.0000
G00 X9.6916 Y12.5961
G01 F60.00
G01 Z-0.1000
G01 F80.00
G01 X9.6912 Y12.5863 F80.00
G01 X9.6897 Y12.5766 F80.00
G01 X9.6873 Y12.5670 F80.00
G01 X9.6840 Y12.5577 F80.00
G01 X9.6798 Y12.5488 F80.00
G01 X9.6747 Y12.5404 F80.00
G01 X9.6689 Y12.5325 F80.00
G01 X9.6622 Y12.5252 F80.00
G01 X9.6549 Y12.5185 F80.00
G01 X9.6470 Y12.5127 F80.00
G01 X9.6386 Y12.5076 F80.00
G01 X9.6297 Y12.5034 F80.00
G01 X9.6204 Y12.5001 F80.00
G01 X9.6108 Y12.4977 F80.00
G01 X9.6011 Y12.4962 F80.00
G01 X9.5913 Y12.4958 F80.00
G01 X9.5814 Y12.4962 F80.00
G01 X9.5717 Y12.4977 F80.00
G01 X9.5621 Y12.5001 F80.00
G01 X9.5528 Y12.5034 F80.00
G01 X9.5439 Y12.5076 F80.00
G01 X9.5355 Y12.5127 F80.00
G01 X9.5276 Y12.5185 F80.00
G01 X9.5203 Y12.5252 F80.00
G01 X9.5137 Y12.5325 F80.00
G01 X9.5078 Y12.5404 F80.00
G01 X9.5027 Y12.5488 F80.00
G01 X9.4985 Y12.5577 F80.00
G01 X9.4952 Y12.5670 F80.00
G01 X9.4928 Y12.5766 F80.00
G01 X9.4914 Y12.5863 F80.00
G01 X9.4909 Y12.5961 F80.00
G01 X9.4914 Y12.6060 F80.00
G01 X9.4928 Y12.6157 F80.00
G01 X9.4952 Y12.6253 F80.00
G01 X9.4985 Y12.6346 F80.00
G01 X9.5027 Y12.6435 F80.00
G01 X9.5078 Y12.6519 F80.00
G01 X9.5137 Y12.6598 F80.00
G01 X9.5203 Y12.6671 F80.00
G01 X9.5276 Y12.6737 F80.00
G01 X9.5355 Y12.6796 F80.00
G01 X9.5439 Y12.6847 F80.00
G01 X9.5528 Y12.6889 F80.00
G01 X9.5621 Y12.6922 F80.00
G01 X9.5717 Y12.6946 F80.00
G01 X9.5814 Y12.6960 F80.00
G01 X9.5913 Y12.6965 F80.00
G01 X9.6011 Y12.6960 F80.00
G01 X9.6108 Y12.6946 F80.00
G01 X9.6204 Y12.6922 F80.00
G01 X9.6297 Y12.6889 F80.00
G01 X9.6386 Y12.6847 F80.00
G01 X9.6470 Y12.6796 F80.00
G01 X9.6549 Y12.6737 F80.00
G01 X9.6622 Y12.6671 F80.00
G01 X9.6689 Y12.6598 F80.00
G01 X9.6747 Y12.6519 F80.00
G01 X9.6798 Y12.6435 F80.00
G01 X9.6840 Y12.6346 F80.00
G01 X9.6873 Y12.6253 F80.00
G01 X9.6897 Y12.6157 F80.00
G01 X9.6912 Y12.6060 F80.00
G01 X9.6916 Y12.5961 F80.00
G00 Z2.0000
G00 X9.6916 Y15.1361
G01 F60.00
G01 Z-0.1000
G01 F80.00
G01 X9.6912 Y15.1263 F80.00
G01 X9.6897 Y15.1166 F80.00
G01 X9.6873 Y15.1070 F80.00
G01 X9.6840 Y15.0977 F80.00
G01 X9.6798 Y15.0888 F80.00
G01 X9.6747 Y15.0804 F80.00
G01 X9.6689 Y15.0725 F80.00
G01 X9.6622 Y15.0652 F80.00
G01 X9.6549 Y15.0585 F80.00
G01 X9.6470 Y15.0527 F80.00
G01 X9.6386 Y15.0476 F80.00
G01 X9.6297 Y15.0434 F80.00
G01 X9.6204 Y15.0401 F80.00
G01 X9.6108 Y15.0377 F80.00
G01 X9.6011 Y15.0362 F80.00
G01 X9.5913 Y15.0358 F80.00
G01 X9.5814 Y15.0362 F80.00
G01 X9.5717 Y15.0377 F80.00
G01 X9.5621 Y15.0401 F80.00
G01 X9.5528 Y15.0434 F80.00
G01 X9.5439 Y15.0476 F80.00
G01 X9.5355 Y15.0527 F80.00
G01 X9.5276 Y15.0585 F80.00
G01 X9.5203 Y15.0652 F80.00
G01 X9.5137 Y15.0725 F80.00
G01 X9.5078 Y15.0804 F80.00
G01 X9.5027 Y15.0888 F80.00
G01 X9.4985 Y15.0977 F80.00
G01 X9.4952 Y15.1070 F80.00
G01 X9.4928 Y15.1166 F80.00
G01 X9.4914 Y15.1263 F80.00
G01 X9.4909 Y15.1361 F80.00
G01 X9.4914 Y15.1460 F80.00
G01 X9.4928 Y15.1557 F80.00
G01 X9.4952 Y15.1653 F80.00
G01 X9.4985 Y15.1746 F80.00
G01 X9.5027 Y15.1835 F80.00
G01 X9.5078 Y15.1919 F80.00
G01 X9.5137 Y15.1998 F80.00
G01 X9.5203 Y15.2071 F80.00
G01 X9.5276 Y15.2137 F80.00
G01 X9.5355 Y15.2196 F80.00
G01 X9.5439 Y15.2247 F80.00
G01 X9.5528 Y15.2289 F80.00
G01 X9.5621 Y15.2322 F80.00
G01 X9.5717 Y15.2346 F80.00
G01 X9.5814 Y15.2360 F80.00
G01 X9.5913 Y15.2365 F80.00
G01 X9.6011 Y15.2360 F80.00
G01 X9.6108 Y15.2346 F80.00
G01 X9.6204 Y15.2322 F80.00
G01 X9.6297 Y15.2289 F80.00
G01 X9.6386 Y15.2247 F80.00
G01 X9.6470 Y15.2196 F80.00
G01 X9.6549 Y15.2137 F80.00
G01 X9.6622 Y15.2071 F80.00
G01 X9.6689 Y15.1998 F80.00
G01 X9.6747 Y15.1919 F80.00
G01 X9.6798 Y15.1835 F80.00
G01 X9.6840 Y15.1746 F80.00
G01 X9.6873 Y15.1653 F80.00
G01 X9.6897 Y15.1557 F80.00
G01 X9.6912 Y15.1460 F80.00
G01 X9.6916 Y15.1361 F80.00
G00 Z2.0000
G00 X12.7155 Y11.8976
G01 F60.00
G01 Z-0.1000
G01 F80.00
G01 X12.7141 Y11.8683 F80.00
G01 X12.7097 Y11.8392 F80.00
G01 X12.7026 Y11.8106 F80.00
G01 X12.6927 Y11.7829 F80.00
G01 X12.6801 Y11.7563 F80.00
G01 X12.6650 Y11.7311 F80.00
G01 X12.6475 Y11.7075 F80.00
G01 X12.6277 Y11.6857 F80.00
G01 X12.6059 Y11.6659 F80.00
G01 X12.5823 Y11.6484 F80.00
G01 X12.5570 Y11.6333 F80.00
G01 X12.5305 Y11.6207 F80.00
G01 X12.5028 Y11.6108 F80.00
G01 X12.4742 Y11.6036 F80.00
G01 X12.4451 Y11.5993 F80.00
G01 X12.4157 Y11.5979 F80.00
G01 X12.3864 Y11.5993 F80.00
G01 X12.3573 Y11.6036 F80.00
G01 X12.3287 Y11.6108 F80.00
G01 X12.3010 Y11.6207 F80.00
G01 X12.2744 Y11.6333 F80.00
G01 X12.2492 Y11.6484 F80.00
G01 X12.2256 Y11.6659 F80.00
G01 X12.2038 Y11.6857 F80.00
G01 X12.1840 Y11.7075 F80.00
G01 X12.1665 Y11.7311 F80.00
G01 X12.1514 Y11.7563 F80.00
G01 X12.1388 Y11.7829 F80.00
G01 X12.1289 Y11.8106 F80.00
G01 X12.1217 Y11.8392 F80.00
G01 X12.1174 Y11.8683 F80.00
G01 X12.1160 Y11.8976 F80.00
G01 X12.1174 Y11.9270 F80.00
G01 X12.1217 Y11.9561 F80.00
G01 X12.1289 Y11.9847 F80.00
G01 X12.1388 Y12.0124 F80.00
G01 X12.1514 Y12.0389 F80.00
G01 X12.1665 Y12.0642 F80.00
G01 X12.1840 Y12.0878 F80.00
G01 X12.2038 Y12.1096 F80.00
G01 X12.2256 Y12.1294 F80.00
G01 X12.2492 Y12.1469 F80.00
G01 X12.2744 Y12.1620 F80.00
G01 X12.3010 Y12.1746 F80.00
G01 X12.3287 Y12.1845 F80.00
G01 X12.3573 Y12.1916 F80.00
G01 X12.3864 Y12.1960 F80.00
G01 X12.4157 Y12.1974 F80.00
G01 X12.4451 Y12.1960 F80.00
G01 X12.4742 Y12.1916 F80.00
G01 X12.5028 Y12.1845 F80.00
G01 X12.5305 Y12.1746 F80.00
G01 X12.5570 Y12.1620 F80.00
G01 X12.5823 Y12.1469 F80.00
G01 X12.6059 Y12.1294 F80.00
G01 X12.6277 Y12.1096 F80.00
G01 X12.6475 Y12.0878 F80.00
G01 X12.6650 Y12.0642 F80.00
G01 X12.6801 Y12.0389 F80.00
G01 X12.6927 Y12.0124 F80.00
G01 X12.7026 Y11.9847 F80.00
G01 X12.7097 Y11.9561 F80.00
G01 X12.7141 Y11.9270 F80.00
G01 X12.7155 Y11.8976 F80.00
G00 Z2.0000
G00 X15.1996 Y15.5629
G01 F60.00
G01 Z-0.1000
G01 F80.00
G01 X15.1996 Y15.5628 F80.00
G01 X15.1995 Y15.5629 F80.00
G01 X15.1996 Y15.5629 F80.00
G01 X15.1996 Y15.5629 F80.00
G00 Z2.0000
G00 X18.5245 Y15.6264
G01 F60.00
G01 Z-0.1000
G01 F80.00
G01 X18.5244 Y15.6263 F80.00
G01 X18.5244 Y15.6264 F80.00
G01 X18.5244 Y15.6264 F80.00
G01 X18.5245 Y15.6264 F80.00
G00 Z2.0000
G00 X22.2913 Y14.9812
G01 F60.00
G01 Z-0.1000
G01 F80.00
G01 X22.2906 Y14.9665 F80.00
G01 X22.2884 Y14.9520 F80.00
G01 X22.2849 Y14.9377 F80.00
G01 X22.2799 Y14.9238 F80.00
G01 X22.2736 Y14.9105 F80.00
G01 X22.2660 Y14.8979 F80.00
G01 X22.2573 Y14.8861 F80.00
G01 X22.2474 Y14.8752 F80.00
G01 X22.2365 Y14.8653 F80.00
G01 X22.2247 Y14.8566 F80.00
G01 X22.2121 Y14.8490 F80.00
G01 X22.1988 Y14.8427 F80.00
G01 X22.1849 Y14.8377 F80.00
G01 X22.1706 Y14.8342 F80.00
G01 X22.1561 Y14.8320 F80.00
G01 X22.1414 Y14.8313 F80.00
G01 X22.1267 Y14.8320 F80.00
G01 X22.1122 Y14.8342 F80.00
G01 X22.0979 Y14.8377 F80.00
G01 X22.0840 Y14.8427 F80.00
G01 X22.0707 Y14.8490 F80.00
G01 X22.0581 Y14.8566 F80.00
G01 X22.0463 Y14.8653 F80.00
G01 X22.0354 Y14.8752 F80.00
G01 X22.0255 Y14.8861 F80.00
G01 X22.0168 Y14.8979 F80.00
G01 X22.0092 Y14.9105 F80.00
G01 X22.0029 Y14.9238 F80.00
G01 X21.9979 Y14.9377 F80.00
G01 X21.9944 Y14.9520 F80.00
G01 X21.9922 Y14.9665 F80.00
G01 X21.9915 Y14.9812 F80.00
G01 X21.9922 Y14.9959 F80.00
G01 X21.9944 Y15.0104 F80.00
G01 X21.9979 Y15.0247 F80.00
G01 X22.0029 Y15.0386 F80.00
G01 X22.0092 Y15.0519 F80.00
G01 X22.0168 Y15.0645 F80.00
G01 X22.0255 Y15.0763 F80.00
G01 X22.0354 Y15.0872 F80.00
G01 X22.0463 Y15.0971 F80.00
G01 X22.0581 Y15.1058 F80.00
G01 X22.0707 Y15.1134 F80.00
G01 X22.0840 Y15.1197 F80.00
G01 X22.0979 Y15.1247 F80.00
G01 X22.1122 Y15.1282 F80.00
G01 X22.1267 Y15.1304 F80.00
G01 X22.1414 Y15.1311 F80.00
G01 X22.1561 Y15.1304 F80.00
G01 X22.1706 Y15.1282 F80.00
G01 X22.1849 Y15.1247 F80.00
G01 X22.1988 Y15.1197 F80.00
G01 X22.2121 Y15.1134 F80.00
G01 X22.2247 Y15.1058 F80.00
G01 X22.2365 Y15.0971 F80.00
G01 X22.2474 Y15.0872 F80.00
G01 X22.2573 Y15.0763 F80.00
G01 X22.2660 Y15.0645 F80.00
G01 X22.2736 Y15.0519 F80.00
G01 X22.2799 Y15.0386 F80.00
G01 X22.2849 Y15.0247 F80.00
G01 X22.2884 Y15.0104 F80.00
G01 X22.2906 Y14.9959 F80.00
G01 X22.2913 Y14.9812 F80.00
G00 Z2.0000
G00 X22.7079 Y11.8976
G01 F60.00
G01 Z-0.1000
G01 F80.00
G01 X22.7064 Y11.8683 F80.00
G01 X22.7021 Y11.8392 F80.00
G01 X22.6950 Y11.8106 F80.00
G01 X22.6850 Y11.7829 F80.00
G01 X22.6725 Y11.7563 F80.00
G01 X22.6573 Y11.7311 F80.00
G01 X22.6398 Y11.7075 F80.00
G01 X22.6201 Y11.6857 F80.00
G01 X22.5983 Y11.6659 F80.00
G01 X22.5746 Y11.6484 F80.00
G01 X22.5494 Y11.6333 F80.00
G01 X22.5228 Y11.6207 F80.00
G01 X22.4951 Y11.6108 F80.00
G01 X22.4666 Y11.6036 F80.00
G01 X22.4375 Y11.5993 F80.00
G01 X22.4081 Y11.5979 F80.00
G01 X22.3787 Y11.5993 F80.00
G01 X22.3496 Y11.6036 F80.00
G01 X22.3211 Y11.6108 F80.00
G01 X22.2934 Y11.6207 F80.00
G01 X22.2668 Y11.6333 F80.00
G01 X22.2416 Y11.6484 F80.00
G01 X22.2179 Y11.6659 F80.00
G01 X22.1961 Y11.6857 F80.00
G01 X22.1764 Y11.7075 F80.00
G01 X22.1588 Y11.7311 F80.00
G01 X22.1437 Y11.7563 F80.00
G01 X22.1311 Y11.7829 F80.00
G01 X22.1212 Y11.8106 F80.00
G01 X22.1141 Y11.8392 F80.00
G01 X22.1098 Y11.8683 F80.00
G01 X22.1083 Y11.8976 F80.00
G01 X22.1098 Y11.9270 F80.00
G01 X22.1141 Y11.9561 F80.00
G01 X22.1212 Y11.9847 F80.00
G01 X22.1311 Y12.0124 F80.00
G01 X22.1437 Y12.0389 F80.00
G01 X22.1588 Y12.0642 F80.00
G01 X22.1764 Y12.0878 F80.00
G01 X22.1961 Y12.1096 F80.00
G01 X22.2179 Y12.1294 F80.00
G01 X22.2416 Y12.1469 F80.00
G01 X22.2668 Y12.1620 F80.00
G01 X22.2934 Y12.1746 F80.00
G01 X22.3211 Y12.1845 F80.00
G01 X22.3496 Y12.1916 F80.00
G01 X22.3787 Y12.1960 F80.00
G01 X22.4081 Y12.1974 F80.00
G01 X22.4375 Y12.1960 F80.00
G01 X22.4666 Y12.1916 F80.00
G01 X22.4951 Y12.1845 F80.00
G01 X22.5228 Y12.1746 F80.00
G01 X22.5494 Y12.1620 F80.00
G01 X22.5746 Y12.1469 F80.00
G01 X22.5983 Y12.1294 F80.00
G01 X22.6201 Y12.1096 F80.00
G01 X22.6398 Y12.0878 F80.00
G01 X22.6573 Y12.0642 F80.00
G01 X22.6725 Y12.0389 F80.00
G01 X22.6850 Y12.0124 F80.00
G01 X22.6950 Y11.9847 F80.00
G01 X22.7021 Y11.9561 F80.00
G01 X22.7064 Y11.9270 F80.00
G01 X22.7079 Y11.8976 F80.00
G00 Z2.0000
G00 X25.2098 Y9.3957
G01 F60.00
G01 Z-0.1000
G01 F80.00
G01 X25.2083 Y9.3664 F80.00
G01 X25.2040 Y9.3373 F80.00
G01 X25.1969 Y9.3087 F80.00
G01 X25.1869 Y9.2810 F80.00
G01 X25.1744 Y9.2544 F80.00
G01 X25.1592 Y9.2292 F80.00
G01 X25.1417 Y9.2056 F80.00
G01 X25.1220 Y9.1838 F80.00
G01 X25.1002 Y9.1640 F80.00
G01 X25.0765 Y9.1465 F80.00
G01 X25.0513 Y9.1314 F80.00
G01 X25.0247 Y9.1188 F80.00
G01 X24.9970 Y9.1089 F80.00
G01 X24.9685 Y9.1017 F80.00
G01 X24.9394 Y9.0974 F80.00
G01 X24.9100 Y9.0960 F80.00
G01 X24.8806 Y9.0974 F80.00
G01 X24.8515 Y9.1017 F80.00
G01 X24.8230 Y9.1089 F80.00
G01 X24.7953 Y9.1188 F80.00
G01 X24.7687 Y9.1314 F80.00
G01 X24.7435 Y9.1465 F80.00
G01 X24.7198 Y9.1640 F80.00
G01 X24.6980 Y9.1838 F80.00
G01 X24.6783 Y9.2056 F80.00
G01 X24.6607 Y9.2292 F80.00
G01 X24.6456 Y9.2544 F80.00
G01 X24.6330 Y9.2810 F80.00
G01 X24.6231 Y9.3087 F80.00
G01 X24.6160 Y9.3373 F80.00
G01 X24.6117 Y9.3664 F80.00
G01 X24.6102 Y9.3957 F80.00
G01 X24.6117 Y9.4251 F80.00
G01 X24.6160 Y9.4542 F80.00
G01 X24.6231 Y9.4828 F80.00
G01 X24.6330 Y9.5105 F80.00
G01 X24.6456 Y9.5370 F80.00
G01 X24.6607 Y9.5623 F80.00
G01 X24.6783 Y9.5859 F80.00
G01 X24.6980 Y9.6077 F80.00
G01 X24.7198 Y9.6275 F80.00
G01 X24.7435 Y9.6450 F80.00
G01 X24.7687 Y9.6601 F80.00
G01 X24.7953 Y9.6727 F80.00
G01 X24.8230 Y9.6826 F80.00
G01 X24.8515 Y9.6897 F80.00
G01 X24.8806 Y9.6941 F80.00
G01 X24.9100 Y9.6955 F80.00
G01 X24.9394 Y9.6941 F80.00
G01 X24.9685 Y9.6897 F80.00
G01 X24.9970 Y9.6826 F80.00
G01 X25.0247 Y9.6727 F80.00
G01 X25.0513 Y9.6601 F80.00
G01 X25.0765 Y9.6450 F80.00
G01 X25.1002 Y9.6275 F80.00
G01 X25.1220 Y9.6077 F80.00
G01 X25.1417 Y9.5859 F80.00
G01 X25.1592 Y9.5623 F80.00
G01 X25.1744 Y9.5370 F80.00
G01 X25.1869 Y9.5105 F80.00
G01 X25.1969 Y9.4828 F80.00
G01 X25.2040 Y9.4542 F80.00
G01 X25.2083 Y9.4251 F80.00
G01 X25.2098 Y9.3957 F80.00
G00 Z2.0000
G00 X17.7117 Y9.3983
G01 F60.00
G01 Z-0.1000
G01 F80.00
G01 X17.7102 Y9.3689 F80.00
G01 X17.7059 Y9.3398 F80.00
G01 X17.6988 Y9.3113 F80.00
G01 X17.6889 Y9.2836 F80.00
G01 X17.6763 Y9.2570 F80.00
G01 X17.6612 Y9.2317 F80.00
G01 X17.6436 Y9.2081 F80.00
G01 X17.6239 Y9.1863 F80.00
G01 X17.6021 Y9.1666 F80.00
G01 X17.5785 Y9.1490 F80.00
G01 X17.5532 Y9.1339 F80.00
G01 X17.5266 Y9.1213 F80.00
G01 X17.4989 Y9.1114 F80.00
G01 X17.4704 Y9.1043 F80.00
G01 X17.4413 Y9.1000 F80.00
G01 X17.4119 Y9.0985 F80.00
G01 X17.3825 Y9.1000 F80.00
G01 X17.3534 Y9.1043 F80.00
G01 X17.3249 Y9.1114 F80.00
G01 X17.2972 Y9.1213 F80.00
G01 X17.2706 Y9.1339 F80.00
G01 X17.2454 Y9.1490 F80.00
G01 X17.2217 Y9.1666 F80.00
G01 X17.1999 Y9.1863 F80.00
G01 X17.1802 Y9.2081 F80.00
G01 X17.1627 Y9.2317 F80.00
G01 X17.1475 Y9.2570 F80.00
G01 X17.1350 Y9.2836 F80.00
G01 X17.1251 Y9.3113 F80.00
G01 X17.1179 Y9.3398 F80.00
G01 X17.1136 Y9.3689 F80.00
G01 X17.1121 Y9.3983 F80.00
G01 X17.1136 Y9.4277 F80.00
G01 X17.1179 Y9.4568 F80.00
G01 X17.1251 Y9.4853 F80.00
G01 X17.1350 Y9.5130 F80.00
G01 X17.1475 Y9.5396 F80.00
G01 X17.1627 Y9.5648 F80.00
G01 X17.1802 Y9.5885 F80.00
G01 X17.1999 Y9.6102 F80.00
G01 X17.2217 Y9.6300 F80.00
G01 X17.2454 Y9.6475 F80.00
G01 X17.2706 Y9.6627 F80.00
G01 X17.2972 Y9.6752 F80.00
G01 X17.3249 Y9.6851 F80.00
G01 X17.3534 Y9.6923 F80.00
G01 X17.3825 Y9.6966 F80.00
G01 X17.4119 Y9.6980 F80.00
G01 X17.4413 Y9.6966 F80.00
G01 X17.4704 Y9.6923 F80.00
G01 X17.4989 Y9.6851 F80.00
G01 X17.5266 Y9.6752 F80.00
G01 X17.5532 Y9.6627 F80.00
G01 X17.5785 Y9.6475 F80.00
G01 X17.6021 Y9.6300 F80.00
G01 X17.6239 Y9.6102 F80.00
G01 X17.6436 Y9.5885 F80.00
G01 X17.6612 Y9.5648 F80.00
G01 X17.6763 Y9.5396 F80.00
G01 X17.6889 Y9.5130 F80.00
G01 X17.6988 Y9.4853 F80.00
G01 X17.7059 Y9.4568 F80.00
G01 X17.7102 Y9.4277 F80.00
G01 X17.7117 Y9.3983 F80.00
G00 Z2.0000
G00 X24.6814 Y19.1214
G01 F60.00
G01 Z-0.1000
G01 F80.00
G01 X24.6814 Y19.1213 F80.00
G01 X24.6813 Y19.1214 F80.00
G01 X24.6814 Y19.1214 F80.00
G01 X24.6814 Y19.1214 F80.00
G00 Z2.0000
G00 X24.6814 Y21.6614
G01 F60.00
G01 Z-0.1000
G01 F80.00
G01 X24.6814 Y21.6613 F80.00
G01 X24.6813 Y21.6614 F80.00
G01 X24.6814 Y21.6614 F80.00
G01 X24.6814 Y21.6614 F80.00
G00 Z2.0000
G00 X24.6814 Y24.2014
G01 F60.00
G01 Z-0.1000
G01 F80.00
G01 X24.6814 Y24.2013 F80.00
G01 X24.6813 Y24.2014 F80.00
G01 X24.6814 Y24.2014 F80.00
G01 X24.6814 Y24.2014 F80.00
G00 Z2.0000
G00 X24.6814 Y26.7414
G01 F60.00
G01 Z-0.1000
G01 F80.00
G01 X24.6814 Y26.7413 F80.00
G01 X24.6813 Y26.7414 F80.00
G01 X24.6814 Y26.7414 F80.00
G01 X24.6814 Y26.7414 F80.00
G00 Z2.0000
G00 X22.2913 Y25.9794
G01 F60.00
G01 Z-0.1000
G01 F80.00
G01 X22.2906 Y25.9647 F80.00
G01 X22.2884 Y25.9502 F80.00
G01 X22.2849 Y25.9359 F80.00
G01 X22.2799 Y25.9220 F80.00
G01 X22.2736 Y25.9087 F80.00
G01 X22.2660 Y25.8961 F80.00
G01 X22.2573 Y25.8843 F80.00
G01 X22.2474 Y25.8734 F80.00
G01 X22.2365 Y25.8635 F80.00
G01 X22.2247 Y25.8548 F80.00
G01 X22.2121 Y25.8472 F80.00
G01 X22.1988 Y25.8409 F80.00
G01 X22.1849 Y25.8359 F80.00
G01 X22.1706 Y25.8324 F80.00
G01 X22.1561 Y25.8302 F80.00
G01 X22.1414 Y25.8295 F80.00
G01 X22.1267 Y25.8302 F80.00
G01 X22.1122 Y25.8324 F80.00
G01 X22.0979 Y25.8359 F80.00
G01 X22.0840 Y25.8409 F80.00
G01 X22.0707 Y25.8472 F80.00
G01 X22.0581 Y25.8548 F80.00
G01 X22.0463 Y25.8635 F80.00
G01 X22.0354 Y25.8734 F80.00
G01 X22.0255 Y25.8843 F80.00
G01 X22.0168 Y25.8961 F80.00
G01 X22.0092 Y25.9087 F80.00
G01 X22.0029 Y25.9220 F80.00
G01 X21.9979 Y25.9359 F80.00
G01 X21.9944 Y25.9502 F80.00
G01 X21.9922 Y25.9647 F80.00
G01 X21.9915 Y25.9794 F80.00
G01 X21.9922 Y25.9941 F80.00
G01 X21.9944 Y26.0086 F80.00
G01 X21.9979 Y26.0229 F80.00
G01 X22.0029 Y26.0368 F80.00
G01 X22.0092 Y26.0501 F80.00
G01 X22.0168 Y26.0627 F80.00
G01 X22.0255 Y26.0745 F80.00
G01 X22.0354 Y26.0854 F80.00
G01 X22.0463 Y26.0953 F80.00
G01 X22.0581 Y26.1040 F80.00
G01 X22.0707 Y26.1116 F80.00
G01 X22.0840 Y26.1179 F80.00
G01 X22.0979 Y26.1229 F80.00
G01 X22.1122 Y26.1264 F80.00
G01 X22.1267 Y26.1286 F80.00
G01 X22.1414 Y26.1293 F80.00
G01 X22.1561 Y26.1286 F80.00
G01 X22.1706 Y26.1264 F80.00
G01 X22.1849 Y26.1229 F80.00
G01 X22.1988 Y26.1179 F80.00
G01 X22.2121 Y26.1116 F80.00
G01 X22.2247 Y26.1040 F80.00
G01 X22.2365 Y26.0953 F80.00
G01 X22.2474 Y26.0854 F80.00
G01 X22.2573 Y26.0745 F80.00
G01 X22.2660 Y26.0627 F80.00
G01 X22.2736 Y26.0501 F80.00
G01 X22.2799 Y26.0368 F80.00
G01 X22.2849 Y26.0229 F80.00
G01 X22.2884 Y26.0086 F80.00
G01 X22.2906 Y25.9941 F80.00
G01 X22.2913 Y25.9794 F80.00
G00 Z2.0000
G00 X18.5245 Y25.7864
G01 F60.00
G01 Z-0.1000
G01 F80.00
G01 X18.5244 Y25.7863 F80.00
G01 X18.5244 Y25.7864 F80.00
G01 X18.5244 Y25.7864 F80.00
G01 X18.5245 Y25.7864 F80.00
G00 Z2.0000
G00 X15.1996 Y25.7229
G01 F60.00
G01 Z-0.1000
G01 F80.00
G01 X15.1996 Y25.7228 F80.00
G01 X15.1995 Y25.7229 F80.00
G01 X15.1996 Y25.7229 F80.00
G01 X15.1996 Y25.7229 F80.00
G00 Z2.0000
G00 X9.7945 Y25.9540
G01 F60.00
G01 Z-0.1000
G01 F80.00
G01 X9.7938 Y25.9393 F80.00
G01 X9.7916 Y25.9248 F80.00
G01 X9.7881 Y25.9105 F80.00
G01 X9.7831 Y25.8966 F80.00
G01 X9.7768 Y25.8833 F80.00
G01 X9.7692 Y25.8707 F80.00
G01 X9.7605 Y25.8589 F80.00
G01 X9.7506 Y25.8480 F80.00
G01 X9.7397 Y25.8381 F80.00
G01 X9.7279 Y25.8294 F80.00
G01 X9.7153 Y25.8218 F80.00
G01 X9.7020 Y25.8155 F80.00
G01 X9.6881 Y25.8105 F80.00
G01 X9.6738 Y25.8070 F80.00
G01 X9.6593 Y25.8048 F80.00
G01 X9.6446 Y25.8041 F80.00
G01 X9.6299 Y25.8048 F80.00
G01 X9.6154 Y25.8070 F80.00
G01 X9.6011 Y25.8105 F80.00
G01 X9.5872 Y25.8155 F80.00
G01 X9.5739 Y25.8218 F80.00
G01 X9.5613 Y25.8294 F80.00
G01 X9.5495 Y25.8381 F80.00
G01 X9.5386 Y25.8480 F80.00
G01 X9.5287 Y25.8589 F80.00
G01 X9.5200 Y25.8707 F80.00
G01 X9.5124 Y25.8833 F80.00
G01 X9.5061 Y25.8966 F80.00
G01 X9.5011 Y25.9105 F80.00
G01 X9.4976 Y25.9248 F80.00
G01 X9.4954 Y25.9393 F80.00
G01 X9.4947 Y25.9540 F80.00
G01 X9.4954 Y25.9687 F80.00
G01 X9.4976 Y25.9832 F80.00
G01 X9.5011 Y25.9975 F80.00
G01 X9.5061 Y26.0114 F80.00
G01 X9.5124 Y26.0247 F80.00
G01 X9.5200 Y26.0373 F80.00
G01 X9.5287 Y26.0491 F80.00
G01 X9.5386 Y26.0600 F80.00
G01 X9.5495 Y26.0699 F80.00
G01 X9.5613 Y26.0786 F80.00
G01 X9.5739 Y26.0862 F80.00
G01 X9.5872 Y26.0925 F80.00
G01 X9.6011 Y26.0975 F80.00
G01 X9.6154 Y26.1010 F80.00
G01 X9.6299 Y26.1032 F80.00
G01 X9.6446 Y26.1039 F80.00
G01 X9.6593 Y26.1032 F80.00
G01 X9.6738 Y26.1010 F80.00
G01 X9.6881 Y26.0975 F80.00
G01 X9.7020 Y26.0925 F80.00
G01 X9.7153 Y26.0862 F80.00
G01 X9.7279 Y26.0786 F80.00
G01 X9.7397 Y26.0699 F80.00
G01 X9.7506 Y26.0600 F80.00
G01 X9.7605 Y26.0491 F80.00
G01 X9.7692 Y26.0373 F80.00
G01 X9.7768 Y26.0247 F80.00
G01 X9.7831 Y26.0114 F80.00
G01 X9.7881 Y25.9975 F80.00
G01 X9.7916 Y25.9832 F80.00
G01 X9.7938 Y25.9687 F80.00
G01 X9.7945 Y25.9540 F80.00
G00 Z2.0000
G00 X12.4120 Y32.1618
G01 F60.00
G01 Z-0.1000
G01 F80.00
G01 X12.4115 Y32.1519 F80.00
G01 X12.4100 Y32.1422 F80.00
G01 X12.4077 Y32.1326 F80.00
G01 X12.4043 Y32.1233 F80.00
G01 X12.4001 Y32.1144 F80.00
G01 X12.3951 Y32.1060 F80.00
G01 X12.3892 Y32.0981 F80.00
G01 X12.3826 Y32.0908 F80.00
G01 X12.3753 Y32.0842 F80.00
G01 X12.3674 Y32.0783 F80.00
G01 X12.3589 Y32.0732 F80.00
G01 X12.3500 Y32.0690 F80.00
G01 X12.3407 Y32.0657 F80.00
G01 X12.3312 Y32.0633 F80.00
G01 X12.3214 Y32.0619 F80.00
G01 X12.3116 Y32.0614 F80.00
G01 X12.3018 Y32.0619 F80.00
G01 X12.2920 Y32.0633 F80.00
G01 X12.2825 Y32.0657 F80.00
G01 X12.2732 Y32.0690 F80.00
G01 X12.2643 Y32.0732 F80.00
G01 X12.2558 Y32.0783 F80.00
G01 X12.2479 Y32.0842 F80.00
G01 X12.2406 Y32.0908 F80.00
G01 X12.2340 Y32.0981 F80.00
G01 X12.2281 Y32.1060 F80.00
G01 X12.2231 Y32.1144 F80.00
G01 X12.2189 Y32.1233 F80.00
G01 X12.2155 Y32.1326 F80.00
G01 X12.2131 Y32.1422 F80.00
G01 X12.2117 Y32.1519 F80.00
G01 X12.2112 Y32.1618 F80.00
G01 X12.2117 Y32.1716 F80.00
G01 X12.2131 Y32.1813 F80.00
G01 X12.2155 Y32.1909 F80.00
G01 X12.2189 Y32.2002 F80.00
G01 X12.2231 Y32.2091 F80.00
G01 X12.2281 Y32.2175 F80.00
G01 X12.2340 Y32.2254 F80.00
G01 X12.2406 Y32.2327 F80.00
G01 X12.2479 Y32.2394 F80.00
G01 X12.2558 Y32.2452 F80.00
G01 X12.2643 Y32.2503 F80.00
G01 X12.2732 Y32.2545 F80.00
G01 X12.2825 Y32.2578 F80.00
G01 X12.2920 Y32.2602 F80.00
G01 X12.3018 Y32.2617 F80.00
G01 X12.3116 Y32.2621 F80.00
G01 X12.3214 Y32.2617 F80.00
G01 X12.3312 Y32.2602 F80.00
G01 X12.3407 Y32.2578 F80.00
G01 X12.3500 Y32.2545 F80.00
G01 X12.3589 Y32.2503 F80.00
G01 X12.3674 Y32.2452 F80.00
G01 X12.3753 Y32.2394 F80.00
G01 X12.3826 Y32.2327 F80.00
G01 X12.3892 Y32.2254 F80.00
G01 X12.3951 Y32.2175 F80.00
G01 X12.4001 Y32.2091 F80.00
G01 X12.4043 Y32.2002 F80.00
G01 X12.4077 Y32.1909 F80.00
G01 X12.4100 Y32.1813 F80.00
G01 X12.4115 Y32.1716 F80.00
G01 X12.4120 Y32.1618 F80.00
G00 Z2.0000
G00 X9.8707 Y37.1046
G01 F60.00
G01 Z-0.1000
G01 F80.00
G01 X9.8700 Y37.0899 F80.00
G01 X9.8678 Y37.0754 F80.00
G01 X9.8643 Y37.0611 F80.00
G01 X9.8593 Y37.0472 F80.00
G01 X9.8530 Y37.0339 F80.00
G01 X9.8454 Y37.0213 F80.00
G01 X9.8367 Y37.0095 F80.00
G01 X9.8268 Y36.9986 F80.00
G01 X9.8159 Y36.9887 F80.00
G01 X9.8041 Y36.9800 F80.00
G01 X9.7915 Y36.9724 F80.00
G01 X9.7782 Y36.9661 F80.00
G01 X9.7643 Y36.9611 F80.00
G01 X9.7500 Y36.9576 F80.00
G01 X9.7355 Y36.9554 F80.00
G01 X9.7208 Y36.9547 F80.00
G01 X9.7061 Y36.9554 F80.00
G01 X9.6916 Y36.9576 F80.00
G01 X9.6773 Y36.9611 F80.00
G01 X9.6634 Y36.9661 F80.00
G01 X9.6501 Y36.9724 F80.00
G01 X9.6375 Y36.9800 F80.00
G01 X9.6257 Y36.9887 F80.00
G01 X9.6148 Y36.9986 F80.00
G01 X9.6049 Y37.0095 F80.00
G01 X9.5962 Y37.0213 F80.00
G01 X9.5886 Y37.0339 F80.00
G01 X9.5823 Y37.0472 F80.00
G01 X9.5773 Y37.0611 F80.00
G01 X9.5738 Y37.0754 F80.00
G01 X9.5716 Y37.0899 F80.00
G01 X9.5709 Y37.1046 F80.00
G01 X9.5716 Y37.1193 F80.00
G01 X9.5738 Y37.1338 F80.00
G01 X9.5773 Y37.1481 F80.00
G01 X9.5823 Y37.1620 F80.00
G01 X9.5886 Y37.1753 F80.00
G01 X9.5962 Y37.1879 F80.00
G01 X9.6049 Y37.1997 F80.00
G01 X9.6148 Y37.2106 F80.00
G01 X9.6257 Y37.2205 F80.00
G01 X9.6375 Y37.2292 F80.00
G01 X9.6501 Y37.2368 F80.00
G01 X9.6634 Y37.2431 F80.00
G01 X9.6773 Y37.2481 F80.00
G01 X9.6916 Y37.2516 F80.00
G01 X9.7061 Y37.2538 F80.00
G01 X9.7208 Y37.2545 F80.00
G01 X9.7355 Y37.2538 F80.00
G01 X9.7500 Y37.2516 F80.00
G01 X9.7643 Y37.2481 F80.00
G01 X9.7782 Y37.2431 F80.00
G01 X9.7915 Y37.2368 F80.00
G01 X9.8041 Y37.2292 F80.00
G01 X9.8159 Y37.2205 F80.00
G01 X9.8268 Y37.2106 F80.00
G01 X9.8367 Y37.1997 F80.00
G01 X9.8454 Y37.1879 F80.00
G01 X9.8530 Y37.1753 F80.00
G01 X9.8593 Y37.1620 F80.00
G01 X9.8643 Y37.1481 F80.00
G01 X9.8678 Y37.1338 F80.00
G01 X9.8700 Y37.1193 F80.00
G01 X9.8707 Y37.1046 F80.00
G00 Z2.0000
G00 X10.0295 Y40.8282
G01 F60.00
G01 Z-0.1000
G01 F80.00
G01 X10.0290 Y40.8184 F80.00
G01 X10.0275 Y40.8087 F80.00
G01 X10.0251 Y40.7991 F80.00
G01 X10.0218 Y40.7898 F80.00
G01 X10.0176 Y40.7809 F80.00
G01 X10.0125 Y40.7725 F80.00
G01 X10.0067 Y40.7646 F80.00
G01 X10.0001 Y40.7573 F80.00
G01 X9.9928 Y40.7506 F80.00
G01 X9.9848 Y40.7448 F80.00
G01 X9.9764 Y40.7397 F80.00
G01 X9.9675 Y40.7355 F80.00
G01 X9.9582 Y40.7322 F80.00
G01 X9.9487 Y40.7298 F80.00
G01 X9.9389 Y40.7283 F80.00
G01 X9.9291 Y40.7279 F80.00
G01 X9.9192 Y40.7283 F80.00
G01 X9.9095 Y40.7298 F80.00
G01 X9.8999 Y40.7322 F80.00
G01 X9.8907 Y40.7355 F80.00
G01 X9.8818 Y40.7397 F80.00
G01 X9.8733 Y40.7448 F80.00
G01 X9.8654 Y40.7506 F80.00
G01 X9.8581 Y40.7573 F80.00
G01 X9.8515 Y40.7646 F80.00
G01 X9.8456 Y40.7725 F80.00
G01 X9.8406 Y40.7809 F80.00
G01 X9.8363 Y40.7898 F80.00
G01 X9.8330 Y40.7991 F80.00
G01 X9.8306 Y40.8087 F80.00
G01 X9.8292 Y40.8184 F80.00
G01 X9.8287 Y40.8282 F80.00
G01 X9.8292 Y40.8381 F80.00
G01 X9.8306 Y40.8478 F80.00
G01 X9.8330 Y40.8574 F80.00
G01 X9.8363 Y40.8667 F80.00
G01 X9.8406 Y40.8756 F80.00
G01 X9.8456 Y40.8840 F80.00
G01 X9.8515 Y40.8919 F80.00
G01 X9.8581 Y40.8992 F80.00
G01 X9.8654 Y40.9058 F80.00
G01 X9.8733 Y40.9117 F80.00
G01 X9.8818 Y40.9168 F80.00
G01 X9.8907 Y40.9210 F80.00
G01 X9.8999 Y40.9243 F80.00
G01 X9.9095 Y40.9267 F80.00
G01 X9.9192 Y40.9281 F80.00
G01 X9.9291 Y40.9286 F80.00
G01 X9.9389 Y40.9281 F80.00
G01 X9.9487 Y40.9267 F80.00
G01 X9.9582 Y40.9243 F80.00
G01 X9.9675 Y40.9210 F80.00
G01 X9.9764 Y40.9168 F80.00
G01 X9.9848 Y40.9117 F80.00
G01 X9.9928 Y40.9058 F80.00
G01 X10.0001 Y40.8992 F80.00
G01 X10.0067 Y40.8919 F80.00
G01 X10.0125 Y40.8840 F80.00
G01 X10.0176 Y40.8756 F80.00
G01 X10.0218 Y40.8667 F80.00
G01 X10.0251 Y40.8574 F80.00
G01 X10.0275 Y40.8478 F80.00
G01 X10.0290 Y40.8381 F80.00
G01 X10.0295 Y40.8282 F80.00
G00 Z2.0000
G00 X7.4895 Y40.8282
G01 F60.00
G01 Z-0.1000
G01 F80.00
G01 X7.4890 Y40.8184 F80.00
G01 X7.4875 Y40.8087 F80.00
G01 X7.4851 Y40.7991 F80.00
G01 X7.4818 Y40.7898 F80.00
G01 X7.4776 Y40.7809 F80.00
G01 X7.4725 Y40.7725 F80.00
G01 X7.4667 Y40.7646 F80.00
G01 X7.4601 Y40.7573 F80.00
G01 X7.4528 Y40.7506 F80.00
G01 X7.4448 Y40.7448 F80.00
G01 X7.4364 Y40.7397 F80.00
G01 X7.4275 Y40.7355 F80.00
G01 X7.4182 Y40.7322 F80.00
G01 X7.4087 Y40.7298 F80.00
G01 X7.3989 Y40.7283 F80.00
G01 X7.3891 Y40.7279 F80.00
G01 X7.3792 Y40.7283 F80.00
G01 X7.3695 Y40.7298 F80.00
G01 X7.3599 Y40.7322 F80.00
G01 X7.3507 Y40.7355 F80.00
G01 X7.3418 Y40.7397 F80.00
G01 X7.3333 Y40.7448 F80.00
G01 X7.3254 Y40.7506 F80.00
G01 X7.3181 Y40.7573 F80.00
G01 X7.3115 Y40.7646 F80.00
G01 X7.3056 Y40.7725 F80.00
G01 X7.3006 Y40.7809 F80.00
G01 X7.2963 Y40.7898 F80.00
G01 X7.2930 Y40.7991 F80.00
G01 X7.2906 Y40.8087 F80.00
G01 X7.2892 Y40.8184 F80.00
G01 X7.2887 Y40.8282 F80.00
G01 X7.2892 Y40.8381 F80.00
G01 X7.2906 Y40.8478 F80.00
G01 X7.2930 Y40.8574 F80.00
G01 X7.2963 Y40.8667 F80.00
G01 X7.3006 Y40.8756 F80.00
G01 X7.3056 Y40.8840 F80.00
G01 X7.3115 Y40.8919 F80.00
G01 X7.3181 Y40.8992 F80.00
G01 X7.3254 Y40.9058 F80.00
G01 X7.3333 Y40.9117 F80.00
G01 X7.3418 Y40.9168 F80.00
G01 X7.3507 Y40.9210 F80.00
G01 X7.3599 Y40.9243 F80.00
G01 X7.3695 Y40.9267 F80.00
G01 X7.3792 Y40.9281 F80.00
G01 X7.3891 Y40.9286 F80.00
G01 X7.3989 Y40.9281 F80.00
G01 X7.4087 Y40.9267 F80.00
G01 X7.4182 Y40.9243 F80.00
G01 X7.4275 Y40.9210 F80.00
G01 X7.4364 Y40.9168 F80.00
G01 X7.4448 Y40.9117 F80.00
G01 X7.4528 Y40.9058 F80.00
G01 X7.4601 Y40.8992 F80.00
G01 X7.4667 Y40.8919 F80.00
G01 X7.4725 Y40.8840 F80.00
G01 X7.4776 Y40.8756 F80.00
G01 X7.4818 Y40.8667 F80.00
G01 X7.4851 Y40.8574 F80.00
G01 X7.4875 Y40.8478 F80.00
G01 X7.4890 Y40.8381 F80.00
G01 X7.4895 Y40.8282 F80.00
G00 Z2.0000
G00 X12.5695 Y40.8282
G01 F60.00
G01 Z-0.1000
G01 F80.00
G01 X12.5690 Y40.8184 F80.00
G01 X12.5675 Y40.8087 F80.00
G01 X12.5651 Y40.7991 F80.00
G01 X12.5618 Y40.7898 F80.00
G01 X12.5576 Y40.7809 F80.00
G01 X12.5525 Y40.7725 F80.00
G01 X12.5467 Y40.7646 F80.00
G01 X12.5401 Y40.7573 F80.00
G01 X12.5328 Y40.7506 F80.00
G01 X12.5248 Y40.7448 F80.00
G01 X12.5164 Y40.7397 F80.00
G01 X12.5075 Y40.7355 F80.00
G01 X12.4982 Y40.7322 F80.00
G01 X12.4887 Y40.7298 F80.00
G01 X12.4789 Y40.7283 F80.00
G01 X12.4691 Y40.7279 F80.00
G01 X12.4592 Y40.7283 F80.00
G01 X12.4495 Y40.7298 F80.00
G01 X12.4399 Y40.7322 F80.00
G01 X12.4307 Y40.7355 F80.00
G01 X12.4218 Y40.7397 F80.00
G01 X12.4133 Y40.7448 F80.00
G01 X12.4054 Y40.7506 F80.00
G01 X12.3981 Y40.7573 F80.00
G01 X12.3915 Y40.7646 F80.00
G01 X12.3856 Y40.7725 F80.00
G01 X12.3806 Y40.7809 F80.00
G01 X12.3763 Y40.7898 F80.00
G01 X12.3730 Y40.7991 F80.00
G01 X12.3706 Y40.8087 F80.00
G01 X12.3692 Y40.8184 F80.00
G01 X12.3687 Y40.8282 F80.00
G01 X12.3692 Y40.8381 F80.00
G01 X12.3706 Y40.8478 F80.00
G01 X12.3730 Y40.8574 F80.00
G01 X12.3763 Y40.8667 F80.00
G01 X12.3806 Y40.8756 F80.00
G01 X12.3856 Y40.8840 F80.00
G01 X12.3915 Y40.8919 F80.00
G01 X12.3981 Y40.8992 F80.00
G01 X12.4054 Y40.9058 F80.00
G01 X12.4133 Y40.9117 F80.00
G01 X12.4218 Y40.9168 F80.00
G01 X12.4307 Y40.9210 F80.00
G01 X12.4399 Y40.9243 F80.00
G01 X12.4495 Y40.9267 F80.00
G01 X12.4592 Y40.9281 F80.00
G01 X12.4691 Y40.9286 F80.00
G01 X12.4789 Y40.9281 F80.00
G01 X12.4887 Y40.9267 F80.00
G01 X12.4982 Y40.9243 F80.00
G01 X12.5075 Y40.9210 F80.00
G01 X12.5164 Y40.9168 F80.00
G01 X12.5248 Y40.9117 F80.00
G01 X12.5328 Y40.9058 F80.00
G01 X12.5401 Y40.8992 F80.00
G01 X12.5467 Y40.8919 F80.00
G01 X12.5525 Y40.8840 F80.00
G01 X12.5576 Y40.8756 F80.00
G01 X12.5618 Y40.8667 F80.00
G01 X12.5651 Y40.8574 F80.00
G01 X12.5675 Y40.8478 F80.00
G01 X12.5690 Y40.8381 F80.00
G01 X12.5695 Y40.8282 F80.00
G00 Z2.0000
G00 X15.1095 Y40.8282
G01 F60.00
G01 Z-0.1000
G01 F80.00
G01 X15.1090 Y40.8184 F80.00
G01 X15.1075 Y40.8087 F80.00
G01 X15.1051 Y40.7991 F80.00
G01 X15.1018 Y40.7898 F80.00
G01 X15.0976 Y40.7809 F80.00
G01 X15.0925 Y40.7725 F80.00
G01 X15.0867 Y40.7646 F80.00
G01 X15.0801 Y40.7573 F80.00
G01 X15.0728 Y40.7506 F80.00
G01 X15.0648 Y40.7448 F80.00
G01 X15.0564 Y40.7397 F80.00
G01 X15.0475 Y40.7355 F80.00
G01 X15.0382 Y40.7322 F80.00
G01 X15.0287 Y40.7298 F80.00
G01 X15.0189 Y40.7283 F80.00
G01 X15.0091 Y40.7279 F80.00
G01 X14.9992 Y40.7283 F80.00
G01 X14.9895 Y40.7298 F80.00
G01 X14.9799 Y40.7322 F80.00
G01 X14.9707 Y40.7355 F80.00
G01 X14.9618 Y40.7397 F80.00
G01 X14.9533 Y40.7448 F80.00
G01 X14.9454 Y40.7506 F80.00
G01 X14.9381 Y40.7573 F80.00
G01 X14.9315 Y40.7646 F80.00
G01 X14.9256 Y40.7725 F80.00
G01 X14.9206 Y40.7809 F80.00
G01 X14.9163 Y40.7898 F80.00
G01 X14.9130 Y40.7991 F80.00
G01 X14.9106 Y40.8087 F80.00
G01 X14.9092 Y40.8184 F80.00
G01 X14.9087 Y40.8282 F80.00
G01 X14.9092 Y40.8381 F80.00
G01 X14.9106 Y40.8478 F80.00
G01 X14.9130 Y40.8574 F80.00
G01 X14.9163 Y40.8667 F80.00
G01 X14.9206 Y40.8756 F80.00
G01 X14.9256 Y40.8840 F80.00
G01 X14.9315 Y40.8919 F80.00
G01 X14.9381 Y40.8992 F80.00
G01 X14.9454 Y40.9058 F80.00
G01 X14.9533 Y40.9117 F80.00
G01 X14.9618 Y40.9168 F80.00
G01 X14.9707 Y40.9210 F80.00
G01 X14.9799 Y40.9243 F80.00
G01 X14.9895 Y40.9267 F80.00
G01 X14.9992 Y40.9281 F80.00
G01 X15.0091 Y40.9286 F80.00
G01 X15.0189 Y40.9281 F80.00
G01 X15.0287 Y40.9267 F80.00
G01 X15.0382 Y40.9243 F80.00
G01 X15.0475 Y40.9210 F80.00
G01 X15.0564 Y40.9168 F80.00
G01 X15.0648 Y40.9117 F80.00
G01 X15.0728 Y40.9058 F80.00
G01 X15.0801 Y40.8992 F80.00
G01 X15.0867 Y40.8919 F80.00
G01 X15.0925 Y40.8840 F80.00
G01 X15.0976 Y40.8756 F80.00
G01 X15.1018 Y40.8667 F80.00
G01 X15.1051 Y40.8574 F80.00
G01 X15.1075 Y40.8478 F80.00
G01 X15.1090 Y40.8381 F80.00
G01 X15.1095 Y40.8282 F80.00
G00 Z2.0000
G00 X17.6495 Y40.8282
G01 F60.00
G01 Z-0.1000
G01 F80.00
G01 X17.6490 Y40.8184 F80.00
G01 X17.6475 Y40.8087 F80.00
G01 X17.6451 Y40.7991 F80.00
G01 X17.6418 Y40.7898 F80.00
G01 X17.6376 Y40.7809 F80.00
G01 X17.6325 Y40.7725 F80.00
G01 X17.6267 Y40.7646 F80.00
G01 X17.6201 Y40.7573 F80.00
G01 X17.6128 Y40.7506 F80.00
G01 X17.6048 Y40.7448 F80.00
G01 X17.5964 Y40.7397 F80.00
G01 X17.5875 Y40.7355 F80.00
G01 X17.5782 Y40.7322 F80.00
G01 X17.5687 Y40.7298 F80.00
G01 X17.5589 Y40.7283 F80.00
G01 X17.5491 Y40.7279 F80.00
G01 X17.5392 Y40.7283 F80.00
G01 X17.5295 Y40.7298 F80.00
G01 X17.5199 Y40.7322 F80.00
G01 X17.5107 Y40.7355 F80.00
G01 X17.5018 Y40.7397 F80.00
G01 X17.4933 Y40.7448 F80.00
G01 X17.4854 Y40.7506 F80.00
G01 X17.4781 Y40.7573 F80.00
G01 X17.4715 Y40.7646 F80.00
G01 X17.4656 Y40.7725 F80.00
G01 X17.4606 Y40.7809 F80.00
G01 X17.4563 Y40.7898 F80.00
G01 X17.4530 Y40.7991 F80.00
G01 X17.4506 Y40.8087 F80.00
G01 X17.4492 Y40.8184 F80.00
G01 X17.4487 Y40.8282 F80.00
G01 X17.4492 Y40.8381 F80.00
G01 X17.4506 Y40.8478 F80.00
G01 X17.4530 Y40.8574 F80.00
G01 X17.4563 Y40.8667 F80.00
G01 X17.4606 Y40.8756 F80.00
G01 X17.4656 Y40.8840 F80.00
G01 X17.4715 Y40.8919 F80.00
G01 X17.4781 Y40.8992 F80.00
G01 X17.4854 Y40.9058 F80.00
G01 X17.4933 Y40.9117 F80.00
G01 X17.5018 Y40.9168 F80.00
G01 X17.5107 Y40.9210 F80.00
G01 X17.5199 Y40.9243 F80.00
G01 X17.5295 Y40.9267 F80.00
G01 X17.5392 Y40.9281 F80.00
G01 X17.5491 Y40.9286 F80.00
G01 X17.5589 Y40.9281 F80.00
G01 X17.5687 Y40.9267 F80.00
G01 X17.5782 Y40.9243 F80.00
G01 X17.5875 Y40.9210 F80.00
G01 X17.5964 Y40.9168 F80.00
G01 X17.6048 Y40.9117 F80.00
G01 X17.6128 Y40.9058 F80.00
G01 X17.6201 Y40.8992 F80.00
G01 X17.6267 Y40.8919 F80.00
G01 X17.6325 Y40.8840 F80.00
G01 X17.6376 Y40.8756 F80.00
G01 X17.6418 Y40.8667 F80.00
G01 X17.6451 Y40.8574 F80.00
G01 X17.6475 Y40.8478 F80.00
G01 X17.6490 Y40.8381 F80.00
G01 X17.6495 Y40.8282 F80.00
G00 Z2.0000
G00 X20.1895 Y40.8282
G01 F60.00
G01 Z-0.1000
G01 F80.00
G01 X20.1890 Y40.8184 F80.00
G01 X20.1875 Y40.8087 F80.00
G01 X20.1851 Y40.7991 F80.00
G01 X20.1818 Y40.7898 F80.00
G01 X20.1776 Y40.7809 F80.00
G01 X20.1725 Y40.7725 F80.00
G01 X20.1667 Y40.7646 F80.00
G01 X20.1601 Y40.7573 F80.00
G01 X20.1528 Y40.7506 F80.00
G01 X20.1448 Y40.7448 F80.00
G01 X20.1364 Y40.7397 F80.00
G01 X20.1275 Y40.7355 F80.00
G01 X20.1182 Y40.7322 F80.00
G01 X20.1087 Y40.7298 F80.00
G01 X20.0989 Y40.7283 F80.00
G01 X20.0891 Y40.7279 F80.00
G01 X20.0792 Y40.7283 F80.00
G01 X20.0695 Y40.7298 F80.00
G01 X20.0599 Y40.7322 F80.00
G01 X20.0507 Y40.7355 F80.00
G01 X20.0418 Y40.7397 F80.00
G01 X20.0333 Y40.7448 F80.00
G01 X20.0254 Y40.7506 F80.00
G01 X20.0181 Y40.7573 F80.00
G01 X20.0115 Y40.7646 F80.00
G01 X20.0056 Y40.7725 F80.00
G01 X20.0006 Y40.7809 F80.00
G01 X19.9963 Y40.7898 F80.00
G01 X19.9930 Y40.7991 F80.00
G01 X19.9906 Y40.8087 F80.00
G01 X19.9892 Y40.8184 F80.00
G01 X19.9887 Y40.8282 F80.00
G01 X19.9892 Y40.8381 F80.00
G01 X19.9906 Y40.8478 F80.00
G01 X19.9930 Y40.8574 F80.00
G01 X19.9963 Y40.8667 F80.00
G01 X20.0006 Y40.8756 F80.00
G01 X20.0056 Y40.8840 F80.00
G01 X20.0115 Y40.8919 F80.00
G01 X20.0181 Y40.8992 F80.00
G01 X20.0254 Y40.9058 F80.00
G01 X20.0333 Y40.9117 F80.00
G01 X20.0418 Y40.9168 F80.00
G01 X20.0507 Y40.9210 F80.00
G01 X20.0599 Y40.9243 F80.00
G01 X20.0695 Y40.9267 F80.00
G01 X20.0792 Y40.9281 F80.00
G01 X20.0891 Y40.9286 F80.00
G01 X20.0989 Y40.9281 F80.00
G01 X20.1087 Y40.9267 F80.00
G01 X20.1182 Y40.9243 F80.00
G01 X20.1275 Y40.9210 F80.00
G01 X20.1364 Y40.9168 F80.00
G01 X20.1448 Y40.9117 F80.00
G01 X20.1528 Y40.9058 F80.00
G01 X20.1601 Y40.8992 F80.00
G01 X20.1667 Y40.8919 F80.00
G01 X20.1725 Y40.8840 F80.00
G01 X20.1776 Y40.8756 F80.00
G01 X20.1818 Y40.8667 F80.00
G01 X20.1851 Y40.8574 F80.00
G01 X20.1875 Y40.8478 F80.00
G01 X20.1890 Y40.8381 F80.00
G01 X20.1895 Y40.8282 F80.00
G00 Z2.0000
G00 X22.7295 Y40.8282
G01 F60.00
G01 Z-0.1000
G01 F80.00
G01 X22.7290 Y40.8184 F80.00
G01 X22.7275 Y40.8087 F80.00
G01 X22.7251 Y40.7991 F80.00
G01 X22.7218 Y40.7898 F80.00
G01 X22.7176 Y40.7809 F80.00
G01 X22.7125 Y40.7725 F80.00
G01 X22.7067 Y40.7646 F80.00
G01 X22.7001 Y40.7573 F80.00
G01 X22.6928 Y40.7506 F80.00
G01 X22.6848 Y40.7448 F80.00
G01 X22.6764 Y40.7397 F80.00
G01 X22.6675 Y40.7355 F80.00
G01 X22.6582 Y40.7322 F80.00
G01 X22.6487 Y40.7298 F80.00
G01 X22.6389 Y40.7283 F80.00
G01 X22.6291 Y40.7279 F80.00
G01 X22.6192 Y40.7283 F80.00
G01 X22.6095 Y40.7298 F80.00
G01 X22.5999 Y40.7322 F80.00
G01 X22.5907 Y40.7355 F80.00
G01 X22.5818 Y40.7397 F80.00
G01 X22.5733 Y40.7448 F80.00
G01 X22.5654 Y40.7506 F80.00
G01 X22.5581 Y40.7573 F80.00
G01 X22.5515 Y40.7646 F80.00
G01 X22.5456 Y40.7725 F80.00
G01 X22.5406 Y40.7809 F80.00
G01 X22.5363 Y40.7898 F80.00
G01 X22.5330 Y40.7991 F80.00
G01 X22.5306 Y40.8087 F80.00
G01 X22.5292 Y40.8184 F80.00
G01 X22.5287 Y40.8282 F80.00
G01 X22.5292 Y40.8381 F80.00
G01 X22.5306 Y40.8478 F80.00
G01 X22.5330 Y40.8574 F80.00
G01 X22.5363 Y40.8667 F80.00
G01 X22.5406 Y40.8756 F80.00
G01 X22.5456 Y40.8840 F80.00
G01 X22.5515 Y40.8919 F80.00
G01 X22.5581 Y40.8992 F80.00
G01 X22.5654 Y40.9058 F80.00
G01 X22.5733 Y40.9117 F80.00
G01 X22.5818 Y40.9168 F80.00
G01 X22.5907 Y40.9210 F80.00
G01 X22.5999 Y40.9243 F80.00
G01 X22.6095 Y40.9267 F80.00
G01 X22.6192 Y40.9281 F80.00
G01 X22.6291 Y40.9286 F80.00
G01 X22.6389 Y40.9281 F80.00
G01 X22.6487 Y40.9267 F80.00
G01 X22.6582 Y40.9243 F80.00
G01 X22.6675 Y40.9210 F80.00
G01 X22.6764 Y40.9168 F80.00
G01 X22.6848 Y40.9117 F80.00
G01 X22.6928 Y40.9058 F80.00
G01 X22.7001 Y40.8992 F80.00
G01 X22.7067 Y40.8919 F80.00
G01 X22.7125 Y40.8840 F80.00
G01 X22.7176 Y40.8756 F80.00
G01 X22.7218 Y40.8667 F80.00
G01 X22.7251 Y40.8574 F80.00
G01 X22.7275 Y40.8478 F80.00
G01 X22.7290 Y40.8381 F80.00
G01 X22.7295 Y40.8282 F80.00
G00 Z2.0000
G00 X25.2695 Y40.8282
G01 F60.00
G01 Z-0.1000
G01 F80.00
G01 X25.2690 Y40.8184 F80.00
G01 X25.2675 Y40.8087 F80.00
G01 X25.2651 Y40.7991 F80.00
G01 X25.2618 Y40.7898 F80.00
G01 X25.2576 Y40.7809 F80.00
G01 X25.2525 Y40.7725 F80.00
G01 X25.2467 Y40.7646 F80.00
G01 X25.2401 Y40.7573 F80.00
G01 X25.2328 Y40.7506 F80.00
G01 X25.2248 Y40.7448 F80.00
G01 X25.2164 Y40.7397 F80.00
G01 X25.2075 Y40.7355 F80.00
G01 X25.1982 Y40.7322 F80.00
G01 X25.1887 Y40.7298 F80.00
G01 X25.1789 Y40.7283 F80.00
G01 X25.1691 Y40.7279 F80.00
G01 X25.1592 Y40.7283 F80.00
G01 X25.1495 Y40.7298 F80.00
G01 X25.1399 Y40.7322 F80.00
G01 X25.1307 Y40.7355 F80.00
G01 X25.1218 Y40.7397 F80.00
G01 X25.1133 Y40.7448 F80.00
G01 X25.1054 Y40.7506 F80.00
G01 X25.0981 Y40.7573 F80.00
G01 X25.0915 Y40.7646 F80.00
G01 X25.0856 Y40.7725 F80.00
G01 X25.0806 Y40.7809 F80.00
G01 X25.0763 Y40.7898 F80.00
G01 X25.0730 Y40.7991 F80.00
G01 X25.0706 Y40.8087 F80.00
G01 X25.0692 Y40.8184 F80.00
G01 X25.0687 Y40.8282 F80.00
G01 X25.0692 Y40.8381 F80.00
G01 X25.0706 Y40.8478 F80.00
G01 X25.0730 Y40.8574 F80.00
G01 X25.0763 Y40.8667 F80.00
G01 X25.0806 Y40.8756 F80.00
G01 X25.0856 Y40.8840 F80.00
G01 X25.0915 Y40.8919 F80.00
G01 X25.0981 Y40.8992 F80.00
G01 X25.1054 Y40.9058 F80.00
G01 X25.1133 Y40.9117 F80.00
G01 X25.1218 Y40.9168 F80.00
G01 X25.1307 Y40.9210 F80.00
G01 X25.1399 Y40.9243 F80.00
G01 X25.1495 Y40.9267 F80.00
G01 X25.1592 Y40.9281 F80.00
G01 X25.1691 Y40.9286 F80.00
G01 X25.1789 Y40.9281 F80.00
G01 X25.1887 Y40.9267 F80.00
G01 X25.1982 Y40.9243 F80.00
G01 X25.2075 Y40.9210 F80.00
G01 X25.2164 Y40.9168 F80.00
G01 X25.2248 Y40.9117 F80.00
G01 X25.2328 Y40.9058 F80.00
G01 X25.2401 Y40.8992 F80.00
G01 X25.2467 Y40.8919 F80.00
G01 X25.2525 Y40.8840 F80.00
G01 X25.2576 Y40.8756 F80.00
G01 X25.2618 Y40.8667 F80.00
G01 X25.2651 Y40.8574 F80.00
G01 X25.2675 Y40.8478 F80.00
G01 X25.2690 Y40.8381 F80.00
G01 X25.2695 Y40.8282 F80.00
G00 Z2.0000
G00 X27.8095 Y40.8282
G01 F60.00
G01 Z-0.1000
G01 F80.00
G01 X27.8090 Y40.8184 F80.00
G01 X27.8075 Y40.8087 F80.00
G01 X27.8051 Y40.7991 F80.00
G01 X27.8018 Y40.7898 F80.00
G01 X27.7976 Y40.7809 F80.00
G01 X27.7925 Y40.7725 F80.00
G01 X27.7867 Y40.7646 F80.00
G01 X27.7801 Y40.7573 F80.00
G01 X27.7728 Y40.7506 F80.00
G01 X27.7648 Y40.7448 F80.00
G01 X27.7564 Y40.7397 F80.00
G01 X27.7475 Y40.7355 F80.00
G01 X27.7382 Y40.7322 F80.00
G01 X27.7287 Y40.7298 F80.00
G01 X27.7189 Y40.7283 F80.00
G01 X27.7091 Y40.7279 F80.00
G01 X27.6992 Y40.7283 F80.00
G01 X27.6895 Y40.7298 F80.00
G01 X27.6799 Y40.7322 F80.00
G01 X27.6707 Y40.7355 F80.00
G01 X27.6618 Y40.7397 F80.00
G01 X27.6533 Y40.7448 F80.00
G01 X27.6454 Y40.7506 F80.00
G01 X27.6381 Y40.7573 F80.00
G01 X27.6315 Y40.7646 F80.00
G01 X27.6256 Y40.7725 F80.00
G01 X27.6206 Y40.7809 F80.00
G01 X27.6163 Y40.7898 F80.00
G01 X27.6130 Y40.7991 F80.00
G01 X27.6106 Y40.8087 F80.00
G01 X27.6092 Y40.8184 F80.00
G01 X27.6087 Y40.8282 F80.00
G01 X27.6092 Y40.8381 F80.00
G01 X27.6106 Y40.8478 F80.00
G01 X27.6130 Y40.8574 F80.00
G01 X27.6163 Y40.8667 F80.00
G01 X27.6206 Y40.8756 F80.00
G01 X27.6256 Y40.8840 F80.00
G01 X27.6315 Y40.8919 F80.00
G01 X27.6381 Y40.8992 F80.00
G01 X27.6454 Y40.9058 F80.00
G01 X27.6533 Y40.9117 F80.00
G01 X27.6618 Y40.9168 F80.00
G01 X27.6707 Y40.9210 F80.00
G01 X27.6799 Y40.9243 F80.00
G01 X27.6895 Y40.9267 F80.00
G01 X27.6992 Y40.9281 F80.00
G01 X27.7091 Y40.9286 F80.00
G01 X27.7189 Y40.9281 F80.00
G01 X27.7287 Y40.9267 F80.00
G01 X27.7382 Y40.9243 F80.00
G01 X27.7475 Y40.9210 F80.00
G01 X27.7564 Y40.9168 F80.00
G01 X27.7648 Y40.9117 F80.00
G01 X27.7728 Y40.9058 F80.00
G01 X27.7801 Y40.8992 F80.00
G01 X27.7867 Y40.8919 F80.00
G01 X27.7925 Y40.8840 F80.00
G01 X27.7976 Y40.8756 F80.00
G01 X27.8018 Y40.8667 F80.00
G01 X27.8051 Y40.8574 F80.00
G01 X27.8075 Y40.8478 F80.00
G01 X27.8090 Y40.8381 F80.00
G01 X27.8095 Y40.8282 F80.00
G00 Z2.0000
G00 X30.3495 Y40.8282
G01 F60.00
G01 Z-0.1000
G01 F80.00
G01 X30.3490 Y40.8184 F80.00
G01 X30.3475 Y40.8087 F80.00
G01 X30.3451 Y40.7991 F80.00
G01 X30.3418 Y40.7898 F80.00
G01 X30.3376 Y40.7809 F80.00
G01 X30.3325 Y40.7725 F80.00
G01 X30.3267 Y40.7646 F80.00
G01 X30.3201 Y40.7573 F80.00
G01 X30.3128 Y40.7506 F80.00
G01 X30.3048 Y40.7448 F80.00
G01 X30.2964 Y40.7397 F80.00
G01 X30.2875 Y40.7355 F80.00
G01 X30.2782 Y40.7322 F80.00
G01 X30.2687 Y40.7298 F80.00
G01 X30.2589 Y40.7283 F80.00
G01 X30.2491 Y40.7279 F80.00
G01 X30.2392 Y40.7283 F80.00
G01 X30.2295 Y40.7298 F80.00
G01 X30.2199 Y40.7322 F80.00
G01 X30.2107 Y40.7355 F80.00
G01 X30.2018 Y40.7397 F80.00
G01 X30.1933 Y40.7448 F80.00
G01 X30.1854 Y40.7506 F80.00
G01 X30.1781 Y40.7573 F80.00
G01 X30.1715 Y40.7646 F80.00
G01 X30.1656 Y40.7725 F80.00
G01 X30.1606 Y40.7809 F80.00
G01 X30.1563 Y40.7898 F80.00
G01 X30.1530 Y40.7991 F80.00
G01 X30.1506 Y40.8087 F80.00
G01 X30.1492 Y40.8184 F80.00
G01 X30.1487 Y40.8282 F80.00
G01 X30.1492 Y40.8381 F80.00
G01 X30.1506 Y40.8478 F80.00
G01 X30.1530 Y40.8574 F80.00
G01 X30.1563 Y40.8667 F80.00
G01 X30.1606 Y40.8756 F80.00
G01 X30.1656 Y40.8840 F80.00
G01 X30.1715 Y40.8919 F80.00
G01 X30.1781 Y40.8992 F80.00
G01 X30.1854 Y40.9058 F80.00
G01 X30.1933 Y40.9117 F80.00
G01 X30.2018 Y40.9168 F80.00
G01 X30.2107 Y40.9210 F80.00
G01 X30.2199 Y40.9243 F80.00
G01 X30.2295 Y40.9267 F80.00
G01 X30.2392 Y40.9281 F80.00
G01 X30.2491 Y40.9286 F80.00
G01 X30.2589 Y40.9281 F80.00
G01 X30.2687 Y40.9267 F80.00
G01 X30.2782 Y40.9243 F80.00
G01 X30.2875 Y40.9210 F80.00
G01 X30.2964 Y40.9168 F80.00
G01 X30.3048 Y40.9117 F80.00
G01 X30.3128 Y40.9058 F80.00
G01 X30.3201 Y40.8992 F80.00
G01 X30.3267 Y40.8919 F80.00
G01 X30.3325 Y40.8840 F80.00
G01 X30.3376 Y40.8756 F80.00
G01 X30.3418 Y40.8667 F80.00
G01 X30.3451 Y40.8574 F80.00
G01 X30.3475 Y40.8478 F80.00
G01 X30.3490 Y40.8381 F80.00
G01 X30.3495 Y40.8282 F80.00
G00 Z2.0000
G00 X32.8895 Y40.8282
G01 F60.00
G01 Z-0.1000
G01 F80.00
G01 X32.8890 Y40.8184 F80.00
G01 X32.8875 Y40.8087 F80.00
G01 X32.8851 Y40.7991 F80.00
G01 X32.8818 Y40.7898 F80.00
G01 X32.8776 Y40.7809 F80.00
G01 X32.8725 Y40.7725 F80.00
G01 X32.8667 Y40.7646 F80.00
G01 X32.8601 Y40.7573 F80.00
G01 X32.8528 Y40.7506 F80.00
G01 X32.8448 Y40.7448 F80.00
G01 X32.8364 Y40.7397 F80.00
G01 X32.8275 Y40.7355 F80.00
G01 X32.8182 Y40.7322 F80.00
G01 X32.8087 Y40.7298 F80.00
G01 X32.7989 Y40.7283 F80.00
G01 X32.7891 Y40.7279 F80.00
G01 X32.7792 Y40.7283 F80.00
G01 X32.7695 Y40.7298 F80.00
G01 X32.7599 Y40.7322 F80.00
G01 X32.7507 Y40.7355 F80.00
G01 X32.7418 Y40.7397 F80.00
G01 X32.7333 Y40.7448 F80.00
G01 X32.7254 Y40.7506 F80.00
G01 X32.7181 Y40.7573 F80.00
G01 X32.7115 Y40.7646 F80.00
G01 X32.7056 Y40.7725 F80.00
G01 X32.7006 Y40.7809 F80.00
G01 X32.6963 Y40.7898 F80.00
G01 X32.6930 Y40.7991 F80.00
G01 X32.6906 Y40.8087 F80.00
G01 X32.6892 Y40.8184 F80.00
G01 X32.6887 Y40.8282 F80.00
G01 X32.6892 Y40.8381 F80.00
G01 X32.6906 Y40.8478 F80.00
G01 X32.6930 Y40.8574 F80.00
G01 X32.6963 Y40.8667 F80.00
G01 X32.7006 Y40.8756 F80.00
G01 X32.7056 Y40.8840 F80.00
G01 X32.7115 Y40.8919 F80.00
G01 X32.7181 Y40.8992 F80.00
G01 X32.7254 Y40.9058 F80.00
G01 X32.7333 Y40.9117 F80.00
G01 X32.7418 Y40.9168 F80.00
G01 X32.7507 Y40.9210 F80.00
G01 X32.7599 Y40.9243 F80.00
G01 X32.7695 Y40.9267 F80.00
G01 X32.7792 Y40.9281 F80.00
G01 X32.7891 Y40.9286 F80.00
G01 X32.7989 Y40.9281 F80.00
G01 X32.8087 Y40.9267 F80.00
G01 X32.8182 Y40.9243 F80.00
G01 X32.8275 Y40.9210 F80.00
G01 X32.8364 Y40.9168 F80.00
G01 X32.8448 Y40.9117 F80.00
G01 X32.8528 Y40.9058 F80.00
G01 X32.8601 Y40.8992 F80.00
G01 X32.8667 Y40.8919 F80.00
G01 X32.8725 Y40.8840 F80.00
G01 X32.8776 Y40.8756 F80.00
G01 X32.8818 Y40.8667 F80.00
G01 X32.8851 Y40.8574 F80.00
G01 X32.8875 Y40.8478 F80.00
G01 X32.8890 Y40.8381 F80.00
G01 X32.8895 Y40.8282 F80.00
G00 Z2.0000
G00 X35.4295 Y40.8282
G01 F60.00
G01 Z-0.1000
G01 F80.00
G01 X35.4290 Y40.8184 F80.00
G01 X35.4275 Y40.8087 F80.00
G01 X35.4251 Y40.7991 F80.00
G01 X35.4218 Y40.7898 F80.00
G01 X35.4176 Y40.7809 F80.00
G01 X35.4125 Y40.7725 F80.00
G01 X35.4067 Y40.7646 F80.00
G01 X35.4001 Y40.7573 F80.00
G01 X35.3928 Y40.7506 F80.00
G01 X35.3848 Y40.7448 F80.00
G01 X35.3764 Y40.7397 F80.00
G01 X35.3675 Y40.7355 F80.00
G01 X35.3582 Y40.7322 F80.00
G01 X35.3487 Y40.7298 F80.00
G01 X35.3389 Y40.7283 F80.00
G01 X35.3291 Y40.7279 F80.00
G01 X35.3192 Y40.7283 F80.00
G01 X35.3095 Y40.7298 F80.00
G01 X35.2999 Y40.7322 F80.00
G01 X35.2907 Y40.7355 F80.00
G01 X35.2818 Y40.7397 F80.00
G01 X35.2733 Y40.7448 F80.00
G01 X35.2654 Y40.7506 F80.00
G01 X35.2581 Y40.7573 F80.00
G01 X35.2515 Y40.7646 F80.00
G01 X35.2456 Y40.7725 F80.00
G01 X35.2406 Y40.7809 F80.00
G01 X35.2363 Y40.7898 F80.00
G01 X35.2330 Y40.7991 F80.00
G01 X35.2306 Y40.8087 F80.00
G01 X35.2292 Y40.8184 F80.00
G01 X35.2287 Y40.8282 F80.00
G01 X35.2292 Y40.8381 F80.00
G01 X35.2306 Y40.8478 F80.00
G01 X35.2330 Y40.8574 F80.00
G01 X35.2363 Y40.8667 F80.00
G01 X35.2406 Y40.8756 F80.00
G01 X35.2456 Y40.8840 F80.00
G01 X35.2515 Y40.8919 F80.00
G01 X35.2581 Y40.8992 F80.00
G01 X35.2654 Y40.9058 F80.00
G01 X35.2733 Y40.9117 F80.00
G01 X35.2818 Y40.9168 F80.00
G01 X35.2907 Y40.9210 F80.00
G01 X35.2999 Y40.9243 F80.00
G01 X35.3095 Y40.9267 F80.00
G01 X35.3192 Y40.9281 F80.00
G01 X35.3291 Y40.9286 F80.00
G01 X35.3389 Y40.9281 F80.00
G01 X35.3487 Y40.9267 F80.00
G01 X35.3582 Y40.9243 F80.00
G01 X35.3675 Y40.9210 F80.00
G01 X35.3764 Y40.9168 F80.00
G01 X35.3848 Y40.9117 F80.00
G01 X35.3928 Y40.9058 F80.00
G01 X35.4001 Y40.8992 F80.00
G01 X35.4067 Y40.8919 F80.00
G01 X35.4125 Y40.8840 F80.00
G01 X35.4176 Y40.8756 F80.00
G01 X35.4218 Y40.8667 F80.00
G01 X35.4251 Y40.8574 F80.00
G01 X35.4275 Y40.8478 F80.00
G01 X35.4290 Y40.8381 F80.00
G01 X35.4295 Y40.8282 F80.00
G00 Z2.0000
G00 X37.9695 Y40.8282
G01 F60.00
G01 Z-0.1000
G01 F80.00
G01 X37.9690 Y40.8184 F80.00
G01 X37.9675 Y40.8087 F80.00
G01 X37.9651 Y40.7991 F80.00
G01 X37.9618 Y40.7898 F80.00
G01 X37.9576 Y40.7809 F80.00
G01 X37.9525 Y40.7725 F80.00
G01 X37.9467 Y40.7646 F80.00
G01 X37.9401 Y40.7573 F80.00
G01 X37.9328 Y40.7506 F80.00
G01 X37.9248 Y40.7448 F80.00
G01 X37.9164 Y40.7397 F80.00
G01 X37.9075 Y40.7355 F80.00
G01 X37.8982 Y40.7322 F80.00
G01 X37.8887 Y40.7298 F80.00
G01 X37.8789 Y40.7283 F80.00
G01 X37.8691 Y40.7279 F80.00
G01 X37.8592 Y40.7283 F80.00
G01 X37.8495 Y40.7298 F80.00
G01 X37.8399 Y40.7322 F80.00
G01 X37.8307 Y40.7355 F80.00
G01 X37.8218 Y40.7397 F80.00
G01 X37.8133 Y40.7448 F80.00
G01 X37.8054 Y40.7506 F80.00
G01 X37.7981 Y40.7573 F80.00
G01 X37.7915 Y40.7646 F80.00
G01 X37.7856 Y40.7725 F80.00
G01 X37.7806 Y40.7809 F80.00
G01 X37.7763 Y40.7898 F80.00
G01 X37.7730 Y40.7991 F80.00
G01 X37.7706 Y40.8087 F80.00
G01 X37.7692 Y40.8184 F80.00
G01 X37.7687 Y40.8282 F80.00
G01 X37.7692 Y40.8381 F80.00
G01 X37.7706 Y40.8478 F80.00
G01 X37.7730 Y40.8574 F80.00
G01 X37.7763 Y40.8667 F80.00
G01 X37.7806 Y40.8756 F80.00
G01 X37.7856 Y40.8840 F80.00
G01 X37.7915 Y40.8919 F80.00
G01 X37.7981 Y40.8992 F80.00
G01 X37.8054 Y40.9058 F80.00
G01 X37.8133 Y40.9117 F80.00
G01 X37.8218 Y40.9168 F80.00
G01 X37.8307 Y40.9210 F80.00
G01 X37.8399 Y40.9243 F80.00
G01 X37.8495 Y40.9267 F80.00
G01 X37.8592 Y40.9281 F80.00
G01 X37.8691 Y40.9286 F80.00
G01 X37.8789 Y40.9281 F80.00
G01 X37.8887 Y40.9267 F80.00
G01 X37.8982 Y40.9243 F80.00
G01 X37.9075 Y40.9210 F80.00
G01 X37.9164 Y40.9168 F80.00
G01 X37.9248 Y40.9117 F80.00
G01 X37.9328 Y40.9058 F80.00
G01 X37.9401 Y40.8992 F80.00
G01 X37.9467 Y40.8919 F80.00
G01 X37.9525 Y40.8840 F80.00
G01 X37.9576 Y40.8756 F80.00
G01 X37.9618 Y40.8667 F80.00
G01 X37.9651 Y40.8574 F80.00
G01 X37.9675 Y40.8478 F80.00
G01 X37.9690 Y40.8381 F80.00
G01 X37.9695 Y40.8282 F80.00
G00 Z2.0000
G00 X40.5095 Y40.8282
G01 F60.00
G01 Z-0.1000
G01 F80.00
G01 X40.5090 Y40.8184 F80.00
G01 X40.5075 Y40.8087 F80.00
G01 X40.5051 Y40.7991 F80.00
G01 X40.5018 Y40.7898 F80.00
G01 X40.4976 Y40.7809 F80.00
G01 X40.4925 Y40.7725 F80.00
G01 X40.4867 Y40.7646 F80.00
G01 X40.4801 Y40.7573 F80.00
G01 X40.4728 Y40.7506 F80.00
G01 X40.4648 Y40.7448 F80.00
G01 X40.4564 Y40.7397 F80.00
G01 X40.4475 Y40.7355 F80.00
G01 X40.4382 Y40.7322 F80.00
G01 X40.4287 Y40.7298 F80.00
G01 X40.4189 Y40.7283 F80.00
G01 X40.4091 Y40.7279 F80.00
G01 X40.3992 Y40.7283 F80.00
G01 X40.3895 Y40.7298 F80.00
G01 X40.3799 Y40.7322 F80.00
G01 X40.3707 Y40.7355 F80.00
G01 X40.3618 Y40.7397 F80.00
G01 X40.3533 Y40.7448 F80.00
G01 X40.3454 Y40.7506 F80.00
G01 X40.3381 Y40.7573 F80.00
G01 X40.3315 Y40.7646 F80.00
G01 X40.3256 Y40.7725 F80.00
G01 X40.3206 Y40.7809 F80.00
G01 X40.3163 Y40.7898 F80.00
G01 X40.3130 Y40.7991 F80.00
G01 X40.3106 Y40.8087 F80.00
G01 X40.3092 Y40.8184 F80.00
G01 X40.3087 Y40.8282 F80.00
G01 X40.3092 Y40.8381 F80.00
G01 X40.3106 Y40.8478 F80.00
G01 X40.3130 Y40.8574 F80.00
G01 X40.3163 Y40.8667 F80.00
G01 X40.3206 Y40.8756 F80.00
G01 X40.3256 Y40.8840 F80.00
G01 X40.3315 Y40.8919 F80.00
G01 X40.3381 Y40.8992 F80.00
G01 X40.3454 Y40.9058 F80.00
G01 X40.3533 Y40.9117 F80.00
G01 X40.3618 Y40.9168 F80.00
G01 X40.3707 Y40.9210 F80.00
G01 X40.3799 Y40.9243 F80.00
G01 X40.3895 Y40.9267 F80.00
G01 X40.3992 Y40.9281 F80.00
G01 X40.4091 Y40.9286 F80.00
G01 X40.4189 Y40.9281 F80.00
G01 X40.4287 Y40.9267 F80.00
G01 X40.4382 Y40.9243 F80.00
G01 X40.4475 Y40.9210 F80.00
G01 X40.4564 Y40.9168 F80.00
G01 X40.4648 Y40.9117 F80.00
G01 X40.4728 Y40.9058 F80.00
G01 X40.4801 Y40.8992 F80.00
G01 X40.4867 Y40.8919 F80.00
G01 X40.4925 Y40.8840 F80.00
G01 X40.4976 Y40.8756 F80.00
G01 X40.5018 Y40.8667 F80.00
G01 X40.5051 Y40.8574 F80.00
G01 X40.5075 Y40.8478 F80.00
G01 X40.5090 Y40.8381 F80.00
G01 X40.5095 Y40.8282 F80.00
G00 Z2.0000
G00 X43.0495 Y40.8282
G01 F60.00
G01 Z-0.1000
G01 F80.00
G01 X43.0490 Y40.8184 F80.00
G01 X43.0475 Y40.8087 F80.00
G01 X43.0451 Y40.7991 F80.00
G01 X43.0418 Y40.7898 F80.00
G01 X43.0376 Y40.7809 F80.00
G01 X43.0325 Y40.7725 F80.00
G01 X43.0267 Y40.7646 F80.00
G01 X43.0201 Y40.7573 F80.00
G01 X43.0128 Y40.7506 F80.00
G01 X43.0048 Y40.7448 F80.00
G01 X42.9964 Y40.7397 F80.00
G01 X42.9875 Y40.7355 F80.00
G01 X42.9782 Y40.7322 F80.00
G01 X42.9687 Y40.7298 F80.00
G01 X42.9589 Y40.7283 F80.00
G01 X42.9491 Y40.7279 F80.00
G01 X42.9392 Y40.7283 F80.00
G01 X42.9295 Y40.7298 F80.00
G01 X42.9199 Y40.7322 F80.00
G01 X42.9107 Y40.7355 F80.00
G01 X42.9018 Y40.7397 F80.00
G01 X42.8933 Y40.7448 F80.00
G01 X42.8854 Y40.7506 F80.00
G01 X42.8781 Y40.7573 F80.00
G01 X42.8715 Y40.7646 F80.00
G01 X42.8656 Y40.7725 F80.00
G01 X42.8606 Y40.7809 F80.00
G01 X42.8563 Y40.7898 F80.00
G01 X42.8530 Y40.7991 F80.00
G01 X42.8506 Y40.8087 F80.00
G01 X42.8492 Y40.8184 F80.00
G01 X42.8487 Y40.8282 F80.00
G01 X42.8492 Y40.8381 F80.00
G01 X42.8506 Y40.8478 F80.00
G01 X42.8530 Y40.8574 F80.00
G01 X42.8563 Y40.8667 F80.00
G01 X42.8606 Y40.8756 F80.00
G01 X42.8656 Y40.8840 F80.00
G01 X42.8715 Y40.8919 F80.00
G01 X42.8781 Y40.8992 F80.00
G01 X42.8854 Y40.9058 F80.00
G01 X42.8933 Y40.9117 F80.00
G01 X42.9018 Y40.9168 F80.00
G01 X42.9107 Y40.9210 F80.00
G01 X42.9199 Y40.9243 F80.00
G01 X42.9295 Y40.9267 F80.00
G01 X42.9392 Y40.9281 F80.00
G01 X42.9491 Y40.9286 F80.00
G01 X42.9589 Y40.9281 F80.00
G01 X42.9687 Y40.9267 F80.00
G01 X42.9782 Y40.9243 F80.00
G01 X42.9875 Y40.9210 F80.00
G01 X42.9964 Y40.9168 F80.00
G01 X43.0048 Y40.9117 F80.00
G01 X43.0128 Y40.9058 F80.00
G01 X43.0201 Y40.8992 F80.00
G01 X43.0267 Y40.8919 F80.00
G01 X43.0325 Y40.8840 F80.00
G01 X43.0376 Y40.8756 F80.00
G01 X43.0418 Y40.8667 F80.00
G01 X43.0451 Y40.8574 F80.00
G01 X43.0475 Y40.8478 F80.00
G01 X43.0490 Y40.8381 F80.00
G01 X43.0495 Y40.8282 F80.00
G00 Z2.0000
G00 X45.5895 Y40.8282
G01 F60.00
G01 Z-0.1000
G01 F80.00
G01 X45.5890 Y40.8184 F80.00
G01 X45.5875 Y40.8087 F80.00
G01 X45.5851 Y40.7991 F80.00
G01 X45.5818 Y40.7898 F80.00
G01 X45.5776 Y40.7809 F80.00
G01 X45.5725 Y40.7725 F80.00
G01 X45.5667 Y40.7646 F80.00
G01 X45.5601 Y40.7573 F80.00
G01 X45.5528 Y40.7506 F80.00
G01 X45.5448 Y40.7448 F80.00
G01 X45.5364 Y40.7397 F80.00
G01 X45.5275 Y40.7355 F80.00
G01 X45.5182 Y40.7322 F80.00
G01 X45.5087 Y40.7298 F80.00
G01 X45.4989 Y40.7283 F80.00
G01 X45.4891 Y40.7279 F80.00
G01 X45.4792 Y40.7283 F80.00
G01 X45.4695 Y40.7298 F80.00
G01 X45.4599 Y40.7322 F80.00
G01 X45.4507 Y40.7355 F80.00
G01 X45.4418 Y40.7397 F80.00
G01 X45.4333 Y40.7448 F80.00
G01 X45.4254 Y40.7506 F80.00
G01 X45.4181 Y40.7573 F80.00
G01 X45.4115 Y40.7646 F80.00
G01 X45.4056 Y40.7725 F80.00
G01 X45.4006 Y40.7809 F80.00
G01 X45.3963 Y40.7898 F80.00
G01 X45.3930 Y40.7991 F80.00
G01 X45.3906 Y40.8087 F80.00
G01 X45.3892 Y40.8184 F80.00
G01 X45.3887 Y40.8282 F80.00
G01 X45.3892 Y40.8381 F80.00
G01 X45.3906 Y40.8478 F80.00
G01 X45.3930 Y40.8574 F80.00
G01 X45.3963 Y40.8667 F80.00
G01 X45.4006 Y40.8756 F80.00
G01 X45.4056 Y40.8840 F80.00
G01 X45.4115 Y40.8919 F80.00
G01 X45.4181 Y40.8992 F80.00
G01 X45.4254 Y40.9058 F80.00
G01 X45.4333 Y40.9117 F80.00
G01 X45.4418 Y40.9168 F80.00
G01 X45.4507 Y40.9210 F80.00
G01 X45.4599 Y40.9243 F80.00
G01 X45.4695 Y40.9267 F80.00
G01 X45.4792 Y40.9281 F80.00
G01 X45.4891 Y40.9286 F80.00
G01 X45.4989 Y40.9281 F80.00
G01 X45.5087 Y40.9267 F80.00
G01 X45.5182 Y40.9243 F80.00
G01 X45.5275 Y40.9210 F80.00
G01 X45.5364 Y40.9168 F80.00
G01 X45.5448 Y40.9117 F80.00
G01 X45.5528 Y40.9058 F80.00
G01 X45.5601 Y40.8992 F80.00
G01 X45.5667 Y40.8919 F80.00
G01 X45.5725 Y40.8840 F80.00
G01 X45.5776 Y40.8756 F80.00
G01 X45.5818 Y40.8667 F80.00
G01 X45.5851 Y40.8574 F80.00
G01 X45.5875 Y40.8478 F80.00
G01 X45.5890 Y40.8381 F80.00
G01 X45.5895 Y40.8282 F80.00
G00 Z2.0000
G00 X48.1295 Y40.8282
G01 F60.00
G01 Z-0.1000
G01 F80.00
G01 X48.1290 Y40.8184 F80.00
G01 X48.1275 Y40.8087 F80.00
G01 X48.1251 Y40.7991 F80.00
G01 X48.1218 Y40.7898 F80.00
G01 X48.1176 Y40.7809 F80.00
G01 X48.1125 Y40.7725 F80.00
G01 X48.1067 Y40.7646 F80.00
G01 X48.1001 Y40.7573 F80.00
G01 X48.0928 Y40.7506 F80.00
G01 X48.0848 Y40.7448 F80.00
G01 X48.0764 Y40.7397 F80.00
G01 X48.0675 Y40.7355 F80.00
G01 X48.0582 Y40.7322 F80.00
G01 X48.0487 Y40.7298 F80.00
G01 X48.0389 Y40.7283 F80.00
G01 X48.0291 Y40.7279 F80.00
G01 X48.0192 Y40.7283 F80.00
G01 X48.0095 Y40.7298 F80.00
G01 X47.9999 Y40.7322 F80.00
G01 X47.9907 Y40.7355 F80.00
G01 X47.9818 Y40.7397 F80.00
G01 X47.9733 Y40.7448 F80.00
G01 X47.9654 Y40.7506 F80.00
G01 X47.9581 Y40.7573 F80.00
G01 X47.9515 Y40.7646 F80.00
G01 X47.9456 Y40.7725 F80.00
G01 X47.9406 Y40.7809 F80.00
G01 X47.9363 Y40.7898 F80.00
G01 X47.9330 Y40.7991 F80.00
G01 X47.9306 Y40.8087 F80.00
G01 X47.9292 Y40.8184 F80.00
G01 X47.9287 Y40.8282 F80.00
G01 X47.9292 Y40.8381 F80.00
G01 X47.9306 Y40.8478 F80.00
G01 X47.9330 Y40.8574 F80.00
G01 X47.9363 Y40.8667 F80.00
G01 X47.9406 Y40.8756 F80.00
G01 X47.9456 Y40.8840 F80.00
G01 X47.9515 Y40.8919 F80.00
G01 X47.9581 Y40.8992 F80.00
G01 X47.9654 Y40.9058 F80.00
G01 X47.9733 Y40.9117 F80.00
G01 X47.9818 Y40.9168 F80.00
G01 X47.9907 Y40.9210 F80.00
G01 X47.9999 Y40.9243 F80.00
G01 X48.0095 Y40.9267 F80.00
G01 X48.0192 Y40.9281 F80.00
G01 X48.0291 Y40.9286 F80.00
G01 X48.0389 Y40.9281 F80.00
G01 X48.0487 Y40.9267 F80.00
G01 X48.0582 Y40.9243 F80.00
G01 X48.0675 Y40.9210 F80.00
G01 X48.0764 Y40.9168 F80.00
G01 X48.0848 Y40.9117 F80.00
G01 X48.0928 Y40.9058 F80.00
G01 X48.1001 Y40.8992 F80.00
G01 X48.1067 Y40.8919 F80.00
G01 X48.1125 Y40.8840 F80.00
G01 X48.1176 Y40.8756 F80.00
G01 X48.1218 Y40.8667 F80.00
G01 X48.1251 Y40.8574 F80.00
G01 X48.1275 Y40.8478 F80.00
G01 X48.1290 Y40.8381 F80.00
G01 X48.1295 Y40.8282 F80.00
G00 Z2.0000
G00 X50.6695 Y40.8282
G01 F60.00
G01 Z-0.1000
G01 F80.00
G01 X50.6690 Y40.8184 F80.00
G01 X50.6675 Y40.8087 F80.00
G01 X50.6651 Y40.7991 F80.00
G01 X50.6618 Y40.7898 F80.00
G01 X50.6576 Y40.7809 F80.00
G01 X50.6525 Y40.7725 F80.00
G01 X50.6467 Y40.7646 F80.00
G01 X50.6401 Y40.7573 F80.00
G01 X50.6328 Y40.7506 F80.00
G01 X50.6248 Y40.7448 F80.00
G01 X50.6164 Y40.7397 F80.00
G01 X50.6075 Y40.7355 F80.00
G01 X50.5982 Y40.7322 F80.00
G01 X50.5887 Y40.7298 F80.00
G01 X50.5789 Y40.7283 F80.00
G01 X50.5691 Y40.7279 F80.00
G01 X50.5592 Y40.7283 F80.00
G01 X50.5495 Y40.7298 F80.00
G01 X50.5399 Y40.7322 F80.00
G01 X50.5307 Y40.7355 F80.00
G01 X50.5218 Y40.7397 F80.00
G01 X50.5133 Y40.7448 F80.00
G01 X50.5054 Y40.7506 F80.00
G01 X50.4981 Y40.7573 F80.00
G01 X50.4915 Y40.7646 F80.00
G01 X50.4856 Y40.7725 F80.00
G01 X50.4806 Y40.7809 F80.00
G01 X50.4763 Y40.7898 F80.00
G01 X50.4730 Y40.7991 F80.00
G01 X50.4706 Y40.8087 F80.00
G01 X50.4692 Y40.8184 F80.00
G01 X50.4687 Y40.8282 F80.00
G01 X50.4692 Y40.8381 F80.00
G01 X50.4706 Y40.8478 F80.00
G01 X50.4730 Y40.8574 F80.00
G01 X50.4763 Y40.8667 F80.00
G01 X50.4806 Y40.8756 F80.00
G01 X50.4856 Y40.8840 F80.00
G01 X50.4915 Y40.8919 F80.00
G01 X50.4981 Y40.8992 F80.00
G01 X50.5054 Y40.9058 F80.00
G01 X50.5133 Y40.9117 F80.00
G01 X50.5218 Y40.9168 F80.00
G01 X50.5307 Y40.9210 F80.00
G01 X50.5399 Y40.9243 F80.00
G01 X50.5495 Y40.9267 F80.00
G01 X50.5592 Y40.9281 F80.00
G01 X50.5691 Y40.9286 F80.00
G01 X50.5789 Y40.9281 F80.00
G01 X50.5887 Y40.9267 F80.00
G01 X50.5982 Y40.9243 F80.00
G01 X50.6075 Y40.9210 F80.00
G01 X50.6164 Y40.9168 F80.00
G01 X50.6248 Y40.9117 F80.00
G01 X50.6328 Y40.9058 F80.00
G01 X50.6401 Y40.8992 F80.00
G01 X50.6467 Y40.8919 F80.00
G01 X50.6525 Y40.8840 F80.00
G01 X50.6576 Y40.8756 F80.00
G01 X50.6618 Y40.8667 F80.00
G01 X50.6651 Y40.8574 F80.00
G01 X50.6675 Y40.8478 F80.00
G01 X50.6690 Y40.8381 F80.00
G01 X50.6695 Y40.8282 F80.00
G00 Z2.0000
G00 X53.2095 Y40.8282
G01 F60.00
G01 Z-0.1000
G01 F80.00
G01 X53.2090 Y40.8184 F80.00
G01 X53.2075 Y40.8087 F80.00
G01 X53.2051 Y40.7991 F80.00
G01 X53.2018 Y40.7898 F80.00
G01 X53.1976 Y40.7809 F80.00
G01 X53.1925 Y40.7725 F80.00
G01 X53.1867 Y40.7646 F80.00
G01 X53.1801 Y40.7573 F80.00
G01 X53.1728 Y40.7506 F80.00
G01 X53.1648 Y40.7448 F80.00
G01 X53.1564 Y40.7397 F80.00
G01 X53.1475 Y40.7355 F80.00
G01 X53.1382 Y40.7322 F80.00
G01 X53.1287 Y40.7298 F80.00
G01 X53.1189 Y40.7283 F80.00
G01 X53.1091 Y40.7279 F80.00
G01 X53.0992 Y40.7283 F80.00
G01 X53.0895 Y40.7298 F80.00
G01 X53.0799 Y40.7322 F80.00
G01 X53.0707 Y40.7355 F80.00
G01 X53.0618 Y40.7397 F80.00
G01 X53.0533 Y40.7448 F80.00
G01 X53.0454 Y40.7506 F80.00
G01 X53.0381 Y40.7573 F80.00
G01 X53.0315 Y40.7646 F80.00
G01 X53.0256 Y40.7725 F80.00
G01 X53.0206 Y40.7809 F80.00
G01 X53.0163 Y40.7898 F80.00
G01 X53.0130 Y40.7991 F80.00
G01 X53.0106 Y40.8087 F80.00
G01 X53.0092 Y40.8184 F80.00
G01 X53.0087 Y40.8282 F80.00
G01 X53.0092 Y40.8381 F80.00
G01 X53.0106 Y40.8478 F80.00
G01 X53.0130 Y40.8574 F80.00
G01 X53.0163 Y40.8667 F80.00
G01 X53.0206 Y40.8756 F80.00
G01 X53.0256 Y40.8840 F80.00
G01 X53.0315 Y40.8919 F80.00
G01 X53.0381 Y40.8992 F80.00
G01 X53.0454 Y40.9058 F80.00
G01 X53.0533 Y40.9117 F80.00
G01 X53.0618 Y40.9168 F80.00
G01 X53.0707 Y40.9210 F80.00
G01 X53.0799 Y40.9243 F80.00
G01 X53.0895 Y40.9267 F80.00
G01 X53.0992 Y40.9281 F80.00
G01 X53.1091 Y40.9286 F80.00
G01 X53.1189 Y40.9281 F80.00
G01 X53.1287 Y40.9267 F80.00
G01 X53.1382 Y40.9243 F80.00
G01 X53.1475 Y40.9210 F80.00
G01 X53.1564 Y40.9168 F80.00
G01 X53.1648 Y40.9117 F80.00
G01 X53.1728 Y40.9058 F80.00
G01 X53.1801 Y40.8992 F80.00
G01 X53.1867 Y40.8919 F80.00
G01 X53.1925 Y40.8840 F80.00
G01 X53.1976 Y40.8756 F80.00
G01 X53.2018 Y40.8667 F80.00
G01 X53.2051 Y40.8574 F80.00
G01 X53.2075 Y40.8478 F80.00
G01 X53.2090 Y40.8381 F80.00
G01 X53.2095 Y40.8282 F80.00
G00 Z2.0000
G00 X55.7495 Y40.8282
G01 F60.00
G01 Z-0.1000
G01 F80.00
G01 X55.7490 Y40.8184 F80.00
G01 X55.7475 Y40.8087 F80.00
G01 X55.7451 Y40.7991 F80.00
G01 X55.7418 Y40.7898 F80.00
G01 X55.7376 Y40.7809 F80.00
G01 X55.7325 Y40.7725 F80.00
G01 X55.7267 Y40.7646 F80.00
G01 X55.7201 Y40.7573 F80.00
G01 X55.7128 Y40.7506 F80.00
G01 X55.7048 Y40.7448 F80.00
G01 X55.6964 Y40.7397 F80.00
G01 X55.6875 Y40.7355 F80.00
G01 X55.6782 Y40.7322 F80.00
G01 X55.6687 Y40.7298 F80.00
G01 X55.6589 Y40.7283 F80.00
G01 X55.6491 Y40.7279 F80.00
G01 X55.6392 Y40.7283 F80.00
G01 X55.6295 Y40.7298 F80.00
G01 X55.6199 Y40.7322 F80.00
G01 X55.6107 Y40.7355 F80.00
G01 X55.6018 Y40.7397 F80.00
G01 X55.5933 Y40.7448 F80.00
G01 X55.5854 Y40.7506 F80.00
G01 X55.5781 Y40.7573 F80.00
G01 X55.5715 Y40.7646 F80.00
G01 X55.5656 Y40.7725 F80.00
G01 X55.5606 Y40.7809 F80.00
G01 X55.5563 Y40.7898 F80.00
G01 X55.5530 Y40.7991 F80.00
G01 X55.5506 Y40.8087 F80.00
G01 X55.5492 Y40.8184 F80.00
G01 X55.5487 Y40.8282 F80.00
G01 X55.5492 Y40.8381 F80.00
G01 X55.5506 Y40.8478 F80.00
G01 X55.5530 Y40.8574 F80.00
G01 X55.5563 Y40.8667 F80.00
G01 X55.5606 Y40.8756 F80.00
G01 X55.5656 Y40.8840 F80.00
G01 X55.5715 Y40.8919 F80.00
G01 X55.5781 Y40.8992 F80.00
G01 X55.5854 Y40.9058 F80.00
G01 X55.5933 Y40.9117 F80.00
G01 X55.6018 Y40.9168 F80.00
G01 X55.6107 Y40.9210 F80.00
G01 X55.6199 Y40.9243 F80.00
G01 X55.6295 Y40.9267 F80.00
G01 X55.6392 Y40.9281 F80.00
G01 X55.6491 Y40.9286 F80.00
G01 X55.6589 Y40.9281 F80.00
G01 X55.6687 Y40.9267 F80.00
G01 X55.6782 Y40.9243 F80.00
G01 X55.6875 Y40.9210 F80.00
G01 X55.6964 Y40.9168 F80.00
G01 X55.7048 Y40.9117 F80.00
G01 X55.7128 Y40.9058 F80.00
G01 X55.7201 Y40.8992 F80.00
G01 X55.7267 Y40.8919 F80.00
G01 X55.7325 Y40.8840 F80.00
G01 X55.7376 Y40.8756 F80.00
G01 X55.7418 Y40.8667 F80.00
G01 X55.7451 Y40.8574 F80.00
G01 X55.7475 Y40.8478 F80.00
G01 X55.7490 Y40.8381 F80.00
G01 X55.7495 Y40.8282 F80.00
G00 Z2.0000
G00 X58.2895 Y40.8282
G01 F60.00
G01 Z-0.1000
G01 F80.00
G01 X58.2890 Y40.8184 F80.00
G01 X58.2875 Y40.8087 F80.00
G01 X58.2851 Y40.7991 F80.00
G01 X58.2818 Y40.7898 F80.00
G01 X58.2776 Y40.7809 F80.00
G01 X58.2725 Y40.7725 F80.00
G01 X58.2667 Y40.7646 F80.00
G01 X58.2601 Y40.7573 F80.00
G01 X58.2528 Y40.7506 F80.00
G01 X58.2448 Y40.7448 F80.00
G01 X58.2364 Y40.7397 F80.00
G01 X58.2275 Y40.7355 F80.00
G01 X58.2182 Y40.7322 F80.00
G01 X58.2087 Y40.7298 F80.00
G01 X58.1989 Y40.7283 F80.00
G01 X58.1891 Y40.7279 F80.00
G01 X58.1792 Y40.7283 F80.00
G01 X58.1695 Y40.7298 F80.00
G01 X58.1599 Y40.7322 F80.00
G01 X58.1507 Y40.7355 F80.00
G01 X58.1418 Y40.7397 F80.00
G01 X58.1333 Y40.7448 F80.00
G01 X58.1254 Y40.7506 F80.00
G01 X58.1181 Y40.7573 F80.00
G01 X58.1115 Y40.7646 F80.00
G01 X58.1056 Y40.7725 F80.00
G01 X58.1006 Y40.7809 F80.00
G01 X58.0963 Y40.7898 F80.00
G01 X58.0930 Y40.7991 F80.00
G01 X58.0906 Y40.8087 F80.00
G01 X58.0892 Y40.8184 F80.00
G01 X58.0887 Y40.8282 F80.00
G01 X58.0892 Y40.8381 F80.00
G01 X58.0906 Y40.8478 F80.00
G01 X58.0930 Y40.8574 F80.00
G01 X58.0963 Y40.8667 F80.00
G01 X58.1006 Y40.8756 F80.00
G01 X58.1056 Y40.8840 F80.00
G01 X58.1115 Y40.8919 F80.00
G01 X58.1181 Y40.8992 F80.00
G01 X58.1254 Y40.9058 F80.00
G01 X58.1333 Y40.9117 F80.00
G01 X58.1418 Y40.9168 F80.00
G01 X58.1507 Y40.9210 F80.00
G01 X58.1599 Y40.9243 F80.00
G01 X58.1695 Y40.9267 F80.00
G01 X58.1792 Y40.9281 F80.00
G01 X58.1891 Y40.9286 F80.00
G01 X58.1989 Y40.9281 F80.00
G01 X58.2087 Y40.9267 F80.00
G01 X58.2182 Y40.9243 F80.00
G01 X58.2275 Y40.9210 F80.00
G01 X58.2364 Y40.9168 F80.00
G01 X58.2448 Y40.9117 F80.00
G01 X58.2528 Y40.9058 F80.00
G01 X58.2601 Y40.8992 F80.00
G01 X58.2667 Y40.8919 F80.00
G01 X58.2725 Y40.8840 F80.00
G01 X58.2776 Y40.8756 F80.00
G01 X58.2818 Y40.8667 F80.00
G01 X58.2851 Y40.8574 F80.00
G01 X58.2875 Y40.8478 F80.00
G01 X58.2890 Y40.8381 F80.00
G01 X58.2895 Y40.8282 F80.00
G00 Z2.0000
G00 X60.8295 Y40.8282
G01 F60.00
G01 Z-0.1000
G01 F80.00
G01 X60.8290 Y40.8184 F80.00
G01 X60.8275 Y40.8087 F80.00
G01 X60.8251 Y40.7991 F80.00
G01 X60.8218 Y40.7898 F80.00
G01 X60.8176 Y40.7809 F80.00
G01 X60.8125 Y40.7725 F80.00
G01 X60.8067 Y40.7646 F80.00
G01 X60.8001 Y40.7573 F80.00
G01 X60.7928 Y40.7506 F80.00
G01 X60.7848 Y40.7448 F80.00
G01 X60.7764 Y40.7397 F80.00
G01 X60.7675 Y40.7355 F80.00
G01 X60.7582 Y40.7322 F80.00
G01 X60.7487 Y40.7298 F80.00
G01 X60.7389 Y40.7283 F80.00
G01 X60.7291 Y40.7279 F80.00
G01 X60.7192 Y40.7283 F80.00
G01 X60.7095 Y40.7298 F80.00
G01 X60.6999 Y40.7322 F80.00
G01 X60.6907 Y40.7355 F80.00
G01 X60.6818 Y40.7397 F80.00
G01 X60.6733 Y40.7448 F80.00
G01 X60.6654 Y40.7506 F80.00
G01 X60.6581 Y40.7573 F80.00
G01 X60.6515 Y40.7646 F80.00
G01 X60.6456 Y40.7725 F80.00
G01 X60.6406 Y40.7809 F80.00
G01 X60.6363 Y40.7898 F80.00
G01 X60.6330 Y40.7991 F80.00
G01 X60.6306 Y40.8087 F80.00
G01 X60.6292 Y40.8184 F80.00
G01 X60.6287 Y40.8282 F80.00
G01 X60.6292 Y40.8381 F80.00
G01 X60.6306 Y40.8478 F80.00
G01 X60.6330 Y40.8574 F80.00
G01 X60.6363 Y40.8667 F80.00
G01 X60.6406 Y40.8756 F80.00
G01 X60.6456 Y40.8840 F80.00
G01 X60.6515 Y40.8919 F80.00
G01 X60.6581 Y40.8992 F80.00
G01 X60.6654 Y40.9058 F80.00
G01 X60.6733 Y40.9117 F80.00
G01 X60.6818 Y40.9168 F80.00
G01 X60.6907 Y40.9210 F80.00
G01 X60.6999 Y40.9243 F80.00
G01 X60.7095 Y40.9267 F80.00
G01 X60.7192 Y40.9281 F80.00
G01 X60.7291 Y40.9286 F80.00
G01 X60.7389 Y40.9281 F80.00
G01 X60.7487 Y40.9267 F80.00
G01 X60.7582 Y40.9243 F80.00
G01 X60.7675 Y40.9210 F80.00
G01 X60.7764 Y40.9168 F80.00
G01 X60.7848 Y40.9117 F80.00
G01 X60.7928 Y40.9058 F80.00
G01 X60.8001 Y40.8992 F80.00
G01 X60.8067 Y40.8919 F80.00
G01 X60.8125 Y40.8840 F80.00
G01 X60.8176 Y40.8756 F80.00
G01 X60.8218 Y40.8667 F80.00
G01 X60.8251 Y40.8574 F80.00
G01 X60.8275 Y40.8478 F80.00
G01 X60.8290 Y40.8381 F80.00
G01 X60.8295 Y40.8282 F80.00
G00 Z2.0000
G00 X63.3695 Y40.8282
G01 F60.00
G01 Z-0.1000
G01 F80.00
G01 X63.3690 Y40.8184 F80.00
G01 X63.3675 Y40.8087 F80.00
G01 X63.3651 Y40.7991 F80.00
G01 X63.3618 Y40.7898 F80.00
G01 X63.3576 Y40.7809 F80.00
G01 X63.3525 Y40.7725 F80.00
G01 X63.3467 Y40.7646 F80.00
G01 X63.3401 Y40.7573 F80.00
G01 X63.3328 Y40.7506 F80.00
G01 X63.3248 Y40.7448 F80.00
G01 X63.3164 Y40.7397 F80.00
G01 X63.3075 Y40.7355 F80.00
G01 X63.2982 Y40.7322 F80.00
G01 X63.2887 Y40.7298 F80.00
G01 X63.2789 Y40.7283 F80.00
G01 X63.2691 Y40.7279 F80.00
G01 X63.2592 Y40.7283 F80.00
G01 X63.2495 Y40.7298 F80.00
G01 X63.2399 Y40.7322 F80.00
G01 X63.2307 Y40.7355 F80.00
G01 X63.2218 Y40.7397 F80.00
G01 X63.2133 Y40.7448 F80.00
G01 X63.2054 Y40.7506 F80.00
G01 X63.1981 Y40.7573 F80.00
G01 X63.1915 Y40.7646 F80.00
G01 X63.1856 Y40.7725 F80.00
G01 X63.1806 Y40.7809 F80.00
G01 X63.1763 Y40.7898 F80.00
G01 X63.1730 Y40.7991 F80.00
G01 X63.1706 Y40.8087 F80.00
G01 X63.1692 Y40.8184 F80.00
G01 X63.1687 Y40.8282 F80.00
G01 X63.1692 Y40.8381 F80.00
G01 X63.1706 Y40.8478 F80.00
G01 X63.1730 Y40.8574 F80.00
G01 X63.1763 Y40.8667 F80.00
G01 X63.1806 Y40.8756 F80.00
G01 X63.1856 Y40.8840 F80.00
G01 X63.1915 Y40.8919 F80.00
G01 X63.1981 Y40.8992 F80.00
G01 X63.2054 Y40.9058 F80.00
G01 X63.2133 Y40.9117 F80.00
G01 X63.2218 Y40.9168 F80.00
G01 X63.2307 Y40.9210 F80.00
G01 X63.2399 Y40.9243 F80.00
G01 X63.2495 Y40.9267 F80.00
G01 X63.2592 Y40.9281 F80.00
G01 X63.2691 Y40.9286 F80.00
G01 X63.2789 Y40.9281 F80.00
G01 X63.2887 Y40.9267 F80.00
G01 X63.2982 Y40.9243 F80.00
G01 X63.3075 Y40.9210 F80.00
G01 X63.3164 Y40.9168 F80.00
G01 X63.3248 Y40.9117 F80.00
G01 X63.3328 Y40.9058 F80.00
G01 X63.3401 Y40.8992 F80.00
G01 X63.3467 Y40.8919 F80.00
G01 X63.3525 Y40.8840 F80.00
G01 X63.3576 Y40.8756 F80.00
G01 X63.3618 Y40.8667 F80.00
G01 X63.3651 Y40.8574 F80.00
G01 X63.3675 Y40.8478 F80.00
G01 X63.3690 Y40.8381 F80.00
G01 X63.3695 Y40.8282 F80.00
G00 Z2.0000
G00 X63.3695 Y43.3682
G01 F60.00
G01 Z-0.1000
G01 F80.00
G01 X63.3690 Y43.3584 F80.00
G01 X63.3675 Y43.3487 F80.00
G01 X63.3651 Y43.3391 F80.00
G01 X63.3618 Y43.3298 F80.00
G01 X63.3576 Y43.3209 F80.00
G01 X63.3525 Y43.3125 F80.00
G01 X63.3467 Y43.3046 F80.00
G01 X63.3401 Y43.2973 F80.00
G01 X63.3328 Y43.2906 F80.00
G01 X63.3248 Y43.2848 F80.00
G01 X63.3164 Y43.2797 F80.00
G01 X63.3075 Y43.2755 F80.00
G01 X63.2982 Y43.2722 F80.00
G01 X63.2887 Y43.2698 F80.00
G01 X63.2789 Y43.2683 F80.00
G01 X63.2691 Y43.2679 F80.00
G01 X63.2592 Y43.2683 F80.00
G01 X63.2495 Y43.2698 F80.00
G01 X63.2399 Y43.2722 F80.00
G01 X63.2307 Y43.2755 F80.00
G01 X63.2218 Y43.2797 F80.00
G01 X63.2133 Y43.2848 F80.00
G01 X63.2054 Y43.2906 F80.00
G01 X63.1981 Y43.2973 F80.00
G01 X63.1915 Y43.3046 F80.00
G01 X63.1856 Y43.3125 F80.00
G01 X63.1806 Y43.3209 F80.00
G01 X63.1763 Y43.3298 F80.00
G01 X63.1730 Y43.3391 F80.00
G01 X63.1706 Y43.3487 F80.00
G01 X63.1692 Y43.3584 F80.00
G01 X63.1687 Y43.3682 F80.00
G01 X63.1692 Y43.3781 F80.00
G01 X63.1706 Y43.3878 F80.00
G01 X63.1730 Y43.3974 F80.00
G01 X63.1763 Y43.4067 F80.00
G01 X63.1806 Y43.4156 F80.00
G01 X63.1856 Y43.4240 F80.00
G01 X63.1915 Y43.4319 F80.00
G01 X63.1981 Y43.4392 F80.00
G01 X63.2054 Y43.4458 F80.00
G01 X63.2133 Y43.4517 F80.00
G01 X63.2218 Y43.4568 F80.00
G01 X63.2307 Y43.4610 F80.00
G01 X63.2399 Y43.4643 F80.00
G01 X63.2495 Y43.4667 F80.00
G01 X63.2592 Y43.4681 F80.00
G01 X63.2691 Y43.4686 F80.00
G01 X63.2789 Y43.4681 F80.00
G01 X63.2887 Y43.4667 F80.00
G01 X63.2982 Y43.4643 F80.00
G01 X63.3075 Y43.4610 F80.00
G01 X63.3164 Y43.4568 F80.00
G01 X63.3248 Y43.4517 F80.00
G01 X63.3328 Y43.4458 F80.00
G01 X63.3401 Y43.4392 F80.00
G01 X63.3467 Y43.4319 F80.00
G01 X63.3525 Y43.4240 F80.00
G01 X63.3576 Y43.4156 F80.00
G01 X63.3618 Y43.4067 F80.00
G01 X63.3651 Y43.3974 F80.00
G01 X63.3675 Y43.3878 F80.00
G01 X63.3690 Y43.3781 F80.00
G01 X63.3695 Y43.3682 F80.00
G00 Z2.0000
G00 X65.9095 Y40.8282
G01 F60.00
G01 Z-0.1000
G01 F80.00
G01 X65.9090 Y40.8184 F80.00
G01 X65.9075 Y40.8087 F80.00
G01 X65.9051 Y40.7991 F80.00
G01 X65.9018 Y40.7898 F80.00
G01 X65.8976 Y40.7809 F80.00
G01 X65.8925 Y40.7725 F80.00
G01 X65.8867 Y40.7646 F80.00
G01 X65.8801 Y40.7573 F80.00
G01 X65.8728 Y40.7506 F80.00
G01 X65.8648 Y40.7448 F80.00
G01 X65.8564 Y40.7397 F80.00
G01 X65.8475 Y40.7355 F80.00
G01 X65.8382 Y40.7322 F80.00
G01 X65.8287 Y40.7298 F80.00
G01 X65.8189 Y40.7283 F80.00
G01 X65.8091 Y40.7279 F80.00
G01 X65.7992 Y40.7283 F80.00
G01 X65.7895 Y40.7298 F80.00
G01 X65.7799 Y40.7322 F80.00
G01 X65.7707 Y40.7355 F80.00
G01 X65.7618 Y40.7397 F80.00
G01 X65.7533 Y40.7448 F80.00
G01 X65.7454 Y40.7506 F80.00
G01 X65.7381 Y40.7573 F80.00
G01 X65.7315 Y40.7646 F80.00
G01 X65.7256 Y40.7725 F80.00
G01 X65.7206 Y40.7809 F80.00
G01 X65.7163 Y40.7898 F80.00
G01 X65.7130 Y40.7991 F80.00
G01 X65.7106 Y40.8087 F80.00
G01 X65.7092 Y40.8184 F80.00
G01 X65.7087 Y40.8282 F80.00
G01 X65.7092 Y40.8381 F80.00
G01 X65.7106 Y40.8478 F80.00
G01 X65.7130 Y40.8574 F80.00
G01 X65.7163 Y40.8667 F80.00
G01 X65.7206 Y40.8756 F80.00
G01 X65.7256 Y40.8840 F80.00
G01 X65.7315 Y40.8919 F80.00
G01 X65.7381 Y40.8992 F80.00
G01 X65.7454 Y40.9058 F80.00
G01 X65.7533 Y40.9117 F80.00
G01 X65.7618 Y40.9168 F80.00
G01 X65.7707 Y40.9210 F80.00
G01 X65.7799 Y40.9243 F80.00
G01 X65.7895 Y40.9267 F80.00
G01 X65.7992 Y40.9281 F80.00
G01 X65.8091 Y40.9286 F80.00
G01 X65.8189 Y40.9281 F80.00
G01 X65.8287 Y40.9267 F80.00
G01 X65.8382 Y40.9243 F80.00
G01 X65.8475 Y40.9210 F80.00
G01 X65.8564 Y40.9168 F80.00
G01 X65.8648 Y40.9117 F80.00
G01 X65.8728 Y40.9058 F80.00
G01 X65.8801 Y40.8992 F80.00
G01 X65.8867 Y40.8919 F80.00
G01 X65.8925 Y40.8840 F80.00
G01 X65.8976 Y40.8756 F80.00
G01 X65.9018 Y40.8667 F80.00
G01 X65.9051 Y40.8574 F80.00
G01 X65.9075 Y40.8478 F80.00
G01 X65.9090 Y40.8381 F80.00
G01 X65.9095 Y40.8282 F80.00
G00 Z2.0000
G00 X59.7817 Y36.9776
G01 F60.00
G01 Z-0.1000
G01 F80.00
G01 X59.7810 Y36.9629 F80.00
G01 X59.7788 Y36.9484 F80.00
G01 X59.7753 Y36.9341 F80.00
G01 X59.7703 Y36.9202 F80.00
G01 X59.7640 Y36.9069 F80.00
G01 X59.7564 Y36.8943 F80.00
G01 X59.7477 Y36.8825 F80.00
G01 X59.7378 Y36.8716 F80.00
G01 X59.7269 Y36.8617 F80.00
G01 X59.7151 Y36.8530 F80.00
G01 X59.7025 Y36.8454 F80.00
G01 X59.6892 Y36.8391 F80.00
G01 X59.6753 Y36.8341 F80.00
G01 X59.6610 Y36.8306 F80.00
G01 X59.6465 Y36.8284 F80.00
G01 X59.6318 Y36.8277 F80.00
G01 X59.6171 Y36.8284 F80.00
G01 X59.6026 Y36.8306 F80.00
G01 X59.5883 Y36.8341 F80.00
G01 X59.5744 Y36.8391 F80.00
G01 X59.5611 Y36.8454 F80.00
G01 X59.5485 Y36.8530 F80.00
G01 X59.5367 Y36.8617 F80.00
G01 X59.5258 Y36.8716 F80.00
G01 X59.5159 Y36.8825 F80.00
G01 X59.5072 Y36.8943 F80.00
G01 X59.4996 Y36.9069 F80.00
G01 X59.4933 Y36.9202 F80.00
G01 X59.4883 Y36.9341 F80.00
G01 X59.4848 Y36.9484 F80.00
G01 X59.4826 Y36.9629 F80.00
G01 X59.4819 Y36.9776 F80.00
G01 X59.4826 Y36.9923 F80.00
G01 X59.4848 Y37.0068 F80.00
G01 X59.4883 Y37.0211 F80.00
G01 X59.4933 Y37.0350 F80.00
G01 X59.4996 Y37.0483 F80.00
G01 X59.5072 Y37.0609 F80.00
G01 X59.5159 Y37.0727 F80.00
G01 X59.5258 Y37.0836 F80.00
G01 X59.5367 Y37.0935 F80.00
G01 X59.5485 Y37.1022 F80.00
G01 X59.5611 Y37.1098 F80.00
G01 X59.5744 Y37.1161 F80.00
G01 X59.5883 Y37.1211 F80.00
G01 X59.6026 Y37.1246 F80.00
G01 X59.6171 Y37.1268 F80.00
G01 X59.6318 Y37.1275 F80.00
G01 X59.6465 Y37.1268 F80.00
G01 X59.6610 Y37.1246 F80.00
G01 X59.6753 Y37.1211 F80.00
G01 X59.6892 Y37.1161 F80.00
G01 X59.7025 Y37.1098 F80.00
G01 X59.7151 Y37.1022 F80.00
G01 X59.7269 Y37.0935 F80.00
G01 X59.7378 Y37.0836 F80.00
G01 X59.7477 Y37.0727 F80.00
G01 X59.7564 Y37.0609 F80.00
G01 X59.7640 Y37.0483 F80.00
G01 X59.7703 Y37.0350 F80.00
G01 X59.7753 Y37.0211 F80.00
G01 X59.7788 Y37.0068 F80.00
G01 X59.7810 Y36.9923 F80.00
G01 X59.7817 Y36.9776 F80.00
G00 Z2.0000
G00 X57.5109 Y34.0896
G01 F60.00
G01 Z-0.1000
G01 F80.00
G01 X57.5109 Y34.0896 F80.00
G01 X57.5108 Y34.0896 F80.00
G01 X57.5109 Y34.0897 F80.00
G01 X57.5109 Y34.0896 F80.00
G00 Z2.0000
G00 X47.9986 Y34.1379
G01 F60.00
G01 Z-0.1000
G01 F80.00
G01 X47.9986 Y34.1378 F80.00
G01 X47.9985 Y34.1379 F80.00
G01 X47.9986 Y34.1379 F80.00
G01 X47.9986 Y34.1379 F80.00
G00 Z2.0000
G00 X45.7584 Y34.2547
G01 F60.00
G01 Z-0.1000
G01 F80.00
G01 X45.7583 Y34.2547 F80.00
G01 X45.7583 Y34.2547 F80.00
G01 X45.7583 Y34.2548 F80.00
G01 X45.7584 Y34.2547 F80.00
G00 Z2.0000
G00 X45.7584 Y31.7147
G01 F60.00
G01 Z-0.1000
G01 F80.00
G01 X45.7583 Y31.7147 F80.00
G01 X45.7583 Y31.7147 F80.00
G01 X45.7583 Y31.7148 F80.00
G01 X45.7584 Y31.7147 F80.00
G00 Z2.0000
G00 X47.9986 Y31.6385
G01 F60.00
G01 Z-0.1000
G01 F80.00
G01 X47.9986 Y31.6385 F80.00
G01 X47.9985 Y31.6385 F80.00
G01 X47.9986 Y31.6386 F80.00
G01 X47.9986 Y31.6385 F80.00
G00 Z2.0000
G00 X48.7124 Y29.0096
G01 F60.00
G01 Z-0.1000
G01 F80.00
G01 X48.7123 Y29.0096 F80.00
G01 X48.7123 Y29.0096 F80.00
G01 X48.7123 Y29.0097 F80.00
G01 X48.7124 Y29.0096 F80.00
G00 Z2.0000
G00 X45.7584 Y29.1747
G01 F60.00
G01 Z-0.1000
G01 F80.00
G01 X45.7583 Y29.1747 F80.00
G01 X45.7583 Y29.1747 F80.00
G01 X45.7583 Y29.1748 F80.00
G01 X45.7584 Y29.1747 F80.00
G00 Z2.0000
G00 X47.3103 Y25.9540
G01 F60.00
G01 Z-0.1000
G01 F80.00
G01 X47.3096 Y25.9393 F80.00
G01 X47.3074 Y25.9248 F80.00
G01 X47.3039 Y25.9105 F80.00
G01 X47.2989 Y25.8966 F80.00
G01 X47.2926 Y25.8833 F80.00
G01 X47.2850 Y25.8707 F80.00
G01 X47.2763 Y25.8589 F80.00
G01 X47.2664 Y25.8480 F80.00
G01 X47.2555 Y25.8381 F80.00
G01 X47.2437 Y25.8294 F80.00
G01 X47.2311 Y25.8218 F80.00
G01 X47.2178 Y25.8155 F80.00
G01 X47.2039 Y25.8105 F80.00
G01 X47.1896 Y25.8070 F80.00
G01 X47.1751 Y25.8048 F80.00
G01 X47.1604 Y25.8041 F80.00
G01 X47.1457 Y25.8048 F80.00
G01 X47.1312 Y25.8070 F80.00
G01 X47.1169 Y25.8105 F80.00
G01 X47.1030 Y25.8155 F80.00
G01 X47.0897 Y25.8218 F80.00
G01 X47.0771 Y25.8294 F80.00
G01 X47.0653 Y25.8381 F80.00
G01 X47.0544 Y25.8480 F80.00
G01 X47.0445 Y25.8589 F80.00
G01 X47.0358 Y25.8707 F80.00
G01 X47.0282 Y25.8833 F80.00
G01 X47.0219 Y25.8966 F80.00
G01 X47.0169 Y25.9105 F80.00
G01 X47.0134 Y25.9248 F80.00
G01 X47.0112 Y25.9393 F80.00
G01 X47.0105 Y25.9540 F80.00
G01 X47.0112 Y25.9687 F80.00
G01 X47.0134 Y25.9832 F80.00
G01 X47.0169 Y25.9975 F80.00
G01 X47.0219 Y26.0114 F80.00
G01 X47.0282 Y26.0247 F80.00
G01 X47.0358 Y26.0373 F80.00
G01 X47.0445 Y26.0491 F80.00
G01 X47.0544 Y26.0600 F80.00
G01 X47.0653 Y26.0699 F80.00
G01 X47.0771 Y26.0786 F80.00
G01 X47.0897 Y26.0862 F80.00
G01 X47.1030 Y26.0925 F80.00
G01 X47.1169 Y26.0975 F80.00
G01 X47.1312 Y26.1010 F80.00
G01 X47.1457 Y26.1032 F80.00
G01 X47.1604 Y26.1039 F80.00
G01 X47.1751 Y26.1032 F80.00
G01 X47.1896 Y26.1010 F80.00
G01 X47.2039 Y26.0975 F80.00
G01 X47.2178 Y26.0925 F80.00
G01 X47.2311 Y26.0862 F80.00
G01 X47.2437 Y26.0786 F80.00
G01 X47.2555 Y26.0699 F80.00
G01 X47.2664 Y26.0600 F80.00
G01 X47.2763 Y26.0491 F80.00
G01 X47.2850 Y26.0373 F80.00
G01 X47.2926 Y26.0247 F80.00
G01 X47.2989 Y26.0114 F80.00
G01 X47.3039 Y25.9975 F80.00
G01 X47.3074 Y25.9832 F80.00
G01 X47.3096 Y25.9687 F80.00
G01 X47.3103 Y25.9540 F80.00
G00 Z2.0000
G00 X43.2412 Y25.2961
G01 F60.00
G01 Z-0.1000
G01 F80.00
G01 X43.2412 Y25.2961 F80.00
G01 X43.2411 Y25.2961 F80.00
G01 X43.2412 Y25.2962 F80.00
G01 X43.2412 Y25.2961 F80.00
G00 Z2.0000
G00 X40.2872 Y25.1437
G01 F60.00
G01 Z-0.1000
G01 F80.00
G01 X40.2872 Y25.1437 F80.00
G01 X40.2871 Y25.1437 F80.00
G01 X40.2872 Y25.1438 F80.00
G01 X40.2872 Y25.1437 F80.00
G00 Z2.0000
G00 X38.1384 Y29.1747
G01 F60.00
G01 Z-0.1000
G01 F80.00
G01 X38.1383 Y29.1747 F80.00
G01 X38.1383 Y29.1747 F80.00
G01 X38.1383 Y29.1748 F80.00
G01 X38.1384 Y29.1747 F80.00
G00 Z2.0000
G00 X38.1384 Y31.7147
G01 F60.00
G01 Z-0.1000
G01 F80.00
G01 X38.1383 Y31.7147 F80.00
G01 X38.1383 Y31.7147 F80.00
G01 X38.1383 Y31.7148 F80.00
G01 X38.1384 Y31.7147 F80.00
G00 Z2.0000
G00 X38.1384 Y34.2547
G01 F60.00
G01 Z-0.1000
G01 F80.00
G01 X38.1383 Y34.2547 F80.00
G01 X38.1383 Y34.2547 F80.00
G01 X38.1383 Y34.2548 F80.00
G01 X38.1384 Y34.2547 F80.00
G00 Z2.0000
G00 X34.7627 Y36.9776
G01 F60.00
G01 Z-0.1000
G01 F80.00
G01 X34.7620 Y36.9629 F80.00
G01 X34.7598 Y36.9484 F80.00
G01 X34.7563 Y36.9341 F80.00
G01 X34.7513 Y36.9202 F80.00
G01 X34.7450 Y36.9069 F80.00
G01 X34.7374 Y36.8943 F80.00
G01 X34.7287 Y36.8825 F80.00
G01 X34.7188 Y36.8716 F80.00
G01 X34.7079 Y36.8617 F80.00
G01 X34.6961 Y36.8530 F80.00
G01 X34.6835 Y36.8454 F80.00
G01 X34.6702 Y36.8391 F80.00
G01 X34.6563 Y36.8341 F80.00
G01 X34.6420 Y36.8306 F80.00
G01 X34.6275 Y36.8284 F80.00
G01 X34.6128 Y36.8277 F80.00
G01 X34.5981 Y36.8284 F80.00
G01 X34.5836 Y36.8306 F80.00
G01 X34.5693 Y36.8341 F80.00
G01 X34.5554 Y36.8391 F80.00
G01 X34.5421 Y36.8454 F80.00
G01 X34.5295 Y36.8530 F80.00
G01 X34.5177 Y36.8617 F80.00
G01 X34.5068 Y36.8716 F80.00
G01 X34.4969 Y36.8825 F80.00
G01 X34.4882 Y36.8943 F80.00
G01 X34.4806 Y36.9069 F80.00
G01 X34.4743 Y36.9202 F80.00
G01 X34.4693 Y36.9341 F80.00
G01 X34.4658 Y36.9484 F80.00
G01 X34.4636 Y36.9629 F80.00
G01 X34.4629 Y36.9776 F80.00
G01 X34.4636 Y36.9923 F80.00
G01 X34.4658 Y37.0068 F80.00
G01 X34.4693 Y37.0211 F80.00
G01 X34.4743 Y37.0350 F80.00
G01 X34.4806 Y37.0483 F80.00
G01 X34.4882 Y37.0609 F80.00
G01 X34.4969 Y37.0727 F80.00
G01 X34.5068 Y37.0836 F80.00
G01 X34.5177 Y37.0935 F80.00
G01 X34.5295 Y37.1022 F80.00
G01 X34.5421 Y37.1098 F80.00
G01 X34.5554 Y37.1161 F80.00
G01 X34.5693 Y37.1211 F80.00
G01 X34.5836 Y37.1246 F80.00
G01 X34.5981 Y37.1268 F80.00
G01 X34.6128 Y37.1275 F80.00
G01 X34.6275 Y37.1268 F80.00
G01 X34.6420 Y37.1246 F80.00
G01 X34.6563 Y37.1211 F80.00
G01 X34.6702 Y37.1161 F80.00
G01 X34.6835 Y37.1098 F80.00
G01 X34.6961 Y37.1022 F80.00
G01 X34.7079 Y37.0935 F80.00
G01 X34.7188 Y37.0836 F80.00
G01 X34.7287 Y37.0727 F80.00
G01 X34.7374 Y37.0609 F80.00
G01 X34.7450 Y37.0483 F80.00
G01 X34.7513 Y37.0350 F80.00
G01 X34.7563 Y37.0211 F80.00
G01 X34.7598 Y37.0068 F80.00
G01 X34.7620 Y36.9923 F80.00
G01 X34.7627 Y36.9776 F80.00
G00 Z2.0000
G00 X31.9636 Y36.9878
G01 F60.00
G01 Z-0.1000
G01 F80.00
G01 X31.9636 Y36.9877 F80.00
G01 X31.9635 Y36.9878 F80.00
G01 X31.9636 Y36.9878 F80.00
G01 X31.9636 Y36.9878 F80.00
G00 Z2.0000
G00 X29.4643 Y36.9878
G01 F60.00
G01 Z-0.1000
G01 F80.00
G01 X29.4642 Y36.9877 F80.00
G01 X29.4642 Y36.9878 F80.00
G01 X29.4642 Y36.9878 F80.00
G01 X29.4643 Y36.9878 F80.00
G00 Z2.0000
G00 X32.3014 Y34.3614
G01 F60.00
G01 Z-0.1000
G01 F80.00
G01 X32.3014 Y34.3613 F80.00
G01 X32.3013 Y34.3614 F80.00
G01 X32.3014 Y34.3614 F80.00
G01 X32.3014 Y34.3614 F80.00
G00 Z2.0000
G00 X32.3014 Y31.8214
G01 F60.00
G01 Z-0.1000
G01 F80.00
G01 X32.3014 Y31.8213 F80.00
G01 X32.3013 Y31.8214 F80.00
G01 X32.3014 Y31.8214 F80.00
G01 X32.3014 Y31.8214 F80.00
G00 Z2.0000
G00 X32.3014 Y29.2814
G01 F60.00
G01 Z-0.1000
G01 F80.00
G01 X32.3014 Y29.2813 F80.00
G01 X32.3013 Y29.2814 F80.00
G01 X32.3014 Y29.2814 F80.00
G01 X32.3014 Y29.2814 F80.00
G00 Z2.0000
G00 X32.3014 Y26.7414
G01 F60.00
G01 Z-0.1000
G01 F80.00
G01 X32.3014 Y26.7413 F80.00
G01 X32.3013 Y26.7414 F80.00
G01 X32.3014 Y26.7414 F80.00
G01 X32.3014 Y26.7414 F80.00
G00 Z2.0000
G00 X32.3014 Y24.2014
G01 F60.00
G01 Z-0.1000
G01 F80.00
G01 X32.3014 Y24.2013 F80.00
G01 X32.3013 Y24.2014 F80.00
G01 X32.3014 Y24.2014 F80.00
G01 X32.3014 Y24.2014 F80.00
G00 Z2.0000
G00 X32.3014 Y21.6614
G01 F60.00
G01 Z-0.1000
G01 F80.00
G01 X32.3014 Y21.6613 F80.00
G01 X32.3013 Y21.6614 F80.00
G01 X32.3014 Y21.6614 F80.00
G01 X32.3014 Y21.6614 F80.00
G00 Z2.0000
G00 X32.3014 Y19.1214
G01 F60.00
G01 Z-0.1000
G01 F80.00
G01 X32.3014 Y19.1213 F80.00
G01 X32.3013 Y19.1214 F80.00
G01 X32.3014 Y19.1214 F80.00
G01 X32.3014 Y19.1214 F80.00
G00 Z2.0000
G00 X34.8135 Y14.9558
G01 F60.00
G01 Z-0.1000
G01 F80.00
G01 X34.8128 Y14.9411 F80.00
G01 X34.8106 Y14.9266 F80.00
G01 X34.8071 Y14.9123 F80.00
G01 X34.8021 Y14.8984 F80.00
G01 X34.7958 Y14.8851 F80.00
G01 X34.7882 Y14.8725 F80.00
G01 X34.7795 Y14.8607 F80.00
G01 X34.7696 Y14.8498 F80.00
G01 X34.7587 Y14.8399 F80.00
G01 X34.7469 Y14.8312 F80.00
G01 X34.7343 Y14.8236 F80.00
G01 X34.7210 Y14.8173 F80.00
G01 X34.7071 Y14.8123 F80.00
G01 X34.6928 Y14.8088 F80.00
G01 X34.6783 Y14.8066 F80.00
G01 X34.6636 Y14.8059 F80.00
G01 X34.6489 Y14.8066 F80.00
G01 X34.6344 Y14.8088 F80.00
G01 X34.6201 Y14.8123 F80.00
G01 X34.6062 Y14.8173 F80.00
G01 X34.5929 Y14.8236 F80.00
G01 X34.5803 Y14.8312 F80.00
G01 X34.5685 Y14.8399 F80.00
G01 X34.5576 Y14.8498 F80.00
G01 X34.5477 Y14.8607 F80.00
G01 X34.5390 Y14.8725 F80.00
G01 X34.5314 Y14.8851 F80.00
G01 X34.5251 Y14.8984 F80.00
G01 X34.5201 Y14.9123 F80.00
G01 X34.5166 Y14.9266 F80.00
G01 X34.5144 Y14.9411 F80.00
G01 X34.5137 Y14.9558 F80.00
G01 X34.5144 Y14.9705 F80.00
G01 X34.5166 Y14.9850 F80.00
G01 X34.5201 Y14.9993 F80.00
G01 X34.5251 Y15.0132 F80.00
G01 X34.5314 Y15.0265 F80.00
G01 X34.5390 Y15.0391 F80.00
G01 X34.5477 Y15.0509 F80.00
G01 X34.5576 Y15.0618 F80.00
G01 X34.5685 Y15.0717 F80.00
G01 X34.5803 Y15.0804 F80.00
G01 X34.5929 Y15.0880 F80.00
G01 X34.6062 Y15.0943 F80.00
G01 X34.6201 Y15.0993 F80.00
G01 X34.6344 Y15.1028 F80.00
G01 X34.6489 Y15.1050 F80.00
G01 X34.6636 Y15.1057 F80.00
G01 X34.6783 Y15.1050 F80.00
G01 X34.6928 Y15.1028 F80.00
G01 X34.7071 Y15.0993 F80.00
G01 X34.7210 Y15.0943 F80.00
G01 X34.7343 Y15.0880 F80.00
G01 X34.7469 Y15.0804 F80.00
G01 X34.7587 Y15.0717 F80.00
G01 X34.7696 Y15.0618 F80.00
G01 X34.7795 Y15.0509 F80.00
G01 X34.7882 Y15.0391 F80.00
G01 X34.7958 Y15.0265 F80.00
G01 X34.8021 Y15.0132 F80.00
G01 X34.8071 Y14.9993 F80.00
G01 X34.8106 Y14.9850 F80.00
G01 X34.8128 Y14.9705 F80.00
G01 X34.8135 Y14.9558 F80.00
G00 Z2.0000
G00 X39.0578 Y12.2786
G01 F60.00
G01 Z-0.1000
G01 F80.00
G01 X39.0564 Y12.2493 F80.00
G01 X39.0521 Y12.2202 F80.00
G01 X39.0449 Y12.1916 F80.00
G01 X39.0350 Y12.1639 F80.00
G01 X39.0225 Y12.1373 F80.00
G01 X39.0073 Y12.1121 F80.00
G01 X38.9898 Y12.0885 F80.00
G01 X38.9700 Y12.0667 F80.00
G01 X38.9483 Y12.0469 F80.00
G01 X38.9246 Y12.0294 F80.00
G01 X38.8994 Y12.0143 F80.00
G01 X38.8728 Y12.0017 F80.00
G01 X38.8451 Y11.9918 F80.00
G01 X38.8166 Y11.9846 F80.00
G01 X38.7875 Y11.9803 F80.00
G01 X38.7581 Y11.9789 F80.00
G01 X38.7287 Y11.9803 F80.00
G01 X38.6996 Y11.9846 F80.00
G01 X38.6711 Y11.9918 F80.00
G01 X38.6434 Y12.0017 F80.00
G01 X38.6168 Y12.0143 F80.00
G01 X38.5915 Y12.0294 F80.00
G01 X38.5679 Y12.0469 F80.00
G01 X38.5461 Y12.0667 F80.00
G01 X38.5264 Y12.0885 F80.00
G01 X38.5088 Y12.1121 F80.00
G01 X38.4937 Y12.1373 F80.00
G01 X38.4811 Y12.1639 F80.00
G01 X38.4712 Y12.1916 F80.00
G01 X38.4641 Y12.2202 F80.00
G01 X38.4598 Y12.2493 F80.00
G01 X38.4583 Y12.2786 F80.00
G01 X38.4598 Y12.3080 F80.00
G01 X38.4641 Y12.3371 F80.00
G01 X38.4712 Y12.3657 F80.00
G01 X38.4811 Y12.3934 F80.00
G01 X38.4937 Y12.4199 F80.00
G01 X38.5088 Y12.4452 F80.00
G01 X38.5264 Y12.4688 F80.00
G01 X38.5461 Y12.4906 F80.00
G01 X38.5679 Y12.5104 F80.00
G01 X38.5915 Y12.5279 F80.00
G01 X38.6168 Y12.5430 F80.00
G01 X38.6434 Y12.5556 F80.00
G01 X38.6711 Y12.5655 F80.00
G01 X38.6996 Y12.5726 F80.00
G01 X38.7287 Y12.5770 F80.00
G01 X38.7581 Y12.5784 F80.00
G01 X38.7875 Y12.5770 F80.00
G01 X38.8166 Y12.5726 F80.00
G01 X38.8451 Y12.5655 F80.00
G01 X38.8728 Y12.5556 F80.00
G01 X38.8994 Y12.5430 F80.00
G01 X38.9246 Y12.5279 F80.00
G01 X38.9483 Y12.5104 F80.00
G01 X38.9700 Y12.4906 F80.00
G01 X38.9898 Y12.4688 F80.00
G01 X39.0073 Y12.4452 F80.00
G01 X39.0225 Y12.4199 F80.00
G01 X39.0350 Y12.3934 F80.00
G01 X39.0449 Y12.3657 F80.00
G01 X39.0521 Y12.3371 F80.00
G01 X39.0564 Y12.3080 F80.00
G01 X39.0578 Y12.2786 F80.00
G00 Z2.0000
G00 X36.5559 Y9.7767
G01 F60.00
G01 Z-0.1000
G01 F80.00
G01 X36.5545 Y9.7474 F80.00
G01 X36.5502 Y9.7183 F80.00
G01 X36.5430 Y9.6897 F80.00
G01 X36.5331 Y9.6620 F80.00
G01 X36.5206 Y9.6354 F80.00
G01 X36.5054 Y9.6102 F80.00
G01 X36.4879 Y9.5866 F80.00
G01 X36.4681 Y9.5648 F80.00
G01 X36.4464 Y9.5450 F80.00
G01 X36.4227 Y9.5275 F80.00
G01 X36.3975 Y9.5124 F80.00
G01 X36.3709 Y9.4998 F80.00
G01 X36.3432 Y9.4899 F80.00
G01 X36.3147 Y9.4827 F80.00
G01 X36.2856 Y9.4784 F80.00
G01 X36.2562 Y9.4770 F80.00
G01 X36.2268 Y9.4784 F80.00
G01 X36.1977 Y9.4827 F80.00
G01 X36.1692 Y9.4899 F80.00
G01 X36.1415 Y9.4998 F80.00
G01 X36.1149 Y9.5124 F80.00
G01 X36.0896 Y9.5275 F80.00
G01 X36.0660 Y9.5450 F80.00
G01 X36.0442 Y9.5648 F80.00
G01 X36.0245 Y9.5866 F80.00
G01 X36.0069 Y9.6102 F80.00
G01 X35.9918 Y9.6354 F80.00
G01 X35.9792 Y9.6620 F80.00
G01 X35.9693 Y9.6897 F80.00
G01 X35.9622 Y9.7183 F80.00
G01 X35.9579 Y9.7474 F80.00
G01 X35.9564 Y9.7767 F80.00
G01 X35.9579 Y9.8061 F80.00
G01 X35.9622 Y9.8352 F80.00
G01 X35.9693 Y9.8638 F80.00
G01 X35.9792 Y9.8915 F80.00
G01 X35.9918 Y9.9180 F80.00
G01 X36.0069 Y9.9433 F80.00
G01 X36.0245 Y9.9669 F80.00
G01 X36.0442 Y9.9887 F80.00
G01 X36.0660 Y10.0085 F80.00
G01 X36.0896 Y10.0260 F80.00
G01 X36.1149 Y10.0411 F80.00
G01 X36.1415 Y10.0537 F80.00
G01 X36.1692 Y10.0636 F80.00
G01 X36.1977 Y10.0707 F80.00
G01 X36.2268 Y10.0751 F80.00
G01 X36.2562 Y10.0765 F80.00
G01 X36.2856 Y10.0751 F80.00
G01 X36.3147 Y10.0707 F80.00
G01 X36.3432 Y10.0636 F80.00
G01 X36.3709 Y10.0537 F80.00
G01 X36.3975 Y10.0411 F80.00
G01 X36.4227 Y10.0260 F80.00
G01 X36.4464 Y10.0085 F80.00
G01 X36.4681 Y9.9887 F80.00
G01 X36.4879 Y9.9669 F80.00
G01 X36.5054 Y9.9433 F80.00
G01 X36.5206 Y9.9180 F80.00
G01 X36.5331 Y9.8915 F80.00
G01 X36.5430 Y9.8638 F80.00
G01 X36.5502 Y9.8352 F80.00
G01 X36.5545 Y9.8061 F80.00
G01 X36.5559 Y9.7767 F80.00
G00 Z2.0000
G00 X44.0540 Y9.7793
G01 F60.00
G01 Z-0.1000
G01 F80.00
G01 X44.0526 Y9.7499 F80.00
G01 X44.0483 Y9.7208 F80.00
G01 X44.0411 Y9.6923 F80.00
G01 X44.0312 Y9.6646 F80.00
G01 X44.0186 Y9.6380 F80.00
G01 X44.0035 Y9.6127 F80.00
G01 X43.9860 Y9.5891 F80.00
G01 X43.9662 Y9.5673 F80.00
G01 X43.9444 Y9.5476 F80.00
G01 X43.9208 Y9.5300 F80.00
G01 X43.8956 Y9.5149 F80.00
G01 X43.8690 Y9.5023 F80.00
G01 X43.8413 Y9.4924 F80.00
G01 X43.8127 Y9.4853 F80.00
G01 X43.7836 Y9.4810 F80.00
G01 X43.7543 Y9.4795 F80.00
G01 X43.7249 Y9.4810 F80.00
G01 X43.6958 Y9.4853 F80.00
G01 X43.6672 Y9.4924 F80.00
G01 X43.6395 Y9.5023 F80.00
G01 X43.6129 Y9.5149 F80.00
G01 X43.5877 Y9.5300 F80.00
G01 X43.5641 Y9.5476 F80.00
G01 X43.5423 Y9.5673 F80.00
G01 X43.5225 Y9.5891 F80.00
G01 X43.5050 Y9.6127 F80.00
G01 X43.4899 Y9.6380 F80.00
G01 X43.4773 Y9.6646 F80.00
G01 X43.4674 Y9.6923 F80.00
G01 X43.4602 Y9.7208 F80.00
G01 X43.4559 Y9.7499 F80.00
G01 X43.4545 Y9.7793 F80.00
G01 X43.4559 Y9.8087 F80.00
G01 X43.4602 Y9.8378 F80.00
G01 X43.4674 Y9.8663 F80.00
G01 X43.4773 Y9.8940 F80.00
G01 X43.4899 Y9.9206 F80.00
G01 X43.5050 Y9.9458 F80.00
G01 X43.5225 Y9.9695 F80.00
G01 X43.5423 Y9.9912 F80.00
G01 X43.5641 Y10.0110 F80.00
G01 X43.5877 Y10.0285 F80.00
G01 X43.6129 Y10.0437 F80.00
G01 X43.6395 Y10.0562 F80.00
G01 X43.6672 Y10.0661 F80.00
G01 X43.6958 Y10.0733 F80.00
G01 X43.7249 Y10.0776 F80.00
G01 X43.7543 Y10.0790 F80.00
G01 X43.7836 Y10.0776 F80.00
G01 X43.8127 Y10.0733 F80.00
G01 X43.8413 Y10.0661 F80.00
G01 X43.8690 Y10.0562 F80.00
G01 X43.8956 Y10.0437 F80.00
G01 X43.9208 Y10.0285 F80.00
G01 X43.9444 Y10.0110 F80.00
G01 X43.9662 Y9.9912 F80.00
G01 X43.9860 Y9.9695 F80.00
G01 X44.0035 Y9.9458 F80.00
G01 X44.0186 Y9.9206 F80.00
G01 X44.0312 Y9.8940 F80.00
G01 X44.0411 Y9.8663 F80.00
G01 X44.0483 Y9.8378 F80.00
G01 X44.0526 Y9.8087 F80.00
G01 X44.0540 Y9.7793 F80.00
G00 Z2.0000
G00 X43.2412 Y15.1361
G01 F60.00
G01 Z-0.1000
G01 F80.00
G01 X43.2412 Y15.1361 F80.00
G01 X43.2411 Y15.1361 F80.00
G01 X43.2412 Y15.1362 F80.00
G01 X43.2412 Y15.1361 F80.00
G00 Z2.0000
G00 X40.2872 Y17.5237
G01 F60.00
G01 Z-0.1000
G01 F80.00
G01 X40.2872 Y17.5237 F80.00
G01 X40.2871 Y17.5237 F80.00
G01 X40.2872 Y17.5238 F80.00
G01 X40.2872 Y17.5237 F80.00
G00 Z2.0000
G00 X47.3357 Y15.1336
G01 F60.00
G01 Z-0.1000
G01 F80.00
G01 X47.3350 Y15.1189 F80.00
G01 X47.3328 Y15.1044 F80.00
G01 X47.3293 Y15.0901 F80.00
G01 X47.3243 Y15.0762 F80.00
G01 X47.3180 Y15.0629 F80.00
G01 X47.3104 Y15.0503 F80.00
G01 X47.3017 Y15.0385 F80.00
G01 X47.2918 Y15.0276 F80.00
G01 X47.2809 Y15.0177 F80.00
G01 X47.2691 Y15.0090 F80.00
G01 X47.2565 Y15.0014 F80.00
G01 X47.2432 Y14.9951 F80.00
G01 X47.2293 Y14.9901 F80.00
G01 X47.2150 Y14.9866 F80.00
G01 X47.2005 Y14.9844 F80.00
G01 X47.1858 Y14.9837 F80.00
G01 X47.1711 Y14.9844 F80.00
G01 X47.1566 Y14.9866 F80.00
G01 X47.1423 Y14.9901 F80.00
G01 X47.1284 Y14.9951 F80.00
G01 X47.1151 Y15.0014 F80.00
G01 X47.1025 Y15.0090 F80.00
G01 X47.0907 Y15.0177 F80.00
G01 X47.0798 Y15.0276 F80.00
G01 X47.0699 Y15.0385 F80.00
G01 X47.0612 Y15.0503 F80.00
G01 X47.0536 Y15.0629 F80.00
G01 X47.0473 Y15.0762 F80.00
G01 X47.0423 Y15.0901 F80.00
G01 X47.0388 Y15.1044 F80.00
G01 X47.0366 Y15.1189 F80.00
G01 X47.0359 Y15.1336 F80.00
G01 X47.0366 Y15.1483 F80.00
G01 X47.0388 Y15.1628 F80.00
G01 X47.0423 Y15.1771 F80.00
G01 X47.0473 Y15.1910 F80.00
G01 X47.0536 Y15.2043 F80.00
G01 X47.0612 Y15.2169 F80.00
G01 X47.0699 Y15.2287 F80.00
G01 X47.0798 Y15.2396 F80.00
G01 X47.0907 Y15.2495 F80.00
G01 X47.1025 Y15.2582 F80.00
G01 X47.1151 Y15.2658 F80.00
G01 X47.1284 Y15.2721 F80.00
G01 X47.1423 Y15.2771 F80.00
G01 X47.1566 Y15.2806 F80.00
G01 X47.1711 Y15.2828 F80.00
G01 X47.1858 Y15.2835 F80.00
G01 X47.2005 Y15.2828 F80.00
G01 X47.2150 Y15.2806 F80.00
G01 X47.2293 Y15.2771 F80.00
G01 X47.2432 Y15.2721 F80.00
G01 X47.2565 Y15.2658 F80.00
G01 X47.2691 Y15.2582 F80.00
G01 X47.2809 Y15.2495 F80.00
G01 X47.2918 Y15.2396 F80.00
G01 X47.3017 Y15.2287 F80.00
G01 X47.3104 Y15.2169 F80.00
G01 X47.3180 Y15.2043 F80.00
G01 X47.3243 Y15.1910 F80.00
G01 X47.3293 Y15.1771 F80.00
G01 X47.3328 Y15.1628 F80.00
G01 X47.3350 Y15.1483 F80.00
G01 X47.3357 Y15.1336 F80.00
G00 Z2.0000
G00 X49.0502 Y12.2786
G01 F60.00
G01 Z-0.1000
G01 F80.00
G01 X49.0488 Y12.2493 F80.00
G01 X49.0444 Y12.2202 F80.00
G01 X49.0373 Y12.1916 F80.00
G01 X49.0274 Y12.1639 F80.00
G01 X49.0148 Y12.1373 F80.00
G01 X48.9997 Y12.1121 F80.00
G01 X48.9822 Y12.0885 F80.00
G01 X48.9624 Y12.0667 F80.00
G01 X48.9406 Y12.0469 F80.00
G01 X48.9170 Y12.0294 F80.00
G01 X48.8917 Y12.0143 F80.00
G01 X48.8652 Y12.0017 F80.00
G01 X48.8375 Y11.9918 F80.00
G01 X48.8089 Y11.9846 F80.00
G01 X48.7798 Y11.9803 F80.00
G01 X48.7504 Y11.9789 F80.00
G01 X48.7211 Y11.9803 F80.00
G01 X48.6920 Y11.9846 F80.00
G01 X48.6634 Y11.9918 F80.00
G01 X48.6357 Y12.0017 F80.00
G01 X48.6091 Y12.0143 F80.00
G01 X48.5839 Y12.0294 F80.00
G01 X48.5603 Y12.0469 F80.00
G01 X48.5385 Y12.0667 F80.00
G01 X48.5187 Y12.0885 F80.00
G01 X48.5012 Y12.1121 F80.00
G01 X48.4861 Y12.1373 F80.00
G01 X48.4735 Y12.1639 F80.00
G01 X48.4636 Y12.1916 F80.00
G01 X48.4564 Y12.2202 F80.00
G01 X48.4521 Y12.2493 F80.00
G01 X48.4507 Y12.2786 F80.00
G01 X48.4521 Y12.3080 F80.00
G01 X48.4564 Y12.3371 F80.00
G01 X48.4636 Y12.3657 F80.00
G01 X48.4735 Y12.3934 F80.00
G01 X48.4861 Y12.4199 F80.00
G01 X48.5012 Y12.4452 F80.00
G01 X48.5187 Y12.4688 F80.00
G01 X48.5385 Y12.4906 F80.00
G01 X48.5603 Y12.5104 F80.00
G01 X48.5839 Y12.5279 F80.00
G01 X48.6091 Y12.5430 F80.00
G01 X48.6357 Y12.5556 F80.00
G01 X48.6634 Y12.5655 F80.00
G01 X48.6920 Y12.5726 F80.00
G01 X48.7211 Y12.5770 F80.00
G01 X48.7504 Y12.5784 F80.00
G01 X48.7798 Y12.5770 F80.00
G01 X48.8089 Y12.5726 F80.00
G01 X48.8375 Y12.5655 F80.00
G01 X48.8652 Y12.5556 F80.00
G01 X48.8917 Y12.5430 F80.00
G01 X48.9170 Y12.5279 F80.00
G01 X48.9406 Y12.5104 F80.00
G01 X48.9624 Y12.4906 F80.00
G01 X48.9822 Y12.4688 F80.00
G01 X48.9997 Y12.4452 F80.00
G01 X49.0148 Y12.4199 F80.00
G01 X49.0274 Y12.3934 F80.00
G01 X49.0373 Y12.3657 F80.00
G01 X49.0444 Y12.3371 F80.00
G01 X49.0488 Y12.3080 F80.00
G01 X49.0502 Y12.2786 F80.00
G00 Z2.0000
G00 X51.5521 Y9.7767
G01 F60.00
G01 Z-0.1000
G01 F80.00
G01 X51.5507 Y9.7474 F80.00
G01 X51.5463 Y9.7183 F80.00
G01 X51.5392 Y9.6897 F80.00
G01 X51.5293 Y9.6620 F80.00
G01 X51.5167 Y9.6354 F80.00
G01 X51.5016 Y9.6102 F80.00
G01 X51.4841 Y9.5866 F80.00
G01 X51.4643 Y9.5648 F80.00
G01 X51.4425 Y9.5450 F80.00
G01 X51.4189 Y9.5275 F80.00
G01 X51.3936 Y9.5124 F80.00
G01 X51.3671 Y9.4998 F80.00
G01 X51.3394 Y9.4899 F80.00
G01 X51.3108 Y9.4827 F80.00
G01 X51.2817 Y9.4784 F80.00
G01 X51.2523 Y9.4770 F80.00
G01 X51.2230 Y9.4784 F80.00
G01 X51.1939 Y9.4827 F80.00
G01 X51.1653 Y9.4899 F80.00
G01 X51.1376 Y9.4998 F80.00
G01 X51.1110 Y9.5124 F80.00
G01 X51.0858 Y9.5275 F80.00
G01 X51.0622 Y9.5450 F80.00
G01 X51.0404 Y9.5648 F80.00
G01 X51.0206 Y9.5866 F80.00
G01 X51.0031 Y9.6102 F80.00
G01 X50.9880 Y9.6354 F80.00
G01 X50.9754 Y9.6620 F80.00
G01 X50.9655 Y9.6897 F80.00
G01 X50.9583 Y9.7183 F80.00
G01 X50.9540 Y9.7474 F80.00
G01 X50.9526 Y9.7767 F80.00
G01 X50.9540 Y9.8061 F80.00
G01 X50.9583 Y9.8352 F80.00
G01 X50.9655 Y9.8638 F80.00
G01 X50.9754 Y9.8915 F80.00
G01 X50.9880 Y9.9180 F80.00
G01 X51.0031 Y9.9433 F80.00
G01 X51.0206 Y9.9669 F80.00
G01 X51.0404 Y9.9887 F80.00
G01 X51.0622 Y10.0085 F80.00
G01 X51.0858 Y10.0260 F80.00
G01 X51.1110 Y10.0411 F80.00
G01 X51.1376 Y10.0537 F80.00
G01 X51.1653 Y10.0636 F80.00
G01 X51.1939 Y10.0707 F80.00
G01 X51.2230 Y10.0751 F80.00
G01 X51.2523 Y10.0765 F80.00
G01 X51.2817 Y10.0751 F80.00
G01 X51.3108 Y10.0707 F80.00
G01 X51.3394 Y10.0636 F80.00
G01 X51.3671 Y10.0537 F80.00
G01 X51.3936 Y10.0411 F80.00
G01 X51.4189 Y10.0260 F80.00
G01 X51.4425 Y10.0085 F80.00
G01 X51.4643 Y9.9887 F80.00
G01 X51.4841 Y9.9669 F80.00
G01 X51.5016 Y9.9433 F80.00
G01 X51.5167 Y9.9180 F80.00
G01 X51.5293 Y9.8915 F80.00
G01 X51.5392 Y9.8638 F80.00
G01 X51.5463 Y9.8352 F80.00
G01 X51.5507 Y9.8061 F80.00
G01 X51.5521 Y9.7767 F80.00
G00 Z2.0000
G00 X34.8135 Y25.9540
G01 F60.00
G01 Z-0.1000
G01 F80.00
G01 X34.8128 Y25.9393 F80.00
G01 X34.8106 Y25.9248 F80.00
G01 X34.8071 Y25.9105 F80.00
G01 X34.8021 Y25.8966 F80.00
G01 X34.7958 Y25.8833 F80.00
G01 X34.7882 Y25.8707 F80.00
G01 X34.7795 Y25.8589 F80.00
G01 X34.7696 Y25.8480 F80.00
G01 X34.7587 Y25.8381 F80.00
G01 X34.7469 Y25.8294 F80.00
G01 X34.7343 Y25.8218 F80.00
G01 X34.7210 Y25.8155 F80.00
G01 X34.7071 Y25.8105 F80.00
G01 X34.6928 Y25.8070 F80.00
G01 X34.6783 Y25.8048 F80.00
G01 X34.6636 Y25.8041 F80.00
G01 X34.6489 Y25.8048 F80.00
G01 X34.6344 Y25.8070 F80.00
G01 X34.6201 Y25.8105 F80.00
G01 X34.6062 Y25.8155 F80.00
G01 X34.5929 Y25.8218 F80.00
G01 X34.5803 Y25.8294 F80.00
G01 X34.5685 Y25.8381 F80.00
G01 X34.5576 Y25.8480 F80.00
G01 X34.5477 Y25.8589 F80.00
G01 X34.5390 Y25.8707 F80.00
G01 X34.5314 Y25.8833 F80.00
G01 X34.5251 Y25.8966 F80.00
G01 X34.5201 Y25.9105 F80.00
G01 X34.5166 Y25.9248 F80.00
G01 X34.5144 Y25.9393 F80.00
G01 X34.5137 Y25.9540 F80.00
G01 X34.5144 Y25.9687 F80.00
G01 X34.5166 Y25.9832 F80.00
G01 X34.5201 Y25.9975 F80.00
G01 X34.5251 Y26.0114 F80.00
G01 X34.5314 Y26.0247 F80.00
G01 X34.5390 Y26.0373 F80.00
G01 X34.5477 Y26.0491 F80.00
G01 X34.5576 Y26.0600 F80.00
G01 X34.5685 Y26.0699 F80.00
G01 X34.5803 Y26.0786 F80.00
G01 X34.5929 Y26.0862 F80.00
G01 X34.6062 Y26.0925 F80.00
G01 X34.6201 Y26.0975 F80.00
G01 X34.6344 Y26.1010 F80.00
G01 X34.6489 Y26.1032 F80.00
G01 X34.6636 Y26.1039 F80.00
G01 X34.6783 Y26.1032 F80.00
G01 X34.6928 Y26.1010 F80.00
G01 X34.7071 Y26.0975 F80.00
G01 X34.7210 Y26.0925 F80.00
G01 X34.7343 Y26.0862 F80.00
G01 X34.7469 Y26.0786 F80.00
G01 X34.7587 Y26.0699 F80.00
G01 X34.7696 Y26.0600 F80.00
G01 X34.7795 Y26.0491 F80.00
G01 X34.7882 Y26.0373 F80.00
G01 X34.7958 Y26.0247 F80.00
G01 X34.8021 Y26.0114 F80.00
G01 X34.8071 Y25.9975 F80.00
G01 X34.8106 Y25.9832 F80.00
G01 X34.8128 Y25.9687 F80.00
G01 X34.8135 Y25.9540 F80.00
G00 Z2.0000
G00 X24.6814 Y29.2814
G01 F60.00
G01 Z-0.1000
G01 F80.00
G01 X24.6814 Y29.2813 F80.00
G01 X24.6813 Y29.2814 F80.00
G01 X24.6814 Y29.2814 F80.00
G01 X24.6814 Y29.2814 F80.00
G00 Z2.0000
G00 X24.6814 Y31.8214
G01 F60.00
G01 Z-0.1000
G01 F80.00
G01 X24.6814 Y31.8213 F80.00
G01 X24.6813 Y31.8214 F80.00
G01 X24.6814 Y31.8214 F80.00
G01 X24.6814 Y31.8214 F80.00
G00 Z2.0000
G00 X24.6814 Y34.3614
G01 F60.00
G01 Z-0.1000
G01 F80.00
G01 X24.6814 Y34.3613 F80.00
G01 X24.6813 Y34.3614 F80.00
G01 X24.6814 Y34.3614 F80.00
G01 X24.6814 Y34.3614 F80.00
G00 Z2.0000
G00 X22.3167 Y36.9776
G01 F60.00
G01 Z-0.1000
G01 F80.00
G01 X22.3160 Y36.9629 F80.00
G01 X22.3138 Y36.9484 F80.00
G01 X22.3103 Y36.9341 F80.00
G01 X22.3053 Y36.9202 F80.00
G01 X22.2990 Y36.9069 F80.00
G01 X22.2914 Y36.8943 F80.00
G01 X22.2827 Y36.8825 F80.00
G01 X22.2728 Y36.8716 F80.00
G01 X22.2619 Y36.8617 F80.00
G01 X22.2501 Y36.8530 F80.00
G01 X22.2375 Y36.8454 F80.00
G01 X22.2242 Y36.8391 F80.00
G01 X22.2103 Y36.8341 F80.00
G01 X22.1960 Y36.8306 F80.00
G01 X22.1815 Y36.8284 F80.00
G01 X22.1668 Y36.8277 F80.00
G01 X22.1521 Y36.8284 F80.00
G01 X22.1376 Y36.8306 F80.00
G01 X22.1233 Y36.8341 F80.00
G01 X22.1094 Y36.8391 F80.00
G01 X22.0961 Y36.8454 F80.00
G01 X22.0835 Y36.8530 F80.00
G01 X22.0717 Y36.8617 F80.00
G01 X22.0608 Y36.8716 F80.00
G01 X22.0509 Y36.8825 F80.00
G01 X22.0422 Y36.8943 F80.00
G01 X22.0346 Y36.9069 F80.00
G01 X22.0283 Y36.9202 F80.00
G01 X22.0233 Y36.9341 F80.00
G01 X22.0198 Y36.9484 F80.00
G01 X22.0176 Y36.9629 F80.00
G01 X22.0169 Y36.9776 F80.00
G01 X22.0176 Y36.9923 F80.00
G01 X22.0198 Y37.0068 F80.00
G01 X22.0233 Y37.0211 F80.00
G01 X22.0283 Y37.0350 F80.00
