(G-CODE GENERATED BY FLATCAM v8.994 - www.flatcam.org - Version Date: 2020/11/7)

(Name: po_midi_adapter-B_Cu.gbr_iso_combined_cnc)
(Type: G-code from Geometry)
(Units: MM)

(Created on Wednesday, 11 August 2021 at 00:22)

(This preprocessor is used with a motion controller loaded with GRBL firmware.)
(It is configured to be compatible with almost any version of GRBL firmware.)

(TOOL DIAMETER: 0.2353 mm)
(Feedrate_XY: 80.0 mm/min)
(Feedrate_Z: 60.0 mm/min)
(Feedrate rapids 1500.0 mm/min)

(Z_Cut: -0.1001 mm)
(Z_Move: 2.0 mm)
(Z Start: None mm)
(Z End: 15.0 mm)
(X,Y End: None mm)
(Steps per circle: 64)
(Steps per circle: 64)
(Preprocessor Geometry: GRBL_11_no_M6)

(X range:    4.1551 ...   68.3529  mm)
(Y range:    3.0969 ...   66.6396  mm)

(Spindle Speed: 8000.0 RPM)
G21
G90
G17
G94


G01 F80.00

M5             
G00 Z15.0000
G00 X0.0000 Y0.0000                
T2
(MSG, Change to Tool Dia = 0.2353)
M0
G00 Z15.0000
        
M03 S8000.0
G01 F80.00
G00 X6.5799 Y3.0969
G01 F60.00
G01 Z-0.1001
G01 F80.00
G01 X56.9733 Y3.0969 F80.00
G01 X56.9946 Y3.0979 F80.00
G01 X57.0100 Y3.1001 F80.00
G01 X57.0185 Y3.1017 F80.00
G01 X57.0392 Y3.1071 F80.00
G01 X57.0539 Y3.1124 F80.00
G01 X57.0618 Y3.1158 F80.00
G01 X57.0758 Y3.1226 F80.00
G01 X57.0893 Y3.1305 F80.00
G01 X57.0965 Y3.1352 F80.00
G01 X57.1068 Y3.1427 F80.00
G01 X57.1135 Y3.1481 F80.00
G01 X57.1251 Y3.1586 F80.00
G01 X57.1396 Y3.1742 F80.00
G01 X57.1526 Y3.1912 F80.00
G01 X57.1624 Y3.2068 F80.00
G01 X57.1678 Y3.2170 F80.00
G01 X57.1732 Y3.2285 F80.00
G01 X57.1764 Y3.2365 F80.00
G01 X57.1824 Y3.2540 F80.00
G01 X57.1873 Y3.2748 F80.00
G01 X57.1899 Y3.2931 F80.00
G01 X57.1910 Y3.3144 F80.00
G01 X57.2159 Y29.6887 F80.00
G01 X57.2145 Y29.7132 F80.00
G01 X57.2200 Y29.7686 F80.00
G01 X57.2361 Y29.8218 F80.00
G01 X57.2624 Y29.8708 F80.00
G01 X57.2976 Y29.9138 F80.00
G01 X57.3406 Y29.9491 F80.00
G01 X57.3897 Y29.9753 F80.00
G01 X57.4429 Y29.9914 F80.00
G01 X57.4844 Y29.9955 F80.00
G01 X57.4986 Y29.9958 F80.00
G01 X57.5069 Y29.9955 F80.00
G01 X68.1381 Y29.9940 F80.00
G01 X68.1565 Y29.9950 F80.00
G01 X68.1776 Y29.9981 F80.00
G01 X68.1984 Y30.0033 F80.00
G01 X68.2185 Y30.0105 F80.00
G01 X68.2378 Y30.0197 F80.00
G01 X68.2561 Y30.0306 F80.00
G01 X68.2733 Y30.0434 F80.00
G01 X68.2871 Y30.0557 F80.00
G01 X68.3016 Y30.0713 F80.00
G01 X68.3129 Y30.0860 F80.00
G01 X68.3193 Y30.0956 F80.00
G01 X68.3258 Y30.1065 F80.00
G01 X68.3298 Y30.1142 F80.00
G01 X68.3374 Y30.1310 F80.00
G01 X68.3443 Y30.1512 F80.00
G01 X68.3492 Y30.1720 F80.00
G01 X68.3521 Y30.1932 F80.00
G01 X68.3529 Y30.2117 F80.00
G01 X68.3529 Y45.1886 F80.00
G01 X68.3519 Y45.2099 F80.00
G01 X68.3492 Y45.2282 F80.00
G01 X68.3451 Y45.2462 F80.00
G01 X68.3417 Y45.2572 F80.00
G01 X68.3363 Y45.2719 F80.00
G01 X68.3272 Y45.2912 F80.00
G01 X68.3162 Y45.3095 F80.00
G01 X68.3053 Y45.3244 F80.00
G01 X68.2931 Y45.3383 F80.00
G01 X68.2850 Y45.3465 F80.00
G01 X68.2711 Y45.3587 F80.00
G01 X68.2537 Y45.3712 F80.00
G01 X68.2378 Y45.3806 F80.00
G01 X68.2185 Y45.3897 F80.00
G01 X68.1984 Y45.3969 F80.00
G01 X68.1833 Y45.4008 F80.00
G01 X68.1720 Y45.4031 F80.00
G01 X68.1537 Y45.4055 F80.00
G01 X68.1352 Y45.4063 F80.00
G01 X68.1139 Y45.4052 F80.00
G01 X68.0927 Y45.4021 F80.00
G01 X68.0748 Y45.3977 F80.00
G01 X68.0573 Y45.3918 F80.00
G01 X68.0466 Y45.3874 F80.00
G01 X68.0326 Y45.3806 F80.00
G01 X68.0143 Y45.3696 F80.00
G01 X67.9971 Y45.3569 F80.00
G01 X67.9833 Y45.3445 F80.00
G01 X67.6592 Y45.0205 F80.00
G01 X67.6467 Y45.0068 F80.00
G01 X67.6380 Y44.9963 F80.00
G01 X67.5716 Y44.9417 F80.00
G01 X67.4958 Y44.9012 F80.00
G01 X67.4135 Y44.8763 F80.00
G01 X67.3280 Y44.8678 F80.00
G01 X67.3143 Y44.8692 F80.00
G01 X67.2959 Y44.8700 F80.00
G01 X57.4998 Y44.8700 F80.00
G01 X57.4814 Y44.8692 F80.00
G01 X57.4677 Y44.8678 F80.00
G01 X57.3822 Y44.8763 F80.00
G01 X57.2999 Y44.9012 F80.00
G01 X57.2242 Y44.9417 F80.00
G01 X57.1577 Y44.9963 F80.00
G01 X57.1490 Y45.0068 F80.00
G01 X57.1365 Y45.0205 F80.00
G01 X56.3920 Y45.7650 F80.00
G01 X56.3784 Y45.7775 F80.00
G01 X56.3678 Y45.7862 F80.00
G01 X56.3133 Y45.8526 F80.00
G01 X56.2727 Y45.9284 F80.00
G01 X56.2478 Y46.0107 F80.00
G01 X56.2394 Y46.0962 F80.00
G01 X56.2407 Y46.1099 F80.00
G01 X56.2415 Y46.1283 F80.00
G01 X56.2415 Y48.7285 F80.00
G01 X56.2407 Y48.7470 F80.00
G01 X56.2394 Y48.7607 F80.00
G01 X56.2478 Y48.8462 F80.00
G01 X56.2727 Y48.9284 F80.00
G01 X56.3133 Y49.0042 F80.00
G01 X56.3678 Y49.0707 F80.00
G01 X56.3784 Y49.0794 F80.00
G01 X56.3920 Y49.0919 F80.00
G01 X58.9617 Y51.6616 F80.00
G01 X58.9722 Y51.6730 F80.00
G01 X58.9778 Y51.6797 F80.00
G01 X58.9871 Y51.6922 F80.00
G01 X58.9918 Y51.6994 F80.00
G01 X58.9997 Y51.7129 F80.00
G01 X59.0065 Y51.7269 F80.00
G01 X59.0099 Y51.7349 F80.00
G01 X59.0161 Y51.7523 F80.00
G01 X59.0206 Y51.7702 F80.00
G01 X59.0222 Y51.7787 F80.00
G01 X59.0244 Y51.7942 F80.00
G01 X59.0254 Y51.8155 F80.00
G01 X59.0246 Y51.8340 F80.00
G01 X59.0237 Y51.8426 F80.00
G01 X59.0212 Y51.8580 F80.00
G01 X59.0161 Y51.8787 F80.00
G01 X59.0089 Y51.8988 F80.00
G01 X59.0023 Y51.9130 F80.00
G01 X58.9983 Y51.9207 F80.00
G01 X58.9887 Y51.9365 F80.00
G01 X58.9778 Y51.9514 F80.00
G01 X58.9722 Y51.9580 F80.00
G01 X58.9617 Y51.9694 F80.00
G01 X58.9480 Y51.9819 F80.00
G01 X58.9413 Y51.9873 F80.00
G01 X58.9287 Y51.9965 F80.00
G01 X58.9154 Y52.0047 F80.00
G01 X58.9078 Y52.0088 F80.00
G01 X58.8937 Y52.0155 F80.00
G01 X58.8856 Y52.0187 F80.00
G01 X58.8709 Y52.0238 F80.00
G01 X58.8530 Y52.0284 F80.00
G01 X58.8319 Y52.0318 F80.00
G01 X58.8106 Y52.0332 F80.00
G01 X58.7206 Y52.0332 F80.00
G01 X58.6741 Y52.0378 F80.00
G01 X58.6398 Y52.0482 F80.00
G01 X58.6081 Y52.0651 F80.00
G01 X58.5803 Y52.0879 F80.00
G01 X58.5576 Y52.1157 F80.00
G01 X58.5406 Y52.1473 F80.00
G01 X58.5302 Y52.1817 F80.00
G01 X58.5256 Y52.2281 F80.00
G01 X58.5256 Y53.8067 F80.00
G01 X58.5302 Y53.8532 F80.00
G01 X58.5406 Y53.8875 F80.00
G01 X58.5576 Y53.9192 F80.00
G01 X58.5803 Y53.9470 F80.00
G01 X58.6081 Y53.9697 F80.00
G01 X58.6398 Y53.9867 F80.00
G01 X58.6741 Y53.9971 F80.00
G01 X58.7206 Y54.0017 F80.00
G01 X60.2992 Y54.0017 F80.00
G01 X60.3456 Y53.9971 F80.00
G01 X60.3800 Y53.9867 F80.00
G01 X60.4116 Y53.9697 F80.00
G01 X60.4394 Y53.9470 F80.00
G01 X60.4622 Y53.9192 F80.00
G01 X60.4791 Y53.8875 F80.00
G01 X60.4895 Y53.8532 F80.00
G01 X60.4941 Y53.8067 F80.00
G01 X60.4941 Y52.2281 F80.00
G01 X60.4895 Y52.1817 F80.00
G01 X60.4791 Y52.1473 F80.00
G01 X60.4622 Y52.1157 F80.00
G01 X60.4394 Y52.0879 F80.00
G01 X60.4116 Y52.0651 F80.00
G01 X60.3800 Y52.0482 F80.00
G01 X60.3456 Y52.0378 F80.00
G01 X60.2992 Y52.0332 F80.00
G01 X60.1610 Y52.0332 F80.00
G01 X60.1397 Y52.0318 F80.00
G01 X60.1186 Y52.0284 F80.00
G01 X60.1007 Y52.0238 F80.00
G01 X60.0832 Y52.0177 F80.00
G01 X60.0664 Y52.0101 F80.00
G01 X60.0587 Y52.0061 F80.00
G01 X60.0429 Y51.9965 F80.00
G01 X60.0280 Y51.9856 F80.00
G01 X60.0214 Y51.9800 F80.00
G01 X60.0079 Y51.9674 F80.00
G01 X59.9956 Y51.9536 F80.00
G01 X59.9845 Y51.9388 F80.00
G01 X59.9747 Y51.9232 F80.00
G01 X59.9693 Y51.9130 F80.00
G01 X59.9627 Y51.8988 F80.00
G01 X59.9556 Y51.8787 F80.00
G01 X59.9504 Y51.8580 F80.00
G01 X59.9479 Y51.8426 F80.00
G01 X59.9470 Y51.8340 F80.00
G01 X59.9462 Y51.8155 F80.00
G01 X59.9462 Y51.6249 F80.00
G01 X59.9470 Y51.6064 F80.00
G01 X59.9483 Y51.5928 F80.00
G01 X59.9399 Y51.5072 F80.00
G01 X59.9149 Y51.4250 F80.00
G01 X59.8744 Y51.3492 F80.00
G01 X59.8199 Y51.2828 F80.00
G01 X59.8093 Y51.2740 F80.00
G01 X59.7957 Y51.2615 F80.00
G01 X57.1778 Y48.6437 F80.00
G01 X57.1635 Y48.6279 F80.00
G01 X57.1508 Y48.6107 F80.00
G01 X57.1398 Y48.5924 F80.00
G01 X57.1306 Y48.5731 F80.00
G01 X57.1235 Y48.5530 F80.00
G01 X57.1183 Y48.5322 F80.00
G01 X57.1151 Y48.5111 F80.00
G01 X57.1141 Y48.4898 F80.00
G01 X57.1141 Y46.3642 F80.00
G01 X57.1151 Y46.3458 F80.00
G01 X57.1183 Y46.3246 F80.00
G01 X57.1235 Y46.3039 F80.00
G01 X57.1296 Y46.2865 F80.00
G01 X57.1372 Y46.2696 F80.00
G01 X57.1426 Y46.2594 F80.00
G01 X57.1524 Y46.2438 F80.00
G01 X57.1654 Y46.2268 F80.00
G01 X57.1778 Y46.2132 F80.00
G01 X57.5847 Y45.8063 F80.00
G01 X57.5983 Y45.7938 F80.00
G01 X57.6153 Y45.7809 F80.00
G01 X57.6310 Y45.7711 F80.00
G01 X57.6411 Y45.7657 F80.00
G01 X57.6580 Y45.7581 F80.00
G01 X57.6754 Y45.7519 F80.00
G01 X57.6961 Y45.7467 F80.00
G01 X57.7173 Y45.7436 F80.00
G01 X57.7357 Y45.7426 F80.00
G01 X67.0452 Y45.7426 F80.00
G01 X67.0636 Y45.7436 F80.00
G01 X67.0848 Y45.7467 F80.00
G01 X67.1055 Y45.7519 F80.00
G01 X67.1202 Y45.7571 F80.00
G01 X67.1309 Y45.7615 F80.00
G01 X67.1475 Y45.7697 F80.00
G01 X67.1632 Y45.7792 F80.00
G01 X67.1804 Y45.7920 F80.00
G01 X67.1962 Y45.8063 F80.00
G01 X67.2068 Y45.8178 F80.00
G01 X67.2141 Y45.8267 F80.00
G01 X67.2249 Y45.8417 F80.00
G01 X67.2343 Y45.8576 F80.00
G01 X67.2434 Y45.8769 F80.00
G01 X67.2506 Y45.8971 F80.00
G01 X67.2545 Y45.9122 F80.00
G01 X67.2563 Y45.9206 F80.00
G01 X67.2586 Y45.9360 F80.00
G01 X67.2594 Y45.9447 F80.00
G01 X67.2600 Y45.9603 F80.00
G01 X67.2600 Y48.2815 F80.00
G01 X67.2592 Y48.3000 F80.00
G01 X67.2579 Y48.3136 F80.00
G01 X67.2666 Y48.4016 F80.00
G01 X67.2690 Y48.4129 F80.00
G01 X67.2716 Y48.4312 F80.00
G01 X67.2727 Y48.4525 F80.00
G01 X67.2727 Y57.7938 F80.00
G01 X67.2719 Y57.8122 F80.00
G01 X67.2709 Y57.8209 F80.00
G01 X67.2685 Y57.8363 F80.00
G01 X67.2649 Y57.8514 F80.00
G01 X67.2625 Y57.8597 F80.00
G01 X67.2561 Y57.8771 F80.00
G01 X67.2496 Y57.8912 F80.00
G01 X67.2456 Y57.8989 F80.00
G01 X67.2360 Y57.9147 F80.00
G01 X67.2268 Y57.9273 F80.00
G01 X67.2214 Y57.9341 F80.00
G01 X67.2089 Y57.9477 F80.00
G01 X63.5433 Y61.6134 F80.00
G01 X63.5274 Y61.6277 F80.00
G01 X63.5103 Y61.6404 F80.00
G01 X63.4920 Y61.6514 F80.00
G01 X63.4779 Y61.6582 F80.00
G01 X63.4700 Y61.6616 F80.00
G01 X63.4525 Y61.6678 F80.00
G01 X63.4318 Y61.6730 F80.00
G01 X63.4107 Y61.6761 F80.00
G01 X63.3893 Y61.6771 F80.00
G01 X60.5166 Y61.6771 F80.00
G01 X60.5010 Y61.6765 F80.00
G01 X60.4924 Y61.6758 F80.00
G01 X60.4713 Y61.6724 F80.00
G01 X60.4562 Y61.6686 F80.00
G01 X60.4479 Y61.6660 F80.00
G01 X60.4333 Y61.6606 F80.00
G01 X60.4191 Y61.6540 F80.00
G01 X60.4114 Y61.6500 F80.00
G01 X60.3981 Y61.6420 F80.00
G01 X60.3909 Y61.6371 F80.00
G01 X60.3785 Y61.6277 F80.00
G01 X60.3627 Y61.6134 F80.00
G01 X60.3521 Y61.6019 F80.00
G01 X60.3465 Y61.5953 F80.00
G01 X60.3372 Y61.5828 F80.00
G01 X60.3325 Y61.5755 F80.00
G01 X60.3233 Y61.5595 F80.00
G01 X60.3144 Y61.5401 F80.00
G01 X60.3075 Y61.5199 F80.00
G01 X60.3025 Y61.4991 F80.00
G01 X60.2999 Y61.4808 F80.00
G01 X60.2990 Y61.4652 F80.00
G01 X60.2989 Y61.4101 F80.00
G01 X60.2943 Y61.3637 F80.00
G01 X60.2839 Y61.3293 F80.00
G01 X60.2670 Y61.2977 F80.00
G01 X60.2442 Y61.2699 F80.00
G01 X60.2164 Y61.2471 F80.00
G01 X60.1848 Y61.2302 F80.00
G01 X60.1504 Y61.2198 F80.00
G01 X60.1040 Y61.2152 F80.00
G01 X58.6974 Y61.2152 F80.00
G01 X58.6509 Y61.2198 F80.00
G01 X58.6166 Y61.2302 F80.00
G01 X58.5849 Y61.2471 F80.00
G01 X58.5571 Y61.2699 F80.00
G01 X58.5343 Y61.2977 F80.00
G01 X58.5174 Y61.3293 F80.00
G01 X58.5070 Y61.3637 F80.00
G01 X58.5024 Y61.4101 F80.00
G01 X58.5024 Y62.8167 F80.00
G01 X58.5070 Y62.8632 F80.00
G01 X58.5174 Y62.8975 F80.00
G01 X58.5343 Y62.9292 F80.00
G01 X58.5571 Y62.9570 F80.00
G01 X58.5849 Y62.9797 F80.00
G01 X58.6166 Y62.9967 F80.00
G01 X58.6509 Y63.0071 F80.00
G01 X58.6974 Y63.0117 F80.00
G01 X60.1040 Y63.0117 F80.00
G01 X60.1504 Y63.0071 F80.00
G01 X60.1848 Y62.9967 F80.00
G01 X60.2164 Y62.9797 F80.00
G01 X60.2442 Y62.9570 F80.00
G01 X60.2670 Y62.9292 F80.00
G01 X60.2839 Y62.8975 F80.00
G01 X60.2943 Y62.8632 F80.00
G01 X60.2989 Y62.8167 F80.00
G01 X60.2989 Y62.7674 F80.00
G01 X60.2997 Y62.7490 F80.00
G01 X60.3006 Y62.7404 F80.00
G01 X60.3037 Y62.7221 F80.00
G01 X60.3091 Y62.7015 F80.00
G01 X60.3144 Y62.6868 F80.00
G01 X60.3178 Y62.6788 F80.00
G01 X60.3233 Y62.6674 F80.00
G01 X60.3274 Y62.6598 F80.00
G01 X60.3356 Y62.6465 F80.00
G01 X60.3448 Y62.6339 F80.00
G01 X60.3502 Y62.6271 F80.00
G01 X60.3606 Y62.6156 F80.00
G01 X60.3763 Y62.6010 F80.00
G01 X60.3933 Y62.5881 F80.00
G01 X60.4114 Y62.5768 F80.00
G01 X60.4191 Y62.5728 F80.00
G01 X60.4333 Y62.5663 F80.00
G01 X60.4534 Y62.5591 F80.00
G01 X60.4741 Y62.5539 F80.00
G01 X60.4953 Y62.5508 F80.00
G01 X60.5166 Y62.5497 F80.00
G01 X62.2579 Y62.5497 F80.00
G01 X62.2735 Y62.5504 F80.00
G01 X62.2821 Y62.5511 F80.00
G01 X62.3004 Y62.5539 F80.00
G01 X62.3155 Y62.5576 F80.00
G01 X62.3239 Y62.5600 F80.00
G01 X62.3412 Y62.5663 F80.00
G01 X62.3554 Y62.5728 F80.00
G01 X62.3631 Y62.5768 F80.00
G01 X62.3764 Y62.5849 F80.00
G01 X62.3836 Y62.5898 F80.00
G01 X62.3960 Y62.5992 F80.00
G01 X62.4098 Y62.6115 F80.00
G01 X62.4158 Y62.6177 F80.00
G01 X62.4262 Y62.6293 F80.00
G01 X62.4356 Y62.6418 F80.00
G01 X62.4405 Y62.6489 F80.00
G01 X62.4499 Y62.6648 F80.00
G01 X62.4590 Y62.6841 F80.00
G01 X62.4662 Y62.7042 F80.00
G01 X62.4714 Y62.7250 F80.00
G01 X62.4742 Y62.7432 F80.00
G01 X62.4756 Y62.7646 F80.00
G01 X62.4748 Y62.7859 F80.00
G01 X62.4720 Y62.8071 F80.00
G01 X62.4678 Y62.8251 F80.00
G01 X62.4654 Y62.8334 F80.00
G01 X62.4601 Y62.8481 F80.00
G01 X62.4525 Y62.8649 F80.00
G01 X62.4471 Y62.8751 F80.00
G01 X62.4405 Y62.8860 F80.00
G01 X62.4356 Y62.8931 F80.00
G01 X62.4243 Y62.9078 F80.00
G01 X62.4098 Y62.9234 F80.00
G01 X62.3938 Y62.9375 F80.00
G01 X62.3764 Y62.9500 F80.00
G01 X62.3605 Y62.9594 F80.00
G01 X62.3412 Y62.9686 F80.00
G01 X62.3211 Y62.9758 F80.00
G01 X62.3032 Y62.9804 F80.00
G01 X61.9339 Y63.0539 F80.00
G01 X61.5989 Y63.1926 F80.00
G01 X61.2975 Y63.3940 F80.00
G01 X61.0412 Y63.6503 F80.00
G01 X60.8398 Y63.9517 F80.00
G01 X60.7011 Y64.2866 F80.00
G01 X60.6304 Y64.6422 F80.00
G01 X60.6304 Y65.0047 F80.00
G01 X60.7011 Y65.3602 F80.00
G01 X60.8398 Y65.6951 F80.00
G01 X61.0412 Y65.9966 F80.00
G01 X61.3146 Y66.2700 F80.00
G01 X61.3269 Y66.2838 F80.00
G01 X61.3380 Y66.2985 F80.00
G01 X61.3478 Y66.3142 F80.00
G01 X61.3532 Y66.3244 F80.00
G01 X61.3598 Y66.3386 F80.00
G01 X61.3670 Y66.3587 F80.00
G01 X61.3721 Y66.3794 F80.00
G01 X61.3750 Y66.3977 F80.00
G01 X61.3762 Y66.4161 F80.00
G01 X61.3762 Y66.4277 F80.00
G01 X61.3753 Y66.4433 F80.00
G01 X61.3721 Y66.4644 F80.00
G01 X61.3669 Y66.4851 F80.00
G01 X61.3608 Y66.5026 F80.00
G01 X61.3532 Y66.5194 F80.00
G01 X61.3477 Y66.5296 F80.00
G01 X61.3396 Y66.5429 F80.00
G01 X61.3268 Y66.5600 F80.00
G01 X61.3125 Y66.5759 F80.00
G01 X61.2989 Y66.5883 F80.00
G01 X61.2819 Y66.6013 F80.00
G01 X61.2662 Y66.6111 F80.00
G01 X61.2586 Y66.6152 F80.00
G01 X61.2471 Y66.6207 F80.00
G01 X61.2364 Y66.6251 F80.00
G01 X61.2189 Y66.6310 F80.00
G01 X61.1981 Y66.6359 F80.00
G01 X61.1798 Y66.6385 F80.00
G01 X61.1585 Y66.6396 F80.00
G01 X50.6499 Y66.6322 F80.00
G01 X50.6315 Y66.6314 F80.00
G01 X50.6229 Y66.6304 F80.00
G01 X50.6075 Y66.6280 F80.00
G01 X50.5868 Y66.6228 F80.00
G01 X50.5666 Y66.6156 F80.00
G01 X50.5473 Y66.6064 F80.00
G01 X50.5290 Y66.5954 F80.00
G01 X50.5164 Y66.5862 F80.00
G01 X50.5097 Y66.5808 F80.00
G01 X50.4940 Y66.5663 F80.00
G01 X50.4799 Y66.5503 F80.00
G01 X50.4674 Y66.5329 F80.00
G01 X50.4594 Y66.5196 F80.00
G01 X50.4554 Y66.5119 F80.00
G01 X50.4501 Y66.5004 F80.00
G01 X50.4468 Y66.4923 F80.00
G01 X50.4417 Y66.4776 F80.00
G01 X50.4378 Y66.4625 F80.00
G01 X50.4360 Y66.4540 F80.00
G01 X50.4337 Y66.4386 F80.00
G01 X50.4324 Y66.4173 F80.00
G01 X50.4325 Y66.4087 F80.00
G01 X50.4334 Y66.3931 F80.00
G01 X50.4366 Y66.3720 F80.00
G01 X50.4418 Y66.3512 F80.00
G01 X50.4490 Y66.3311 F80.00
G01 X50.4581 Y66.3118 F80.00
G01 X50.4691 Y66.2935 F80.00
G01 X50.4818 Y66.2764 F80.00
G01 X50.4941 Y66.2626 F80.00
G01 X50.7601 Y65.9966 F80.00
G01 X50.9615 Y65.6951 F80.00
G01 X51.1002 Y65.3602 F80.00
G01 X51.1710 Y65.0047 F80.00
G01 X51.1710 Y64.6422 F80.00
G01 X51.1002 Y64.2866 F80.00
G01 X50.9615 Y63.9517 F80.00
G01 X50.7601 Y63.6503 F80.00
G01 X50.5038 Y63.3940 F80.00
G01 X50.2024 Y63.1926 F80.00
G01 X49.8675 Y63.0539 F80.00
G01 X49.5119 Y62.9831 F80.00
G01 X49.1494 Y62.9831 F80.00
G01 X48.7939 Y63.0539 F80.00
G01 X48.4589 Y63.1926 F80.00
G01 X48.1575 Y63.3940 F80.00
G01 X47.9012 Y63.6503 F80.00
G01 X47.6998 Y63.9517 F80.00
G01 X47.5611 Y64.2866 F80.00
G01 X47.4904 Y64.6422 F80.00
G01 X47.4904 Y65.0047 F80.00
G01 X47.5611 Y65.3602 F80.00
G01 X47.6998 Y65.6951 F80.00
G01 X47.9012 Y65.9966 F80.00
G01 X48.1633 Y66.2587 F80.00
G01 X48.1758 Y66.2723 F80.00
G01 X48.1812 Y66.2791 F80.00
G01 X48.1904 Y66.2917 F80.00
G01 X48.2000 Y66.3075 F80.00
G01 X48.2040 Y66.3152 F80.00
G01 X48.2105 Y66.3293 F80.00
G01 X48.2159 Y66.3440 F80.00
G01 X48.2185 Y66.3522 F80.00
G01 X48.2229 Y66.3702 F80.00
G01 X48.2260 Y66.3913 F80.00
G01 X48.2269 Y66.4069 F80.00
G01 X48.2271 Y66.4156 F80.00
G01 X48.2263 Y66.4311 F80.00
G01 X48.2253 Y66.4397 F80.00
G01 X48.2229 Y66.4552 F80.00
G01 X48.2192 Y66.4703 F80.00
G01 X48.2168 Y66.4786 F80.00
G01 X48.2116 Y66.4933 F80.00
G01 X48.2027 Y66.5128 F80.00
G01 X48.1985 Y66.5203 F80.00
G01 X48.1903 Y66.5336 F80.00
G01 X48.1776 Y66.5508 F80.00
G01 X48.1633 Y66.5666 F80.00
G01 X48.1518 Y66.5772 F80.00
G01 X48.1452 Y66.5828 F80.00
G01 X48.1278 Y66.5953 F80.00
G01 X48.1144 Y66.6033 F80.00
G01 X48.1067 Y66.6073 F80.00
G01 X48.0952 Y66.6127 F80.00
G01 X48.0872 Y66.6159 F80.00
G01 X48.0725 Y66.6210 F80.00
G01 X48.0574 Y66.6249 F80.00
G01 X48.0489 Y66.6267 F80.00
G01 X48.0335 Y66.6290 F80.00
G01 X48.0121 Y66.6303 F80.00
G01 X46.9109 Y66.6295 F80.00
G01 X46.8925 Y66.6287 F80.00
G01 X46.8839 Y66.6278 F80.00
G01 X46.8685 Y66.6253 F80.00
G01 X46.8478 Y66.6201 F80.00
G01 X46.8277 Y66.6129 F80.00
G01 X46.8135 Y66.6064 F80.00
G01 X46.8059 Y66.6024 F80.00
G01 X46.7925 Y66.5944 F80.00
G01 X46.7854 Y66.5895 F80.00
G01 X46.7729 Y66.5801 F80.00
G01 X46.7613 Y66.5697 F80.00
G01 X46.7551 Y66.5637 F80.00
G01 X46.7446 Y66.5521 F80.00
G01 X46.7317 Y66.5351 F80.00
G01 X46.7219 Y66.5195 F80.00
G01 X46.7178 Y66.5119 F80.00
G01 X46.7100 Y66.4951 F80.00
G01 X46.7036 Y66.4778 F80.00
G01 X46.7012 Y66.4695 F80.00
G01 X46.6970 Y66.4515 F80.00
G01 X46.6944 Y66.4332 F80.00
G01 X46.6934 Y66.4147 F80.00
G01 X46.6934 Y64.6751 F80.00
G01 X46.6948 Y64.6505 F80.00
G01 X46.6892 Y64.5951 F80.00
G01 X46.6730 Y64.5419 F80.00
G01 X46.6602 Y64.5180 F80.00
G01 X46.6467 Y64.4929 F80.00
G01 X46.6114 Y64.4500 F80.00
G01 X46.5683 Y64.4148 F80.00
G01 X46.5192 Y64.3887 F80.00
G01 X46.4660 Y64.3726 F80.00
G01 X46.4111 Y64.3672 F80.00
G01 X46.3865 Y64.3686 F80.00
G01 X5.8900 Y64.4320 F80.00
G01 X5.8749 Y64.4314 F80.00
G01 X5.6257 Y64.4118 F80.00
G01 X5.6067 Y64.4094 F80.00
G01 X5.5879 Y64.4054 F80.00
G01 X5.2998 Y64.3304 F80.00
G01 X5.2795 Y64.3240 F80.00
G01 X5.2626 Y64.3169 F80.00
G01 X4.9963 Y64.1883 F80.00
G01 X4.9777 Y64.1781 F80.00
G01 X4.9601 Y64.1661 F80.00
G01 X4.7262 Y63.9899 F80.00
G01 X4.7099 Y63.9763 F80.00
G01 X4.6949 Y63.9611 F80.00
G01 X4.4979 Y63.7407 F80.00
G01 X4.4864 Y63.7263 F80.00
G01 X4.4761 Y63.7110 F80.00
G01 X4.3446 Y63.4887 F80.00
G01 X4.3339 Y63.4678 F80.00
G01 X4.3280 Y63.4532 F80.00
G01 X4.3251 Y63.4445 F80.00
G01 X4.3201 Y63.4260 F80.00
G01 X4.1602 Y62.7040 F80.00
G01 X4.1564 Y62.6806 F80.00
G01 X4.1551 Y62.6569 F80.00
G01 X4.1580 Y34.9323 F80.00
G01 X4.1586 Y34.9167 F80.00
G01 X4.1594 Y34.9081 F80.00
G01 X4.1617 Y34.8926 F80.00
G01 X4.1634 Y34.8842 F80.00
G01 X4.1674 Y34.8691 F80.00
G01 X4.1725 Y34.8543 F80.00
G01 X4.1757 Y34.8463 F80.00
G01 X4.1837 Y34.8297 F80.00
G01 X4.1916 Y34.8162 F80.00
G01 X4.1963 Y34.8089 F80.00
G01 X4.2056 Y34.7964 F80.00
G01 X4.2112 Y34.7898 F80.00
G01 X4.2218 Y34.7783 F80.00
G01 X4.2332 Y34.7678 F80.00
G01 X4.2399 Y34.7622 F80.00
G01 X4.2548 Y34.7513 F80.00
G01 X4.2731 Y34.7403 F80.00
G01 X4.2897 Y34.7323 F80.00
G01 X4.3070 Y34.7258 F80.00
G01 X4.3181 Y34.7224 F80.00
G01 X4.3332 Y34.7188 F80.00
G01 X4.3544 Y34.7156 F80.00
G01 X4.3757 Y34.7146 F80.00
G01 X4.3942 Y34.7154 F80.00
G01 X4.4125 Y34.7178 F80.00
G01 X4.4238 Y34.7200 F80.00
G01 X4.4416 Y34.7248 F80.00
G01 X4.4617 Y34.7323 F80.00
G01 X4.4783 Y34.7403 F80.00
G01 X4.4966 Y34.7513 F80.00
G01 X4.5138 Y34.7640 F80.00
G01 X4.5254 Y34.7744 F80.00
G01 X6.8890 Y37.1377 F80.00
G01 X6.9034 Y37.1536 F80.00
G01 X6.9128 Y37.1660 F80.00
G01 X6.9177 Y37.1731 F80.00
G01 X6.9257 Y37.1865 F80.00
G01 X6.9297 Y37.1942 F80.00
G01 X6.9362 Y37.2084 F80.00
G01 X6.9416 Y37.2230 F80.00
G01 X6.9449 Y37.2340 F80.00
G01 X6.9491 Y37.2520 F80.00
G01 X6.9517 Y37.2703 F80.00
G01 X6.9528 Y37.2917 F80.00
G01 X6.9528 Y39.7619 F80.00
G01 X6.9517 Y39.7832 F80.00
G01 X6.9491 Y39.8015 F80.00
G01 X6.9449 Y39.8195 F80.00
G01 X6.9425 Y39.8278 F80.00
G01 X6.9362 Y39.8452 F80.00
G01 X6.9297 Y39.8593 F80.00
G01 X6.9257 Y39.8670 F80.00
G01 X6.9161 Y39.8828 F80.00
G01 X6.9069 Y39.8954 F80.00
G01 X6.9015 Y39.9022 F80.00
G01 X6.8910 Y39.9137 F80.00
G01 X6.8848 Y39.9198 F80.00
G01 X6.8732 Y39.9301 F80.00
G01 X6.8607 Y39.9396 F80.00
G01 X6.7310 Y40.0264 F80.00
G01 X6.5872 Y40.1702 F80.00
G01 X6.4743 Y40.3393 F80.00
G01 X6.3964 Y40.5271 F80.00
G01 X6.3568 Y40.7266 F80.00
G01 X6.3568 Y40.9299 F80.00
G01 X6.3964 Y41.1293 F80.00
G01 X6.4743 Y41.3172 F80.00
G01 X6.5872 Y41.4863 F80.00
G01 X6.7310 Y41.6301 F80.00
G01 X6.9001 Y41.7430 F80.00
G01 X7.0880 Y41.8209 F80.00
G01 X7.2874 Y41.8605 F80.00
G01 X7.4908 Y41.8605 F80.00
G01 X7.6902 Y41.8209 F80.00
G01 X7.8781 Y41.7430 F80.00
G01 X8.0471 Y41.6301 F80.00
G01 X8.1909 Y41.4863 F80.00
G01 X8.3039 Y41.3172 F80.00
G01 X8.3817 Y41.1293 F80.00
G01 X8.4214 Y40.9299 F80.00
G01 X8.4214 Y40.7266 F80.00
G01 X8.3817 Y40.5271 F80.00
G01 X8.3039 Y40.3393 F80.00
G01 X8.1909 Y40.1702 F80.00
G01 X8.0471 Y40.0264 F80.00
G01 X7.9174 Y39.9396 F80.00
G01 X7.9050 Y39.9301 F80.00
G01 X7.8933 Y39.9198 F80.00
G01 X7.8871 Y39.9137 F80.00
G01 X7.8767 Y39.9022 F80.00
G01 X7.8654 Y39.8875 F80.00
G01 X7.8605 Y39.8804 F80.00
G01 X7.8511 Y39.8645 F80.00
G01 X7.8443 Y39.8505 F80.00
G01 X7.8409 Y39.8425 F80.00
G01 X7.8348 Y39.8251 F80.00
G01 X7.8302 Y39.8072 F80.00
G01 X7.8286 Y39.7986 F80.00
G01 X7.8264 Y39.7832 F80.00
G01 X7.8254 Y39.7619 F80.00
G01 X7.8254 Y37.0529 F80.00
G01 X7.8262 Y37.0344 F80.00
G01 X7.8275 Y37.0208 F80.00
G01 X7.8191 Y36.9352 F80.00
G01 X7.7941 Y36.8530 F80.00
G01 X7.7536 Y36.7772 F80.00
G01 X7.6991 Y36.7108 F80.00
G01 X7.6885 Y36.7020 F80.00
G01 X7.6749 Y36.6895 F80.00
G01 X5.2150 Y34.2297 F80.00
G01 X5.2027 Y34.2159 F80.00
G01 X5.1900 Y34.1988 F80.00
G01 X5.1790 Y34.1804 F80.00
G01 X5.1710 Y34.1638 F80.00
G01 X5.1635 Y34.1438 F80.00
G01 X5.1587 Y34.1259 F80.00
G01 X5.1570 Y34.1174 F80.00
G01 X5.1551 Y34.1049 F80.00
G01 X5.1539 Y34.0934 F80.00
G01 X5.1533 Y34.0778 F80.00
G01 X5.1534 Y32.4970 F80.00
G01 X5.1547 Y32.4786 F80.00
G01 X5.1581 Y32.4575 F80.00
G01 X5.1635 Y32.4369 F80.00
G01 X5.1710 Y32.4169 F80.00
G01 X5.1804 Y32.3977 F80.00
G01 X5.1916 Y32.3795 F80.00
G01 X5.2046 Y32.3625 F80.00
G01 X5.2191 Y32.3469 F80.00
G01 X5.2329 Y32.3345 F80.00
G01 X5.2477 Y32.3234 F80.00
G01 X5.2549 Y32.3187 F80.00
G01 X5.2709 Y32.3095 F80.00
G01 X5.2877 Y32.3017 F80.00
G01 X5.3051 Y32.2954 F80.00
G01 X5.3229 Y32.2906 F80.00
G01 X5.3342 Y32.2883 F80.00
G01 X5.3497 Y32.2862 F80.00
G01 X5.3710 Y32.2851 F80.00
G01 X5.3923 Y32.2862 F80.00
G01 X5.4078 Y32.2883 F80.00
G01 X5.4191 Y32.2906 F80.00
G01 X5.4369 Y32.2954 F80.00
G01 X5.4543 Y32.3017 F80.00
G01 X5.4711 Y32.3095 F80.00
G01 X5.4786 Y32.3137 F80.00
G01 X5.4919 Y32.3218 F80.00
G01 X5.5069 Y32.3327 F80.00
G01 X5.5135 Y32.3383 F80.00
G01 X5.5249 Y32.3489 F80.00
G01 X5.5355 Y32.3603 F80.00
G01 X5.5411 Y32.3670 F80.00
G01 X5.5520 Y32.3819 F80.00
G01 X5.5630 Y32.4002 F80.00
G01 X5.5710 Y32.4169 F80.00
G01 X5.6189 Y32.5323 F80.00
G01 X5.7045 Y32.6604 F80.00
G01 X5.8134 Y32.7694 F80.00
G01 X5.9416 Y32.8550 F80.00
G01 X6.0839 Y32.9140 F80.00
G01 X6.2351 Y32.9441 F80.00
G01 X6.3892 Y32.9441 F80.00
G01 X6.5403 Y32.9140 F80.00
G01 X6.6827 Y32.8550 F80.00
G01 X6.8108 Y32.7694 F80.00
G01 X6.9198 Y32.6604 F80.00
G01 X7.0054 Y32.5323 F80.00
G01 X7.0644 Y32.3899 F80.00
G01 X7.0944 Y32.2388 F80.00
G01 X7.0944 Y32.0847 F80.00
G01 X7.0644 Y31.9336 F80.00
G01 X7.0054 Y31.7912 F80.00
G01 X6.9198 Y31.6631 F80.00
G01 X6.8108 Y31.5541 F80.00
G01 X6.6827 Y31.4685 F80.00
G01 X6.5403 Y31.4095 F80.00
G01 X6.3892 Y31.3795 F80.00
G01 X6.2351 Y31.3795 F80.00
G01 X6.0839 Y31.4095 F80.00
G01 X5.9416 Y31.4685 F80.00
G01 X5.8134 Y31.5541 F80.00
G01 X5.7045 Y31.6631 F80.00
G01 X5.6189 Y31.7912 F80.00
G01 X5.5710 Y31.9067 F80.00
G01 X5.5630 Y31.9233 F80.00
G01 X5.5551 Y31.9368 F80.00
G01 X5.5487 Y31.9464 F80.00
G01 X5.5411 Y31.9565 F80.00
G01 X5.5355 Y31.9632 F80.00
G01 X5.5229 Y31.9766 F80.00
G01 X5.5069 Y31.9908 F80.00
G01 X5.4919 Y32.0017 F80.00
G01 X5.4762 Y32.0113 F80.00
G01 X5.4596 Y32.0195 F80.00
G01 X5.4489 Y32.0239 F80.00
G01 X5.4342 Y32.0290 F80.00
G01 X5.4135 Y32.0342 F80.00
G01 X5.3923 Y32.0373 F80.00
G01 X5.3768 Y32.0383 F80.00
G01 X5.3652 Y32.0383 F80.00
G01 X5.3468 Y32.0370 F80.00
G01 X5.3285 Y32.0342 F80.00
G01 X5.3106 Y32.0298 F80.00
G01 X5.2931 Y32.0239 F80.00
G01 X5.2850 Y32.0207 F80.00
G01 X5.2684 Y32.0127 F80.00
G01 X5.2525 Y32.0033 F80.00
G01 X5.2453 Y31.9984 F80.00
G01 X5.2329 Y31.9890 F80.00
G01 X5.2171 Y31.9746 F80.00
G01 X5.2065 Y31.9632 F80.00
G01 X5.2009 Y31.9565 F80.00
G01 X5.1916 Y31.9440 F80.00
G01 X5.1869 Y31.9368 F80.00
G01 X5.1790 Y31.9233 F80.00
G01 X5.1722 Y31.9093 F80.00
G01 X5.1688 Y31.9013 F80.00
G01 X5.1635 Y31.8866 F80.00
G01 X5.1611 Y31.8783 F80.00
G01 X5.1575 Y31.8632 F80.00
G01 X5.1551 Y31.8478 F80.00
G01 X5.1541 Y31.8392 F80.00
G01 X5.1533 Y31.8207 F80.00
G01 X5.1533 Y31.1108 F80.00
G01 X5.1547 Y31.0895 F80.00
G01 X5.1570 Y31.0741 F80.00
G01 X5.1587 Y31.0656 F80.00
G01 X5.1627 Y31.0505 F80.00
G01 X5.1678 Y31.0358 F80.00
G01 X5.1710 Y31.0277 F80.00
G01 X5.1777 Y31.0136 F80.00
G01 X5.1819 Y31.0060 F80.00
G01 X5.1900 Y30.9927 F80.00
G01 X5.2009 Y30.9778 F80.00
G01 X5.2065 Y30.9712 F80.00
G01 X5.2171 Y30.9598 F80.00
G01 X5.2285 Y30.9492 F80.00
G01 X5.2351 Y30.9436 F80.00
G01 X5.2501 Y30.9327 F80.00
G01 X5.2658 Y30.9231 F80.00
G01 X5.2735 Y30.9191 F80.00
G01 X5.2877 Y30.9126 F80.00
G01 X5.3051 Y30.9062 F80.00
G01 X5.3134 Y30.9038 F80.00
G01 X5.3285 Y30.9002 F80.00
G01 X5.3468 Y30.8974 F80.00
G01 X5.3554 Y30.8966 F80.00
G01 X5.3710 Y30.8960 F80.00
G01 X7.5284 Y30.8960 F80.00
G01 X7.5749 Y30.8914 F80.00
G01 X7.6092 Y30.8810 F80.00
G01 X7.6409 Y30.8641 F80.00
G01 X7.6686 Y30.8413 F80.00
G01 X7.6914 Y30.8135 F80.00
G01 X7.7084 Y30.7819 F80.00
G01 X7.7188 Y30.7475 F80.00
G01 X7.7234 Y30.7011 F80.00
G01 X7.7234 Y29.1225 F80.00
G01 X7.7188 Y29.0760 F80.00
G01 X7.7084 Y29.0417 F80.00
G01 X7.6914 Y29.0100 F80.00
G01 X7.6686 Y28.9822 F80.00
G01 X7.6409 Y28.9594 F80.00
G01 X7.6092 Y28.9425 F80.00
G01 X7.5749 Y28.9321 F80.00
G01 X7.5284 Y28.9275 F80.00
G01 X5.3710 Y28.9275 F80.00
G01 X5.3525 Y28.9267 F80.00
G01 X5.3439 Y28.9258 F80.00
G01 X5.3285 Y28.9233 F80.00
G01 X5.3106 Y28.9190 F80.00
G01 X5.3023 Y28.9163 F80.00
G01 X5.2877 Y28.9110 F80.00
G01 X5.2709 Y28.9031 F80.00
G01 X5.2634 Y28.8990 F80.00
G01 X5.2501 Y28.8908 F80.00
G01 X5.2374 Y28.8817 F80.00
G01 X5.2307 Y28.8762 F80.00
G01 X5.2171 Y28.8638 F80.00
G01 X5.2046 Y28.8501 F80.00
G01 X5.1992 Y28.8434 F80.00
G01 X5.1900 Y28.8308 F80.00
G01 X5.1819 Y28.8175 F80.00
G01 X5.1777 Y28.8099 F80.00
G01 X5.1699 Y28.7931 F80.00
G01 X5.1645 Y28.7785 F80.00
G01 X5.1619 Y28.7702 F80.00
G01 X5.1575 Y28.7523 F80.00
G01 X5.1551 Y28.7369 F80.00
G01 X5.1541 Y28.7283 F80.00
G01 X5.1533 Y28.7098 F80.00
G01 X5.1533 Y28.3814 F80.00
G01 X5.1543 Y28.3600 F80.00
G01 X5.1570 Y28.3417 F80.00
G01 X5.1611 Y28.3237 F80.00
G01 X5.1645 Y28.3127 F80.00
G01 X5.1699 Y28.2980 F80.00
G01 X5.1790 Y28.2787 F80.00
G01 X5.1900 Y28.2604 F80.00
G01 X5.1992 Y28.2478 F80.00
G01 X5.2046 Y28.2410 F80.00
G01 X5.2171 Y28.2274 F80.00
G01 X6.9904 Y26.4541 F80.00
G01 X7.0062 Y26.4397 F80.00
G01 X7.0234 Y26.4270 F80.00
G01 X7.0417 Y26.4160 F80.00
G01 X7.0558 Y26.4092 F80.00
G01 X7.0637 Y26.4058 F80.00
G01 X7.0812 Y26.3997 F80.00
G01 X7.1019 Y26.3945 F80.00
G01 X7.1230 Y26.3913 F80.00
G01 X7.1444 Y26.3903 F80.00
G01 X8.2919 Y26.3903 F80.00
G01 X8.3104 Y26.3911 F80.00
G01 X8.3190 Y26.3921 F80.00
G01 X8.3344 Y26.3945 F80.00
G01 X8.3551 Y26.3997 F80.00
G01 X8.3725 Y26.4058 F80.00
G01 X8.3805 Y26.4092 F80.00
G01 X8.3945 Y26.4160 F80.00
G01 X8.4129 Y26.4270 F80.00
G01 X8.4300 Y26.4397 F80.00
G01 X8.4417 Y26.4501 F80.00
G01 X8.4498 Y26.4582 F80.00
G01 X8.4620 Y26.4721 F80.00
G01 X8.4745 Y26.4895 F80.00
G01 X8.4852 Y26.5079 F80.00
G01 X8.4919 Y26.5220 F80.00
G01 X8.5082 Y26.5614 F80.00
G01 X8.6486 Y26.7714 F80.00
G01 X8.8272 Y26.9500 F80.00
G01 X9.0372 Y27.0904 F80.00
G01 X9.2706 Y27.1870 F80.00
G01 X9.5183 Y27.2363 F80.00
G01 X9.7709 Y27.2363 F80.00
G01 X10.0186 Y27.1870 F80.00
G01 X10.2520 Y27.0904 F80.00
G01 X10.4620 Y26.9500 F80.00
G01 X10.6406 Y26.7714 F80.00
G01 X10.7810 Y26.5614 F80.00
G01 X10.8776 Y26.3280 F80.00
G01 X10.9269 Y26.0803 F80.00
G01 X10.9269 Y25.8277 F80.00
G01 X10.8776 Y25.5800 F80.00
G01 X10.7810 Y25.3466 F80.00
G01 X10.6406 Y25.1366 F80.00
G01 X10.4620 Y24.9580 F80.00
G01 X10.2520 Y24.8176 F80.00
G01 X10.0186 Y24.7210 F80.00
G01 X9.7709 Y24.6717 F80.00
G01 X9.5183 Y24.6717 F80.00
G01 X9.2706 Y24.7210 F80.00
G01 X9.0372 Y24.8176 F80.00
G01 X8.8272 Y24.9580 F80.00
G01 X8.6486 Y25.1366 F80.00
G01 X8.5082 Y25.3466 F80.00
G01 X8.4919 Y25.3860 F80.00
G01 X8.4839 Y25.4026 F80.00
G01 X8.4729 Y25.4209 F80.00
G01 X8.4637 Y25.4336 F80.00
G01 X8.4583 Y25.4403 F80.00
G01 X8.4458 Y25.4539 F80.00
G01 X8.4344 Y25.4645 F80.00
G01 X8.4278 Y25.4701 F80.00
G01 X8.4129 Y25.4810 F80.00
G01 X8.3971 Y25.4906 F80.00
G01 X8.3894 Y25.4946 F80.00
G01 X8.3752 Y25.5011 F80.00
G01 X8.3579 Y25.5075 F80.00
G01 X8.3400 Y25.5122 F80.00
G01 X8.3287 Y25.5145 F80.00
G01 X8.3132 Y25.5166 F80.00
G01 X8.2919 Y25.5177 F80.00
G01 X6.9056 Y25.5177 F80.00
G01 X6.8871 Y25.5169 F80.00
G01 X6.8735 Y25.5156 F80.00
G01 X6.7879 Y25.5240 F80.00
G01 X6.7057 Y25.5490 F80.00
G01 X6.6299 Y25.5895 F80.00
G01 X6.5635 Y25.6440 F80.00
G01 X6.5547 Y25.6546 F80.00
G01 X6.5422 Y25.6682 F80.00
G01 X4.5304 Y27.6800 F80.00
G01 X4.5146 Y27.6944 F80.00
G01 X4.4998 Y27.7055 F80.00
G01 X4.4925 Y27.7102 F80.00
G01 X4.4791 Y27.7181 F80.00
G01 X4.4651 Y27.7249 F80.00
G01 X4.4571 Y27.7283 F80.00
G01 X4.4397 Y27.7344 F80.00
G01 X4.4246 Y27.7383 F80.00
G01 X4.4161 Y27.7401 F80.00
G01 X4.3978 Y27.7427 F80.00
G01 X4.3822 Y27.7437 F80.00
G01 X4.3736 Y27.7438 F80.00
G01 X4.3580 Y27.7430 F80.00
G01 X4.3494 Y27.7420 F80.00
G01 X4.3340 Y27.7396 F80.00
G01 X4.3160 Y27.7352 F80.00
G01 X4.3078 Y27.7326 F80.00
G01 X4.2931 Y27.7272 F80.00
G01 X4.2790 Y27.7207 F80.00
G01 X4.2713 Y27.7167 F80.00
G01 X4.2555 Y27.7071 F80.00
G01 X4.2406 Y27.6962 F80.00
G01 X4.2340 Y27.6906 F80.00
G01 X4.2225 Y27.6800 F80.00
G01 X4.2119 Y27.6686 F80.00
G01 X4.2064 Y27.6619 F80.00
G01 X4.1954 Y27.6470 F80.00
G01 X4.1873 Y27.6337 F80.00
G01 X4.1831 Y27.6261 F80.00
G01 X4.1765 Y27.6120 F80.00
G01 X4.1733 Y27.6040 F80.00
G01 X4.1681 Y27.5893 F80.00
G01 X4.1635 Y27.5714 F80.00
G01 X4.1620 Y27.5629 F80.00
G01 X4.1598 Y27.5474 F80.00
G01 X4.1588 Y27.5261 F80.00
G01 X4.1611 Y5.2065 F80.00
G01 X4.1618 Y5.1889 F80.00
G01 X4.1635 Y5.1743 F80.00
G01 X4.2081 Y4.8756 F80.00
G01 X4.2122 Y4.8547 F80.00
G01 X4.2184 Y4.8343 F80.00
G01 X4.3150 Y4.5645 F80.00
G01 X4.3231 Y4.5448 F80.00
G01 X4.3331 Y4.5261 F80.00
G01 X4.4802 Y4.2801 F80.00
G01 X4.4920 Y4.2624 F80.00
G01 X4.5055 Y4.2459 F80.00
G01 X4.6976 Y4.0332 F80.00
G01 X4.7085 Y4.0221 F80.00
G01 X4.7148 Y4.0162 F80.00
G01 X4.7290 Y4.0046 F80.00
G01 X4.9799 Y3.8175 F80.00
G01 X4.9940 Y3.8079 F80.00
G01 X5.8641 Y3.2743 F80.00
G01 X5.8840 Y3.2635 F80.00
G01 X5.9050 Y3.2548 F80.00
G01 X5.9268 Y3.2483 F80.00
G01 X6.5288 Y3.1030 F80.00
G01 X6.5528 Y3.0986 F80.00
G01 X6.5611 Y3.0978 F80.00
G01 X6.5799 Y3.0969 F80.00
G00 Z2.0000
G00 X9.7728 Y7.9638
G01 F60.00
G01 Z-0.1001
G01 F80.00
G01 X10.0549 Y7.9638 F80.00
G01 X10.3315 Y8.0188 F80.00
G01 X10.5921 Y8.1267 F80.00
G01 X10.8267 Y8.2834 F80.00
G01 X11.0261 Y8.4829 F80.00
G01 X11.1828 Y8.7174 F80.00
G01 X11.2908 Y8.9780 F80.00
G01 X11.3458 Y9.2547 F80.00
G01 X11.3458 Y9.5368 F80.00
G01 X11.2908 Y9.8134 F80.00
G01 X11.1828 Y10.0740 F80.00
G01 X11.0261 Y10.3086 F80.00
G01 X10.8267 Y10.5080 F80.00
G01 X10.5921 Y10.6647 F80.00
G01 X10.3315 Y10.7727 F80.00
G01 X10.0549 Y10.8277 F80.00
G01 X9.7728 Y10.8277 F80.00
G01 X9.4961 Y10.7727 F80.00
G01 X9.2355 Y10.6647 F80.00
G01 X9.0010 Y10.5080 F80.00
G01 X8.8015 Y10.3086 F80.00
G01 X8.6448 Y10.0740 F80.00
G01 X8.5369 Y9.8134 F80.00
G01 X8.4819 Y9.5368 F80.00
G01 X8.4819 Y9.2547 F80.00
G01 X8.5369 Y8.9780 F80.00
G01 X8.6448 Y8.7174 F80.00
G01 X8.8015 Y8.4829 F80.00
G01 X9.0010 Y8.2834 F80.00
G01 X9.2355 Y8.1267 F80.00
G01 X9.4961 Y8.0188 F80.00
G01 X9.7728 Y7.9638 F80.00
G00 Z2.0000
G00 X9.9081 Y10.7629
G01 F60.00
G01 Z-0.1001
G01 F80.00
G01 X9.7798 Y10.7565 F80.00
G01 X9.6471 Y10.7368 F80.00
G01 X9.5169 Y10.7042 F80.00
G01 X9.3906 Y10.6590 F80.00
G01 X9.2693 Y10.6016 F80.00
G01 X9.1542 Y10.5326 F80.00
G01 X9.0464 Y10.4527 F80.00
G01 X8.9470 Y10.3626 F80.00
G01 X8.8569 Y10.2632 F80.00
G01 X8.7769 Y10.1554 F80.00
G01 X8.7080 Y10.0403 F80.00
G01 X8.6506 Y9.9190 F80.00
G01 X8.6054 Y9.7927 F80.00
G01 X8.5728 Y9.6625 F80.00
G01 X8.5531 Y9.5298 F80.00
G01 X8.5465 Y9.3957 F80.00
G01 X8.5531 Y9.2617 F80.00
G01 X8.5728 Y9.1290 F80.00
G01 X8.6054 Y8.9988 F80.00
G01 X8.6506 Y8.8725 F80.00
G01 X8.7080 Y8.7512 F80.00
G01 X8.7769 Y8.6361 F80.00
G01 X8.8569 Y8.5283 F80.00
G01 X8.9470 Y8.4289 F80.00
G01 X9.0464 Y8.3388 F80.00
G01 X9.1542 Y8.2588 F80.00
G01 X9.2693 Y8.1899 F80.00
G01 X9.3906 Y8.1325 F80.00
G01 X9.5169 Y8.0873 F80.00
G01 X9.6471 Y8.0547 F80.00
G01 X9.7798 Y8.0350 F80.00
G01 X9.9138 Y8.0284 F80.00
G01 X10.0479 Y8.0350 F80.00
G01 X10.1806 Y8.0547 F80.00
G01 X10.3108 Y8.0873 F80.00
G01 X10.4371 Y8.1325 F80.00
G01 X10.5584 Y8.1899 F80.00
G01 X10.6735 Y8.2588 F80.00
G01 X10.7813 Y8.3388 F80.00
G01 X10.8807 Y8.4289 F80.00
G01 X10.9708 Y8.5283 F80.00
G01 X11.0507 Y8.6361 F80.00
G01 X11.1197 Y8.7512 F80.00
G01 X11.1771 Y8.8725 F80.00
G01 X11.2223 Y8.9988 F80.00
G01 X11.2549 Y9.1290 F80.00
G01 X11.2746 Y9.2617 F80.00
G01 X11.2812 Y9.3957 F80.00
G01 X11.2746 Y9.5298 F80.00
G01 X11.2549 Y9.6625 F80.00
G01 X11.2223 Y9.7927 F80.00
G01 X11.1771 Y9.9190 F80.00
G01 X11.1197 Y10.0403 F80.00
G01 X11.0507 Y10.1554 F80.00
G01 X10.9708 Y10.2632 F80.00
G01 X10.8807 Y10.3626 F80.00
G01 X10.7813 Y10.4527 F80.00
G01 X10.6735 Y10.5326 F80.00
G01 X10.5584 Y10.6016 F80.00
G01 X10.4371 Y10.6590 F80.00
G01 X10.3108 Y10.7042 F80.00
G01 X10.1806 Y10.7368 F80.00
G01 X10.0479 Y10.7565 F80.00
G01 X9.9196 Y10.7629 F80.00
G01 X9.9081 Y10.7629 F80.00
G00 Z2.0000
G00 X9.4896 Y11.5638
G01 F60.00
G01 Z-0.1001
G01 F80.00
G01 X9.6929 Y11.5638 F80.00
G01 X9.8924 Y11.6035 F80.00
G01 X10.0802 Y11.6813 F80.00
G01 X10.2493 Y11.7943 F80.00
G01 X10.3931 Y11.9381 F80.00
G01 X10.5061 Y12.1072 F80.00
G01 X10.5839 Y12.2950 F80.00
G01 X10.6236 Y12.4945 F80.00
G01 X10.6236 Y12.6978 F80.00
G01 X10.5839 Y12.8972 F80.00
G01 X10.5061 Y13.0851 F80.00
G01 X10.3931 Y13.2542 F80.00
G01 X10.2493 Y13.3980 F80.00
G01 X10.0802 Y13.5109 F80.00
G01 X9.8924 Y13.5888 F80.00
G01 X9.6929 Y13.6284 F80.00
G01 X9.4896 Y13.6284 F80.00
G01 X9.2901 Y13.5888 F80.00
G01 X9.1023 Y13.5109 F80.00
G01 X8.9332 Y13.3980 F80.00
G01 X8.7894 Y13.2542 F80.00
G01 X8.6764 Y13.0851 F80.00
G01 X8.5986 Y12.8972 F80.00
G01 X8.5590 Y12.6978 F80.00
G01 X8.5590 Y12.4945 F80.00
G01 X8.5986 Y12.2950 F80.00
G01 X8.6764 Y12.1072 F80.00
G01 X8.7894 Y11.9381 F80.00
G01 X8.9332 Y11.7943 F80.00
G01 X9.1023 Y11.6813 F80.00
G01 X9.2901 Y11.6035 F80.00
G01 X9.4896 Y11.5638 F80.00
G00 Z2.0000
G00 X10.5588 Y12.6019
G01 F60.00
G01 Z-0.1001
G01 F80.00
G01 X10.5542 Y12.6910 F80.00
G01 X10.5403 Y12.7849 F80.00
G01 X10.5172 Y12.8770 F80.00
G01 X10.4852 Y12.9664 F80.00
G01 X10.4446 Y13.0523 F80.00
G01 X10.3958 Y13.1337 F80.00
G01 X10.3393 Y13.2100 F80.00
G01 X10.2755 Y13.2804 F80.00
G01 X10.2051 Y13.3441 F80.00
G01 X10.1289 Y13.4007 F80.00
G01 X10.0474 Y13.4495 F80.00
G01 X9.9616 Y13.4901 F80.00
G01 X9.8722 Y13.5221 F80.00
G01 X9.7800 Y13.5452 F80.00
G01 X9.6861 Y13.5591 F80.00
G01 X9.5913 Y13.5638 F80.00
G01 X9.4964 Y13.5591 F80.00
G01 X9.4025 Y13.5452 F80.00
G01 X9.3104 Y13.5221 F80.00
G01 X9.2210 Y13.4901 F80.00
G01 X9.1351 Y13.4495 F80.00
G01 X9.0537 Y13.4007 F80.00
G01 X8.9774 Y13.3441 F80.00
G01 X8.9070 Y13.2804 F80.00
G01 X8.8433 Y13.2100 F80.00
G01 X8.7867 Y13.1337 F80.00
G01 X8.7379 Y13.0523 F80.00
G01 X8.6973 Y12.9664 F80.00
G01 X8.6653 Y12.8770 F80.00
G01 X8.6422 Y12.7849 F80.00
G01 X8.6283 Y12.6910 F80.00
G01 X8.6236 Y12.5961 F80.00
G01 X8.6283 Y12.5013 F80.00
G01 X8.6422 Y12.4074 F80.00
G01 X8.6653 Y12.3152 F80.00
G01 X8.6973 Y12.2258 F80.00
G01 X8.7379 Y12.1400 F80.00
G01 X8.7867 Y12.0585 F80.00
G01 X8.8433 Y11.9823 F80.00
G01 X8.9070 Y11.9119 F80.00
G01 X8.9774 Y11.8481 F80.00
G01 X9.0537 Y11.7916 F80.00
G01 X9.1351 Y11.7427 F80.00
G01 X9.2210 Y11.7021 F80.00
G01 X9.3104 Y11.6702 F80.00
G01 X9.4025 Y11.6471 F80.00
G01 X9.4964 Y11.6331 F80.00
G01 X9.5913 Y11.6285 F80.00
G01 X9.6861 Y11.6331 F80.00
G01 X9.7800 Y11.6471 F80.00
G01 X9.8722 Y11.6702 F80.00
G01 X9.9616 Y11.7021 F80.00
G01 X10.0474 Y11.7427 F80.00
G01 X10.1289 Y11.7916 F80.00
G01 X10.2051 Y11.8481 F80.00
G01 X10.2755 Y11.9119 F80.00
G01 X10.3393 Y11.9823 F80.00
G01 X10.3958 Y12.0585 F80.00
G01 X10.4446 Y12.1400 F80.00
G01 X10.4852 Y12.2258 F80.00
G01 X10.5172 Y12.3152 F80.00
G01 X10.5403 Y12.4074 F80.00
G01 X10.5542 Y12.5013 F80.00
G01 X10.5588 Y12.5904 F80.00
G01 X10.5588 Y12.6019 F80.00
G00 Z2.0000
G00 X10.5589 Y14.2861
G01 F60.00
G01 Z-0.1001
G01 F80.00
G01 X10.5589 Y15.9861 F80.00
G01 X10.5583 Y15.9977 F80.00
G01 X10.5572 Y16.0063 F80.00
G01 X10.5554 Y16.0147 F80.00
G01 X10.5530 Y16.0230 F80.00
G01 X10.5500 Y16.0312 F80.00
G01 X10.5463 Y16.0390 F80.00
G01 X10.5391 Y16.0515 F80.00
G01 X10.5340 Y16.0585 F80.00
G01 X10.5284 Y16.0651 F80.00
G01 X10.5224 Y16.0713 F80.00
G01 X10.5159 Y16.0771 F80.00
G01 X10.5042 Y16.0855 F80.00
G01 X10.4967 Y16.0899 F80.00
G01 X10.4889 Y16.0937 F80.00
G01 X10.4809 Y16.0969 F80.00
G01 X10.4726 Y16.0995 F80.00
G01 X10.4585 Y16.1025 F80.00
G01 X10.4499 Y16.1035 F80.00
G01 X10.4413 Y16.1038 F80.00
G01 X9.9656 Y16.1038 F80.00
G01 X9.9656 Y22.1043 F80.00
G01 X11.2820 Y23.4207 F80.00
G01 X11.2912 Y23.4266 F80.00
G01 X11.3159 Y23.4449 F80.00
G01 X11.3225 Y23.4505 F80.00
G01 X11.3452 Y23.4712 F80.00
G01 X12.2062 Y24.3322 F80.00
G01 X12.2307 Y24.3592 F80.00
G01 X12.2491 Y24.3838 F80.00
G01 X12.2555 Y24.3934 F80.00
G01 X12.2725 Y24.4224 F80.00
G01 X12.2856 Y24.4502 F80.00
G01 X12.2889 Y24.4582 F80.00
G01 X12.2991 Y24.4872 F80.00
G01 X12.3067 Y24.5169 F80.00
G01 X12.3085 Y24.5254 F80.00
G01 X12.3130 Y24.5558 F80.00
G01 X12.3137 Y24.5644 F80.00
G01 X12.3150 Y24.5922 F80.00
G01 X12.3150 Y26.7368 F80.00
G01 X12.3133 Y26.7703 F80.00
G01 X12.3079 Y26.8064 F80.00
G01 X12.2991 Y26.8418 F80.00
G01 X12.2868 Y26.8762 F80.00
G01 X12.2712 Y26.9092 F80.00
G01 X12.2524 Y26.9404 F80.00
G01 X12.2307 Y26.9698 F80.00
G01 X12.2082 Y26.9947 F80.00
G01 X10.0672 Y29.1358 F80.00
G01 X10.0672 Y32.8918 F80.00
G01 X10.3342 Y33.1589 F80.00
G01 X10.3568 Y33.1837 F80.00
G01 X10.3623 Y33.1905 F80.00
G01 X10.3804 Y33.2152 F80.00
G01 X10.3992 Y33.2465 F80.00
G01 X10.4148 Y33.2795 F80.00
G01 X10.4262 Y33.3111 F80.00
G01 X10.4347 Y33.3436 F80.00
G01 X10.4369 Y33.3549 F80.00
G01 X10.4413 Y33.3853 F80.00
G01 X10.4431 Y33.4189 F80.00
G01 X10.4431 Y34.0042 F80.00
G01 X12.7340 Y36.2951 F80.00
G01 X12.7546 Y36.3179 F80.00
G01 X12.7600 Y36.3247 F80.00
G01 X12.7782 Y36.3494 F80.00
G01 X12.7941 Y36.3757 F80.00
G01 X12.7996 Y36.3859 F80.00
G01 X12.8126 Y36.4137 F80.00
G01 X12.8230 Y36.4426 F80.00
G01 X12.8257 Y36.4508 F80.00
G01 X12.8337 Y36.4834 F80.00
G01 X12.8384 Y36.5138 F80.00
G01 X12.8395 Y36.5253 F80.00
G01 X12.8409 Y36.5560 F80.00
G01 X12.8409 Y39.9349 F80.00
G01 X12.9252 Y39.9748 F80.00
G01 X13.0018 Y40.0206 F80.00
G01 X13.0114 Y40.0270 F80.00
G01 X13.0829 Y40.0802 F80.00
G01 X13.1533 Y40.1440 F80.00
G01 X13.2133 Y40.2100 F80.00
G01 X13.2206 Y40.2189 F80.00
G01 X13.2703 Y40.2859 F80.00
G01 X13.2767 Y40.2955 F80.00
G01 X13.3225 Y40.3721 F80.00
G01 X13.3607 Y40.4527 F80.00
G01 X13.3651 Y40.4633 F80.00
G01 X13.3932 Y40.5419 F80.00
G01 X13.3966 Y40.5529 F80.00
G01 X13.4181 Y40.6395 F80.00
G01 X13.4321 Y40.7334 F80.00
G01 X13.4367 Y40.8282 F80.00
G01 X13.4325 Y40.9173 F80.00
G01 X13.4314 Y40.9288 F80.00
G01 X13.4181 Y41.0170 F80.00
G01 X13.3966 Y41.1036 F80.00
G01 X13.3932 Y41.1146 F80.00
G01 X13.3651 Y41.1932 F80.00
G01 X13.3607 Y41.2038 F80.00
G01 X13.3225 Y41.2844 F80.00
G01 X13.2736 Y41.3658 F80.00
G01 X13.2171 Y41.4421 F80.00
G01 X13.1533 Y41.5125 F80.00
G01 X13.0829 Y41.5762 F80.00
G01 X13.0067 Y41.6328 F80.00
G01 X12.9252 Y41.6816 F80.00
G01 X12.8447 Y41.7199 F80.00
G01 X12.8340 Y41.7243 F80.00
G01 X12.7555 Y41.7524 F80.00
G01 X12.7444 Y41.7558 F80.00
G01 X12.6579 Y41.7773 F80.00
G01 X12.5697 Y41.7905 F80.00
G01 X12.5610 Y41.7915 F80.00
G01 X12.4691 Y41.7959 F80.00
G01 X12.3742 Y41.7912 F80.00
G01 X12.2803 Y41.7773 F80.00
G01 X12.1882 Y41.7542 F80.00
G01 X12.0988 Y41.7222 F80.00
G01 X12.0129 Y41.6816 F80.00
G01 X11.9315 Y41.6328 F80.00
G01 X11.8552 Y41.5762 F80.00
G01 X11.7848 Y41.5125 F80.00
G01 X11.7211 Y41.4421 F80.00
G01 X11.6645 Y41.3658 F80.00
G01 X11.6157 Y41.2844 F80.00
G01 X11.5751 Y41.1985 F80.00
G01 X11.5431 Y41.1091 F80.00
G01 X11.5200 Y41.0170 F80.00
G01 X11.5061 Y40.9231 F80.00
G01 X11.5014 Y40.8282 F80.00
G01 X11.5057 Y40.7392 F80.00
G01 X11.5068 Y40.7277 F80.00
G01 X11.5200 Y40.6395 F80.00
G01 X11.5431 Y40.5473 F80.00
G01 X11.5730 Y40.4633 F80.00
G01 X11.5774 Y40.4527 F80.00
G01 X11.6131 Y40.3772 F80.00
G01 X11.6185 Y40.3671 F80.00
G01 X11.6645 Y40.2906 F80.00
G01 X11.7211 Y40.2144 F80.00
G01 X11.7848 Y40.1440 F80.00
G01 X11.8508 Y40.0840 F80.00
G01 X11.8598 Y40.0767 F80.00
G01 X11.9268 Y40.0270 F80.00
G01 X11.9364 Y40.0206 F80.00
G01 X12.0129 Y39.9748 F80.00
G01 X12.0973 Y39.9349 F80.00
G01 X12.0973 Y36.7100 F80.00
G01 X9.8084 Y34.4211 F80.00
G01 X9.7877 Y34.3984 F80.00
G01 X9.7821 Y34.3918 F80.00
G01 X9.7622 Y34.3647 F80.00
G01 X9.7463 Y34.3385 F80.00
G01 X9.7408 Y34.3283 F80.00
G01 X9.7278 Y34.3005 F80.00
G01 X9.7155 Y34.2661 F80.00
G01 X9.7079 Y34.2364 F80.00
G01 X9.7057 Y34.2250 F80.00
G01 X9.7013 Y34.1946 F80.00
G01 X9.6995 Y34.1582 F80.00
G01 X9.6995 Y33.5758 F80.00
G01 X9.4325 Y33.3087 F80.00
G01 X9.4118 Y33.2861 F80.00
G01 X9.4045 Y33.2771 F80.00
G01 X9.3863 Y33.2524 F80.00
G01 X9.3704 Y33.2261 F80.00
G01 X9.3649 Y33.2159 F80.00
G01 X9.3519 Y33.1881 F80.00
G01 X9.3396 Y33.1538 F80.00
G01 X9.3320 Y33.1240 F80.00
G01 X9.3298 Y33.1127 F80.00
G01 X9.3252 Y33.0794 F80.00
G01 X9.3236 Y33.0458 F80.00
G01 X9.3236 Y28.9818 F80.00
G01 X9.3250 Y28.9511 F80.00
G01 X9.3261 Y28.9396 F80.00
G01 X9.3308 Y28.9093 F80.00
G01 X9.3388 Y28.8767 F80.00
G01 X9.3414 Y28.8684 F80.00
G01 X9.3519 Y28.8395 F80.00
G01 X9.3649 Y28.8117 F80.00
G01 X9.3704 Y28.8015 F80.00
G01 X9.3863 Y28.7753 F80.00
G01 X9.4045 Y28.7505 F80.00
G01 X9.4099 Y28.7437 F80.00
G01 X9.4305 Y28.7210 F80.00
G01 X11.5715 Y26.5799 F80.00
G01 X11.5715 Y24.7491 F80.00
G01 X10.8699 Y24.0475 F80.00
G01 X10.8607 Y24.0416 F80.00
G01 X10.8360 Y24.0233 F80.00
G01 X10.8294 Y24.0177 F80.00
G01 X10.8067 Y23.9970 F80.00
G01 X9.3309 Y22.5212 F80.00
G01 X9.3102 Y22.4985 F80.00
G01 X9.3029 Y22.4896 F80.00
G01 X9.2847 Y22.4648 F80.00
G01 X9.2688 Y22.4386 F80.00
G01 X9.2633 Y22.4284 F80.00
G01 X9.2503 Y22.4006 F80.00
G01 X9.2398 Y22.3717 F80.00
G01 X9.2372 Y22.3634 F80.00
G01 X9.2292 Y22.3308 F80.00
G01 X9.2245 Y22.3005 F80.00
G01 X9.2234 Y22.2890 F80.00
G01 X9.2220 Y22.2583 F80.00
G01 X9.2220 Y16.1038 F80.00
G01 X8.7413 Y16.1038 F80.00
G01 X8.7326 Y16.1035 F80.00
G01 X8.7240 Y16.1025 F80.00
G01 X8.7155 Y16.1009 F80.00
G01 X8.7071 Y16.0987 F80.00
G01 X8.6936 Y16.0937 F80.00
G01 X8.6808 Y16.0870 F80.00
G01 X8.6735 Y16.0823 F80.00
G01 X8.6666 Y16.0771 F80.00
G01 X8.6561 Y16.0673 F80.00
G01 X8.6503 Y16.0608 F80.00
G01 X8.6451 Y16.0539 F80.00
G01 X8.6403 Y16.0466 F80.00
G01 X8.6362 Y16.0390 F80.00
G01 X8.6326 Y16.0312 F80.00
G01 X8.6295 Y16.0230 F80.00
G01 X8.6271 Y16.0147 F80.00
G01 X8.6253 Y16.0063 F80.00
G01 X8.6239 Y15.9948 F80.00
G01 X8.6236 Y15.9861 F80.00
G01 X8.6236 Y14.2861 F80.00
G01 X8.6239 Y14.2775 F80.00
G01 X8.6249 Y14.2689 F80.00
G01 X8.6271 Y14.2576 F80.00
G01 X8.6305 Y14.2465 F80.00
G01 X8.6349 Y14.2358 F80.00
G01 X8.6403 Y14.2257 F80.00
G01 X8.6468 Y14.2161 F80.00
G01 X8.6541 Y14.2071 F80.00
G01 X8.6601 Y14.2009 F80.00
G01 X8.6689 Y14.1934 F80.00
G01 X8.6783 Y14.1867 F80.00
G01 X8.6858 Y14.1824 F80.00
G01 X8.6962 Y14.1774 F80.00
G01 X8.7071 Y14.1736 F80.00
G01 X8.7155 Y14.1713 F80.00
G01 X8.7240 Y14.1698 F80.00
G01 X8.7355 Y14.1686 F80.00
G01 X10.4413 Y14.1685 F80.00
G01 X10.4528 Y14.1691 F80.00
G01 X10.4642 Y14.1707 F80.00
G01 X10.4754 Y14.1736 F80.00
G01 X10.4863 Y14.1774 F80.00
G01 X10.4967 Y14.1824 F80.00
G01 X10.5066 Y14.1883 F80.00
G01 X10.5159 Y14.1952 F80.00
G01 X10.5244 Y14.2029 F80.00
G01 X10.5322 Y14.2115 F80.00
G01 X10.5391 Y14.2208 F80.00
G01 X10.5450 Y14.2307 F80.00
G01 X10.5500 Y14.2411 F80.00
G01 X10.5538 Y14.2520 F80.00
G01 X10.5566 Y14.2632 F80.00
G01 X10.5583 Y14.2746 F80.00
G01 X10.5589 Y14.2861 F80.00
G00 Z2.0000
G00 X13.7788 Y11.9881
G01 F60.00
G01 Z-0.1001
G01 F80.00
G01 X14.5272 Y11.9883 F80.00
G01 X14.5550 Y11.9897 F80.00
G01 X14.5636 Y11.9906 F80.00
G01 X14.5939 Y11.9953 F80.00
G01 X14.6238 Y12.0026 F80.00
G01 X14.6321 Y12.0050 F80.00
G01 X14.6610 Y12.0154 F80.00
G01 X14.6690 Y12.0188 F80.00
G01 X14.6941 Y12.0307 F80.00
G01 X14.7231 Y12.0477 F80.00
G01 X14.7327 Y12.0541 F80.00
G01 X14.7573 Y12.0725 F80.00
G01 X14.7822 Y12.0950 F80.00
G01 X15.4625 Y12.7752 F80.00
G01 X15.4870 Y12.8022 F80.00
G01 X15.5087 Y12.8315 F80.00
G01 X15.5275 Y12.8628 F80.00
G01 X15.5431 Y12.8958 F80.00
G01 X15.5553 Y12.9302 F80.00
G01 X15.5642 Y12.9656 F80.00
G01 X15.5696 Y13.0017 F80.00
G01 X15.5713 Y13.0352 F80.00
G01 X15.5714 Y14.7246 F80.00
G01 X15.6322 Y14.7536 F80.00
G01 X15.7045 Y14.7968 F80.00
G01 X15.7141 Y14.8032 F80.00
G01 X15.7817 Y14.8535 F80.00
G01 X15.8485 Y14.9140 F80.00
G01 X15.9052 Y14.9763 F80.00
G01 X15.9125 Y14.9853 F80.00
G01 X15.9626 Y15.0530 F80.00
G01 X16.0060 Y15.1253 F80.00
G01 X16.0115 Y15.1354 F80.00
G01 X16.0474 Y15.2117 F80.00
G01 X16.0777 Y15.2965 F80.00
G01 X16.0983 Y15.3782 F80.00
G01 X16.1006 Y15.3895 F80.00
G01 X16.1128 Y15.4729 F80.00
G01 X16.1172 Y15.5629 F80.00
G01 X16.1128 Y15.6528 F80.00
G01 X16.1006 Y15.7362 F80.00
G01 X16.0983 Y15.7475 F80.00
G01 X16.0777 Y15.8292 F80.00
G01 X16.0474 Y15.9140 F80.00
G01 X16.0115 Y15.9903 F80.00
G01 X16.0060 Y16.0005 F80.00
G01 X15.9626 Y16.0727 F80.00
G01 X15.9125 Y16.1405 F80.00
G01 X15.9052 Y16.1494 F80.00
G01 X15.8485 Y16.2117 F80.00
G01 X15.7817 Y16.2722 F80.00
G01 X15.7094 Y16.3259 F80.00
G01 X15.6372 Y16.3693 F80.00
G01 X15.6270 Y16.3747 F80.00
G01 X15.5507 Y16.4107 F80.00
G01 X15.4660 Y16.4410 F80.00
G01 X15.3786 Y16.4629 F80.00
G01 X15.2895 Y16.4761 F80.00
G01 X15.2054 Y16.4804 F80.00
G01 X15.1938 Y16.4804 F80.00
G01 X15.1096 Y16.4761 F80.00
G01 X15.0262 Y16.4639 F80.00
G01 X15.0149 Y16.4616 F80.00
G01 X14.9388 Y16.4425 F80.00
G01 X14.9277 Y16.4392 F80.00
G01 X14.8484 Y16.4107 F80.00
G01 X14.7670 Y16.3722 F80.00
G01 X14.6898 Y16.3259 F80.00
G01 X14.6174 Y16.2722 F80.00
G01 X14.5507 Y16.2117 F80.00
G01 X14.4940 Y16.1494 F80.00
G01 X14.4867 Y16.1405 F80.00
G01 X14.4366 Y16.0727 F80.00
G01 X14.3931 Y16.0005 F80.00
G01 X14.3877 Y15.9903 F80.00
G01 X14.3541 Y15.9193 F80.00
G01 X14.3497 Y15.9086 F80.00
G01 X14.3214 Y15.8292 F80.00
G01 X14.3002 Y15.7447 F80.00
G01 X14.2986 Y15.7362 F80.00
G01 X14.2863 Y15.6528 F80.00
G01 X14.2821 Y15.5686 F80.00
G01 X14.2821 Y15.5571 F80.00
G01 X14.2859 Y15.4787 F80.00
G01 X14.2871 Y15.4672 F80.00
G01 X14.2996 Y15.3838 F80.00
G01 X14.3214 Y15.2965 F80.00
G01 X14.3518 Y15.2117 F80.00
G01 X14.3890 Y15.1328 F80.00
G01 X14.3931 Y15.1253 F80.00
G01 X14.4366 Y15.0530 F80.00
G01 X14.4867 Y14.9853 F80.00
G01 X14.4940 Y14.9763 F80.00
G01 X14.5467 Y14.9182 F80.00
G01 X14.5528 Y14.9120 F80.00
G01 X14.6174 Y14.8535 F80.00
G01 X14.6898 Y14.7999 F80.00
G01 X14.7670 Y14.7536 F80.00
G01 X14.8278 Y14.7246 F80.00
G01 X14.8278 Y13.1921 F80.00
G01 X14.3674 Y12.7317 F80.00
G01 X13.4976 Y12.7317 F80.00
G01 X13.4763 Y12.7605 F80.00
G01 X13.4708 Y12.7673 F80.00
G01 X13.3866 Y12.8603 F80.00
G01 X13.3805 Y12.8665 F80.00
G01 X13.2832 Y12.9546 F80.00
G01 X13.1801 Y13.0312 F80.00
G01 X13.1730 Y13.0361 F80.00
G01 X13.0603 Y13.1035 F80.00
G01 X12.9390 Y13.1609 F80.00
G01 X12.8127 Y13.2061 F80.00
G01 X12.6881 Y13.2374 F80.00
G01 X12.6797 Y13.2392 F80.00
G01 X12.5498 Y13.2584 F80.00
G01 X12.4215 Y13.2648 F80.00
G01 X12.4100 Y13.2648 F80.00
G01 X12.2817 Y13.2584 F80.00
G01 X12.1547 Y13.2397 F80.00
G01 X12.1434 Y13.2374 F80.00
G01 X12.0188 Y13.2061 F80.00
G01 X11.8952 Y13.1620 F80.00
G01 X11.8872 Y13.1585 F80.00
G01 X11.7763 Y13.1061 F80.00
G01 X11.7662 Y13.1007 F80.00
G01 X11.6561 Y13.0345 F80.00
G01 X11.5483 Y12.9546 F80.00
G01 X11.4489 Y12.8645 F80.00
G01 X11.3625 Y12.7694 F80.00
G01 X11.3552 Y12.7605 F80.00
G01 X11.2822 Y12.6620 F80.00
G01 X11.2758 Y12.6524 F80.00
G01 X11.2099 Y12.5422 F80.00
G01 X11.1525 Y12.4209 F80.00
G01 X11.1073 Y12.2946 F80.00
G01 X11.0759 Y12.1700 F80.00
G01 X11.0737 Y12.1587 F80.00
G01 X11.0557 Y12.0374 F80.00
G01 X11.0546 Y12.0259 F80.00
G01 X11.0484 Y11.8976 F80.00
G01 X11.0547 Y11.7665 F80.00
G01 X11.0557 Y11.7579 F80.00
G01 X11.0747 Y11.6309 F80.00
G01 X11.1073 Y11.5007 F80.00
G01 X11.1525 Y11.3744 F80.00
G01 X11.2099 Y11.2531 F80.00
G01 X11.2788 Y11.1380 F80.00
G01 X11.3588 Y11.0302 F80.00
G01 X11.4489 Y10.9308 F80.00
G01 X11.5483 Y10.8407 F80.00
G01 X11.6561 Y10.7607 F80.00
G01 X11.7712 Y10.6918 F80.00
G01 X11.8925 Y10.6344 F80.00
G01 X12.0188 Y10.5892 F80.00
G01 X12.1490 Y10.5566 F80.00
G01 X12.2817 Y10.5369 F80.00
G01 X12.4157 Y10.5303 F80.00
G01 X12.5469 Y10.5366 F80.00
G01 X12.5555 Y10.5376 F80.00
G01 X12.6825 Y10.5566 F80.00
G01 X12.8127 Y10.5892 F80.00
G01 X12.9390 Y10.6344 F80.00
G01 X13.0603 Y10.6918 F80.00
G01 X13.1754 Y10.7607 F80.00
G01 X13.2832 Y10.8407 F80.00
G01 X13.3826 Y10.9308 F80.00
G01 X13.4708 Y11.0280 F80.00
G01 X13.4763 Y11.0348 F80.00
G01 X13.5526 Y11.1380 F80.00
G01 X13.6216 Y11.2531 F80.00
G01 X13.6790 Y11.3744 F80.00
G01 X13.7233 Y11.4980 F80.00
G01 X13.7257 Y11.5063 F80.00
G01 X13.7568 Y11.6309 F80.00
G01 X13.7762 Y11.7607 F80.00
G01 X13.7769 Y11.7694 F80.00
G01 X13.7831 Y11.8976 F80.00
G01 X13.7788 Y11.9881 F80.00
G00 Z2.0000
G00 X12.2747 Y10.4657
G01 F60.00
G01 Z-0.1001
G01 F80.00
G01 X12.5568 Y10.4657 F80.00
G01 X12.8334 Y10.5207 F80.00
G01 X13.0940 Y10.6286 F80.00
G01 X13.3286 Y10.7853 F80.00
G01 X13.5280 Y10.9848 F80.00
G01 X13.6847 Y11.2193 F80.00
G01 X13.7927 Y11.4799 F80.00
G01 X13.8461 Y11.7484 F80.00
G01 X13.8505 Y11.7663 F80.00
G01 X13.8531 Y11.7746 F80.00
G01 X13.8585 Y11.7892 F80.00
G01 X13.8650 Y11.8034 F80.00
G01 X13.8690 Y11.8111 F80.00
G01 X13.8786 Y11.8269 F80.00
G01 X13.8895 Y11.8418 F80.00
G01 X13.8951 Y11.8484 F80.00
G01 X13.9057 Y11.8599 F80.00
G01 X13.9171 Y11.8704 F80.00
G01 X13.9260 Y11.8778 F80.00
G01 X13.9411 Y11.8885 F80.00
G01 X13.9570 Y11.8979 F80.00
G01 X13.9736 Y11.9059 F80.00
G01 X13.9909 Y11.9124 F80.00
G01 X14.0020 Y11.9158 F80.00
G01 X14.0171 Y11.9194 F80.00
G01 X14.0383 Y11.9226 F80.00
G01 X14.0596 Y11.9236 F80.00
G01 X14.4893 Y11.9236 F80.00
G01 X14.5077 Y11.9228 F80.00
G01 X14.5214 Y11.9215 F80.00
G01 X14.6069 Y11.9299 F80.00
G01 X14.6892 Y11.9549 F80.00
G01 X14.7650 Y11.9954 F80.00
G01 X14.8314 Y12.0499 F80.00
G01 X14.8401 Y12.0605 F80.00
G01 X14.8526 Y12.0741 F80.00
G01 X15.4854 Y12.7069 F80.00
G01 X15.4990 Y12.7194 F80.00
G01 X15.5096 Y12.7281 F80.00
G01 X15.5641 Y12.7945 F80.00
G01 X15.6046 Y12.8703 F80.00
G01 X15.6296 Y12.9526 F80.00
G01 X15.6380 Y13.0381 F80.00
G01 X15.6367 Y13.0518 F80.00
G01 X15.6359 Y13.0702 F80.00
G01 X15.6359 Y14.5566 F80.00
G01 X15.6369 Y14.5780 F80.00
G01 X15.6391 Y14.5934 F80.00
G01 X15.6407 Y14.6019 F80.00
G01 X15.6453 Y14.6198 F80.00
G01 X15.6504 Y14.6345 F80.00
G01 X15.6536 Y14.6426 F80.00
G01 X15.6603 Y14.6567 F80.00
G01 X15.6644 Y14.6643 F80.00
G01 X15.6726 Y14.6776 F80.00
G01 X15.6817 Y14.6902 F80.00
G01 X15.6872 Y14.6969 F80.00
G01 X15.7017 Y14.7126 F80.00
G01 X15.7133 Y14.7230 F80.00
G01 X15.7200 Y14.7285 F80.00
G01 X15.7326 Y14.7376 F80.00
G01 X15.8258 Y14.7999 F80.00
G01 X15.9626 Y14.9367 F80.00
G01 X16.0701 Y15.0976 F80.00
G01 X16.1441 Y15.2763 F80.00
G01 X16.1819 Y15.4661 F80.00
G01 X16.1819 Y15.6596 F80.00
G01 X16.1441 Y15.8494 F80.00
G01 X16.0701 Y16.0282 F80.00
G01 X15.9626 Y16.1890 F80.00
G01 X15.8258 Y16.3259 F80.00
G01 X15.6649 Y16.4334 F80.00
G01 X15.4861 Y16.5074 F80.00
G01 X15.2963 Y16.5452 F80.00
G01 X15.1028 Y16.5452 F80.00
G01 X14.9131 Y16.5074 F80.00
G01 X14.7343 Y16.4334 F80.00
G01 X14.5734 Y16.3259 F80.00
G01 X14.4366 Y16.1890 F80.00
G01 X14.3291 Y16.0282 F80.00
G01 X14.2550 Y15.8494 F80.00
G01 X14.2173 Y15.6596 F80.00
G01 X14.2173 Y15.4661 F80.00
G01 X14.2550 Y15.2763 F80.00
G01 X14.3291 Y15.0976 F80.00
G01 X14.4366 Y14.9367 F80.00
G01 X14.5734 Y14.7999 F80.00
G01 X14.6665 Y14.7376 F80.00
G01 X14.6791 Y14.7285 F80.00
G01 X14.6859 Y14.7230 F80.00
G01 X14.6974 Y14.7126 F80.00
G01 X14.7120 Y14.6969 F80.00
G01 X14.7250 Y14.6799 F80.00
G01 X14.7347 Y14.6643 F80.00
G01 X14.7402 Y14.6541 F80.00
G01 X14.7478 Y14.6372 F80.00
G01 X14.7539 Y14.6198 F80.00
G01 X14.7591 Y14.5991 F80.00
G01 X14.7622 Y14.5780 F80.00
G01 X14.7631 Y14.5624 F80.00
G01 X14.7633 Y13.3090 F80.00
G01 X14.7622 Y13.2877 F80.00
G01 X14.7601 Y13.2722 F80.00
G01 X14.7585 Y13.2637 F80.00
G01 X14.7539 Y13.2458 F80.00
G01 X14.7488 Y13.2311 F80.00
G01 X14.7456 Y13.2230 F80.00
G01 X14.7389 Y13.2089 F80.00
G01 X14.7347 Y13.2013 F80.00
G01 X14.7266 Y13.1880 F80.00
G01 X14.7174 Y13.1754 F80.00
G01 X14.7120 Y13.1687 F80.00
G01 X14.6995 Y13.1551 F80.00
G01 X14.4044 Y12.8600 F80.00
G01 X14.3908 Y12.8475 F80.00
G01 X14.3762 Y12.8362 F80.00
G01 X14.3666 Y12.8298 F80.00
G01 X14.3531 Y12.8219 F80.00
G01 X14.3338 Y12.8128 F80.00
G01 X14.3137 Y12.8056 F80.00
G01 X14.2958 Y12.8010 F80.00
G01 X14.2776 Y12.7980 F80.00
G01 X14.2661 Y12.7968 F80.00
G01 X14.2505 Y12.7962 F80.00
G01 X13.6325 Y12.7962 F80.00
G01 X13.6111 Y12.7973 F80.00
G01 X13.5957 Y12.7994 F80.00
G01 X13.5872 Y12.8010 F80.00
G01 X13.5665 Y12.8065 F80.00
G01 X13.5465 Y12.8139 F80.00
G01 X13.5273 Y12.8233 F80.00
G01 X13.5139 Y12.8313 F80.00
G01 X13.5068 Y12.8362 F80.00
G01 X13.4944 Y12.8456 F80.00
G01 X13.4806 Y12.8580 F80.00
G01 X13.3286 Y13.0099 F80.00
G01 X13.0940 Y13.1666 F80.00
G01 X12.8334 Y13.2746 F80.00
G01 X12.5568 Y13.3296 F80.00
G01 X12.2747 Y13.3296 F80.00
G01 X11.9980 Y13.2746 F80.00
G01 X11.7374 Y13.1666 F80.00
G01 X11.5029 Y13.0099 F80.00
G01 X11.3034 Y12.8105 F80.00
G01 X11.1467 Y12.5759 F80.00
G01 X11.0388 Y12.3153 F80.00
G01 X10.9838 Y12.0387 F80.00
G01 X10.9838 Y11.7566 F80.00
G01 X11.0388 Y11.4799 F80.00
G01 X11.1467 Y11.2193 F80.00
G01 X11.3034 Y10.9848 F80.00
G01 X11.5029 Y10.7853 F80.00
G01 X11.7374 Y10.6286 F80.00
G01 X11.9980 Y10.5207 F80.00
G01 X12.2747 Y10.4657 F80.00
G00 Z2.0000
G00 X17.4061 Y10.7655
G01 F60.00
G01 Z-0.1001
G01 F80.00
G01 X17.2779 Y10.7590 F80.00
G01 X17.1452 Y10.7393 F80.00
G01 X17.0150 Y10.7067 F80.00
G01 X16.8887 Y10.6615 F80.00
G01 X16.7674 Y10.6042 F80.00
G01 X16.6523 Y10.5352 F80.00
G01 X16.5445 Y10.4552 F80.00
G01 X16.4451 Y10.3651 F80.00
G01 X16.3550 Y10.2657 F80.00
G01 X16.2750 Y10.1579 F80.00
G01 X16.2060 Y10.0428 F80.00
G01 X16.1487 Y9.9215 F80.00
G01 X16.1035 Y9.7952 F80.00
G01 X16.0709 Y9.6650 F80.00
G01 X16.0512 Y9.5323 F80.00
G01 X16.0446 Y9.3983 F80.00
G01 X16.0512 Y9.2643 F80.00
G01 X16.0709 Y9.1315 F80.00
G01 X16.1035 Y9.0014 F80.00
G01 X16.1487 Y8.8750 F80.00
G01 X16.2060 Y8.7537 F80.00
G01 X16.2750 Y8.6386 F80.00
G01 X16.3550 Y8.5309 F80.00
G01 X16.4451 Y8.4314 F80.00
G01 X16.5445 Y8.3413 F80.00
G01 X16.6523 Y8.2614 F80.00
G01 X16.7674 Y8.1924 F80.00
G01 X16.8887 Y8.1350 F80.00
G01 X17.0150 Y8.0898 F80.00
G01 X17.1452 Y8.0572 F80.00
G01 X17.2779 Y8.0375 F80.00
G01 X17.4119 Y8.0309 F80.00
G01 X17.5459 Y8.0375 F80.00
G01 X17.6787 Y8.0572 F80.00
G01 X17.8088 Y8.0898 F80.00
G01 X17.9352 Y8.1350 F80.00
G01 X18.0565 Y8.1924 F80.00
G01 X18.1716 Y8.2614 F80.00
G01 X18.2793 Y8.3413 F80.00
G01 X18.3788 Y8.4314 F80.00
G01 X18.4689 Y8.5309 F80.00
G01 X18.5488 Y8.6386 F80.00
G01 X18.6178 Y8.7537 F80.00
G01 X18.6752 Y8.8750 F80.00
G01 X18.7204 Y9.0014 F80.00
G01 X18.7530 Y9.1315 F80.00
G01 X18.7727 Y9.2643 F80.00
G01 X18.7792 Y9.3983 F80.00
G01 X18.7727 Y9.5323 F80.00
G01 X18.7530 Y9.6650 F80.00
G01 X18.7204 Y9.7952 F80.00
G01 X18.6752 Y9.9215 F80.00
G01 X18.6178 Y10.0428 F80.00
G01 X18.5488 Y10.1579 F80.00
G01 X18.4689 Y10.2657 F80.00
G01 X18.3788 Y10.3651 F80.00
G01 X18.2793 Y10.4552 F80.00
G01 X18.1716 Y10.5352 F80.00
G01 X18.0565 Y10.6042 F80.00
G01 X17.9352 Y10.6615 F80.00
G01 X17.8088 Y10.7067 F80.00
G01 X17.6787 Y10.7393 F80.00
G01 X17.5459 Y10.7590 F80.00
G01 X17.4177 Y10.7655 F80.00
G01 X17.4061 Y10.7655 F80.00
G00 Z2.0000
G00 X17.2709 Y7.9663
G01 F60.00
G01 Z-0.1001
G01 F80.00
G01 X17.5530 Y7.9663 F80.00
G01 X17.8296 Y8.0213 F80.00
G01 X18.0902 Y8.1293 F80.00
G01 X18.3248 Y8.2860 F80.00
G01 X18.5242 Y8.4854 F80.00
G01 X18.6809 Y8.7200 F80.00
G01 X18.7889 Y8.9806 F80.00
G01 X18.8439 Y9.2572 F80.00
G01 X18.8439 Y9.5393 F80.00
G01 X18.7889 Y9.8160 F80.00
G01 X18.6809 Y10.0766 F80.00
G01 X18.5242 Y10.3111 F80.00
G01 X18.3248 Y10.5106 F80.00
G01 X18.0902 Y10.6673 F80.00
G01 X17.8296 Y10.7752 F80.00
G01 X17.5530 Y10.8303 F80.00
G01 X17.2709 Y10.8303 F80.00
G01 X16.9942 Y10.7752 F80.00
G01 X16.7336 Y10.6673 F80.00
G01 X16.4991 Y10.5106 F80.00
G01 X16.2996 Y10.3111 F80.00
G01 X16.1429 Y10.0766 F80.00
G01 X16.0350 Y9.8160 F80.00
G01 X15.9799 Y9.5393 F80.00
G01 X15.9799 Y9.2572 F80.00
G01 X16.0350 Y8.9806 F80.00
G01 X16.1429 Y8.7200 F80.00
G01 X16.2996 Y8.4854 F80.00
G01 X16.4991 Y8.2860 F80.00
G01 X16.7336 Y8.1293 F80.00
G01 X16.9942 Y8.0213 F80.00
G01 X17.2709 Y7.9663 F80.00
G00 Z2.0000
G00 X18.1527 Y14.7881
G01 F60.00
G01 Z-0.1001
G01 F80.00
G01 X18.1527 Y13.3553 F80.00
G01 X18.1545 Y13.3217 F80.00
G01 X18.1598 Y13.2856 F80.00
G01 X18.1687 Y13.2502 F80.00
G01 X18.1810 Y13.2159 F80.00
G01 X18.1966 Y13.1829 F80.00
G01 X18.2153 Y13.1516 F80.00
G01 X18.2371 Y13.1223 F80.00
G01 X18.2595 Y13.0973 F80.00
G01 X19.2598 Y12.0970 F80.00
G01 X19.2868 Y12.0725 F80.00
G01 X19.3161 Y12.0508 F80.00
G01 X19.3474 Y12.0320 F80.00
G01 X19.3751 Y12.0188 F80.00
G01 X19.3858 Y12.0144 F80.00
G01 X19.4147 Y12.0041 F80.00
G01 X19.4445 Y11.9965 F80.00
G01 X19.4558 Y11.9943 F80.00
G01 X19.4862 Y11.9899 F80.00
G01 X19.5198 Y11.9882 F80.00
G01 X21.0451 Y11.9881 F80.00
G01 X21.0408 Y11.8976 F80.00
G01 X21.0469 Y11.7694 F80.00
G01 X21.0477 Y11.7607 F80.00
G01 X21.0670 Y11.6309 F80.00
G01 X21.0981 Y11.5063 F80.00
G01 X21.1005 Y11.4980 F80.00
G01 X21.1448 Y11.3744 F80.00
G01 X21.2022 Y11.2531 F80.00
G01 X21.2712 Y11.1380 F80.00
G01 X21.3493 Y11.0325 F80.00
G01 X21.3549 Y11.0258 F80.00
G01 X21.4412 Y10.9308 F80.00
G01 X21.5363 Y10.8444 F80.00
G01 X21.5452 Y10.8371 F80.00
G01 X21.6437 Y10.7641 F80.00
G01 X21.6533 Y10.7577 F80.00
G01 X21.7635 Y10.6918 F80.00
G01 X21.8848 Y10.6344 F80.00
G01 X22.0112 Y10.5892 F80.00
G01 X22.1385 Y10.5572 F80.00
G01 X22.1470 Y10.5556 F80.00
G01 X22.2683 Y10.5376 F80.00
G01 X22.2798 Y10.5365 F80.00
G01 X22.4081 Y10.5303 F80.00
G01 X22.5421 Y10.5369 F80.00
G01 X22.6749 Y10.5566 F80.00
G01 X22.7994 Y10.5876 F80.00
G01 X22.8105 Y10.5910 F80.00
G01 X22.9314 Y10.6344 F80.00
G01 X23.0475 Y10.6892 F80.00
G01 X23.0577 Y10.6946 F80.00
G01 X23.1677 Y10.7607 F80.00
G01 X23.2755 Y10.8407 F80.00
G01 X23.3749 Y10.9308 F80.00
G01 X23.4613 Y11.0258 F80.00
G01 X23.4686 Y11.0348 F80.00
G01 X23.5450 Y11.1380 F80.00
G01 X23.6140 Y11.2531 F80.00
G01 X23.6713 Y11.3744 F80.00
G01 X23.7166 Y11.5007 F80.00
G01 X23.7479 Y11.6253 F80.00
G01 X23.7501 Y11.6366 F80.00
G01 X23.7688 Y11.7636 F80.00
G01 X23.7753 Y11.8919 F80.00
G01 X23.7753 Y11.9034 F80.00
G01 X23.7688 Y12.0317 F80.00
G01 X23.7501 Y12.1587 F80.00
G01 X23.7479 Y12.1700 F80.00
G01 X23.7181 Y12.2890 F80.00
G01 X23.7147 Y12.3000 F80.00
G01 X23.6713 Y12.4209 F80.00
G01 X23.6140 Y12.5422 F80.00
G01 X23.5450 Y12.6573 F80.00
G01 X23.4651 Y12.7651 F80.00
G01 X23.3749 Y12.8645 F80.00
G01 X23.2755 Y12.9546 F80.00
G01 X23.1677 Y13.0345 F80.00
G01 X23.0577 Y13.1007 F80.00
G01 X23.0501 Y13.1048 F80.00
G01 X22.9314 Y13.1609 F80.00
G01 X22.8105 Y13.2043 F80.00
G01 X22.7994 Y13.2076 F80.00
G01 X22.6749 Y13.2387 F80.00
G01 X22.5421 Y13.2584 F80.00
G01 X22.4139 Y13.2648 F80.00
G01 X22.4023 Y13.2648 F80.00
G01 X22.2741 Y13.2584 F80.00
G01 X22.1413 Y13.2387 F80.00
G01 X22.0112 Y13.2061 F80.00
G01 X21.8848 Y13.1609 F80.00
G01 X21.7687 Y13.1061 F80.00
G01 X21.7610 Y13.1021 F80.00
G01 X21.6485 Y13.0345 F80.00
G01 X21.5452 Y12.9582 F80.00
G01 X21.5385 Y12.9527 F80.00
G01 X21.4454 Y12.8685 F80.00
G01 X21.4392 Y12.8624 F80.00
G01 X21.3530 Y12.7673 F80.00
G01 X21.3476 Y12.7605 F80.00
G01 X21.3262 Y12.7317 F80.00
G01 X19.6767 Y12.7317 F80.00
G01 X18.8962 Y13.5121 F80.00
G01 X18.8962 Y14.7881 F80.00
G01 X18.9570 Y14.8171 F80.00
G01 X19.0294 Y14.8603 F80.00
G01 X19.0390 Y14.8667 F80.00
G01 X19.1066 Y14.9170 F80.00
G01 X19.1733 Y14.9775 F80.00
G01 X19.2300 Y15.0398 F80.00
G01 X19.2373 Y15.0488 F80.00
G01 X19.2874 Y15.1165 F80.00
G01 X19.3309 Y15.1888 F80.00
G01 X19.3363 Y15.1989 F80.00
G01 X19.3722 Y15.2752 F80.00
G01 X19.4026 Y15.3600 F80.00
G01 X19.4232 Y15.4417 F80.00
G01 X19.4254 Y15.4530 F80.00
G01 X19.4377 Y15.5364 F80.00
G01 X19.4421 Y15.6264 F80.00
G01 X19.4377 Y15.7163 F80.00
G01 X19.4254 Y15.7997 F80.00
G01 X19.4232 Y15.8110 F80.00
G01 X19.4026 Y15.8927 F80.00
G01 X19.3722 Y15.9775 F80.00
G01 X19.3363 Y16.0538 F80.00
G01 X19.3309 Y16.0640 F80.00
G01 X19.2874 Y16.1362 F80.00
G01 X19.2373 Y16.2040 F80.00
G01 X19.2300 Y16.2129 F80.00
G01 X19.1733 Y16.2752 F80.00
G01 X19.1066 Y16.3357 F80.00
G01 X19.0390 Y16.3860 F80.00
G01 X19.0294 Y16.3924 F80.00
G01 X18.9570 Y16.4357 F80.00
G01 X18.8783 Y16.4730 F80.00
G01 X18.8702 Y16.4762 F80.00
G01 X18.7908 Y16.5045 F80.00
G01 X18.7035 Y16.5264 F80.00
G01 X18.6144 Y16.5396 F80.00
G01 X18.5244 Y16.5440 F80.00
G01 X18.4345 Y16.5396 F80.00
G01 X18.3454 Y16.5264 F80.00
G01 X18.2581 Y16.5045 F80.00
G01 X18.1733 Y16.4742 F80.00
G01 X18.0919 Y16.4357 F80.00
G01 X18.0146 Y16.3894 F80.00
G01 X17.9423 Y16.3357 F80.00
G01 X17.8756 Y16.2752 F80.00
G01 X17.8151 Y16.2085 F80.00
G01 X17.7614 Y16.1362 F80.00
G01 X17.7151 Y16.0589 F80.00
G01 X17.6778 Y15.9802 F80.00
G01 X17.6746 Y15.9721 F80.00
G01 X17.6463 Y15.8927 F80.00
G01 X17.6244 Y15.8054 F80.00
G01 X17.6112 Y15.7163 F80.00
G01 X17.6068 Y15.6264 F80.00
G01 X17.6112 Y15.5364 F80.00
G01 X17.6244 Y15.4473 F80.00
G01 X17.6463 Y15.3600 F80.00
G01 X17.6756 Y15.2779 F80.00
G01 X17.6790 Y15.2699 F80.00
G01 X17.7151 Y15.1938 F80.00
G01 X17.7614 Y15.1165 F80.00
G01 X17.8151 Y15.0442 F80.00
G01 X17.8735 Y14.9795 F80.00
G01 X17.8797 Y14.9735 F80.00
G01 X17.9423 Y14.9170 F80.00
G01 X18.0146 Y14.8634 F80.00
G01 X18.0919 Y14.8171 F80.00
G01 X18.1527 Y14.7881 F80.00
G00 Z2.0000
G00 X24.9042 Y10.7629
G01 F60.00
G01 Z-0.1001
G01 F80.00
G01 X24.7760 Y10.7565 F80.00
G01 X24.6432 Y10.7368 F80.00
G01 X24.5131 Y10.7042 F80.00
G01 X24.3867 Y10.6590 F80.00
G01 X24.2654 Y10.6016 F80.00
G01 X24.1504 Y10.5326 F80.00
G01 X24.0426 Y10.4527 F80.00
G01 X23.9431 Y10.3626 F80.00
G01 X23.8530 Y10.2632 F80.00
G01 X23.7731 Y10.1554 F80.00
G01 X23.7041 Y10.0403 F80.00
G01 X23.6467 Y9.9190 F80.00
G01 X23.6015 Y9.7927 F80.00
G01 X23.5689 Y9.6625 F80.00
G01 X23.5493 Y9.5298 F80.00
G01 X23.5427 Y9.3957 F80.00
G01 X23.5493 Y9.2617 F80.00
G01 X23.5689 Y9.1290 F80.00
G01 X23.6015 Y8.9988 F80.00
G01 X23.6467 Y8.8725 F80.00
G01 X23.7041 Y8.7512 F80.00
G01 X23.7731 Y8.6361 F80.00
G01 X23.8530 Y8.5283 F80.00
G01 X23.9431 Y8.4289 F80.00
G01 X24.0426 Y8.3388 F80.00
G01 X24.1504 Y8.2588 F80.00
G01 X24.2654 Y8.1899 F80.00
G01 X24.3867 Y8.1325 F80.00
G01 X24.5131 Y8.0873 F80.00
G01 X24.6432 Y8.0547 F80.00
G01 X24.7760 Y8.0350 F80.00
G01 X24.9100 Y8.0284 F80.00
G01 X25.0440 Y8.0350 F80.00
G01 X25.1768 Y8.0547 F80.00
G01 X25.3069 Y8.0873 F80.00
G01 X25.4333 Y8.1325 F80.00
G01 X25.5546 Y8.1899 F80.00
G01 X25.6696 Y8.2588 F80.00
G01 X25.7774 Y8.3388 F80.00
G01 X25.8768 Y8.4289 F80.00
G01 X25.9670 Y8.5283 F80.00
G01 X26.0469 Y8.6361 F80.00
G01 X26.1159 Y8.7512 F80.00
G01 X26.1732 Y8.8725 F80.00
G01 X26.2185 Y8.9988 F80.00
G01 X26.2511 Y9.1290 F80.00
G01 X26.2707 Y9.2617 F80.00
G01 X26.2773 Y9.3957 F80.00
G01 X26.2707 Y9.5298 F80.00
G01 X26.2511 Y9.6625 F80.00
G01 X26.2185 Y9.7927 F80.00
G01 X26.1732 Y9.9190 F80.00
G01 X26.1159 Y10.0403 F80.00
G01 X26.0469 Y10.1554 F80.00
G01 X25.9670 Y10.2632 F80.00
G01 X25.8768 Y10.3626 F80.00
G01 X25.7774 Y10.4527 F80.00
G01 X25.6696 Y10.5326 F80.00
G01 X25.5546 Y10.6016 F80.00
G01 X25.4333 Y10.6590 F80.00
G01 X25.3069 Y10.7042 F80.00
G01 X25.1768 Y10.7368 F80.00
G01 X25.0440 Y10.7565 F80.00
G01 X24.9158 Y10.7629 F80.00
G01 X24.9042 Y10.7629 F80.00
G00 Z2.0000
G00 X24.7690 Y7.9638
G01 F60.00
G01 Z-0.1001
G01 F80.00
G01 X25.0510 Y7.9638 F80.00
G01 X25.3277 Y8.0188 F80.00
G01 X25.5883 Y8.1267 F80.00
G01 X25.8228 Y8.2834 F80.00
G01 X26.0223 Y8.4829 F80.00
G01 X26.1790 Y8.7174 F80.00
G01 X26.2869 Y8.9780 F80.00
G01 X26.3420 Y9.2547 F80.00
G01 X26.3420 Y9.5368 F80.00
G01 X26.2869 Y9.8134 F80.00
G01 X26.1790 Y10.0740 F80.00
G01 X26.0223 Y10.3086 F80.00
G01 X25.8228 Y10.5080 F80.00
G01 X25.5883 Y10.6647 F80.00
G01 X25.3277 Y10.7727 F80.00
G01 X25.0510 Y10.8277 F80.00
G01 X24.7690 Y10.8277 F80.00
G01 X24.4923 Y10.7727 F80.00
G01 X24.2317 Y10.6647 F80.00
G01 X23.9972 Y10.5080 F80.00
G01 X23.7977 Y10.3086 F80.00
G01 X23.6410 Y10.0740 F80.00
G01 X23.5330 Y9.8134 F80.00
G01 X23.4780 Y9.5368 F80.00
G01 X23.4780 Y9.2547 F80.00
G01 X23.5330 Y8.9780 F80.00
G01 X23.6410 Y8.7174 F80.00
G01 X23.7977 Y8.4829 F80.00
G01 X23.9972 Y8.2834 F80.00
G01 X24.2317 Y8.1267 F80.00
G01 X24.4923 Y8.0188 F80.00
G01 X24.7690 Y7.9638 F80.00
G00 Z2.0000
G00 X25.5989 Y19.1272
G01 F60.00
G01 Z-0.1001
G01 F80.00
G01 X25.5946 Y19.2113 F80.00
G01 X25.5814 Y19.3004 F80.00
G01 X25.5595 Y19.3878 F80.00
G01 X25.5292 Y19.4726 F80.00
G01 X25.4907 Y19.5540 F80.00
G01 X25.4444 Y19.6312 F80.00
G01 X25.3908 Y19.7035 F80.00
G01 X25.3303 Y19.7703 F80.00
G01 X25.2635 Y19.8308 F80.00
G01 X25.1912 Y19.8844 F80.00
G01 X25.1140 Y19.9307 F80.00
G01 X25.0326 Y19.9692 F80.00
G01 X24.9478 Y19.9995 F80.00
G01 X24.8604 Y20.0214 F80.00
G01 X24.7713 Y20.0346 F80.00
G01 X24.6814 Y20.0390 F80.00
G01 X24.5915 Y20.0346 F80.00
G01 X24.5024 Y20.0214 F80.00
G01 X24.4150 Y19.9995 F80.00
G01 X24.3302 Y19.9692 F80.00
G01 X24.2488 Y19.9307 F80.00
G01 X24.1716 Y19.8844 F80.00
G01 X24.0992 Y19.8308 F80.00
G01 X24.0325 Y19.7703 F80.00
G01 X23.9720 Y19.7035 F80.00
G01 X23.9184 Y19.6312 F80.00
G01 X23.8721 Y19.5540 F80.00
G01 X23.8336 Y19.4726 F80.00
G01 X23.8033 Y19.3878 F80.00
G01 X23.7814 Y19.3004 F80.00
G01 X23.7682 Y19.2113 F80.00
G01 X23.7637 Y19.1214 F80.00
G01 X23.7682 Y19.0315 F80.00
G01 X23.7814 Y18.9424 F80.00
G01 X23.8033 Y18.8550 F80.00
G01 X23.8336 Y18.7702 F80.00
G01 X23.8721 Y18.6888 F80.00
G01 X23.9184 Y18.6116 F80.00
G01 X23.9720 Y18.5392 F80.00
G01 X24.0325 Y18.4725 F80.00
G01 X24.0992 Y18.4120 F80.00
G01 X24.1716 Y18.3584 F80.00
G01 X24.2488 Y18.3121 F80.00
G01 X24.3302 Y18.2736 F80.00
G01 X24.4150 Y18.2433 F80.00
G01 X24.5024 Y18.2214 F80.00
G01 X24.5915 Y18.2082 F80.00
G01 X24.6814 Y18.2037 F80.00
G01 X24.7713 Y18.2082 F80.00
G01 X24.8604 Y18.2214 F80.00
G01 X24.9478 Y18.2433 F80.00
G01 X25.0326 Y18.2736 F80.00
G01 X25.1140 Y18.3121 F80.00
G01 X25.1912 Y18.3584 F80.00
G01 X25.2635 Y18.4120 F80.00
G01 X25.3303 Y18.4725 F80.00
G01 X25.3908 Y18.5392 F80.00
G01 X25.4444 Y18.6116 F80.00
G01 X25.4907 Y18.6888 F80.00
G01 X25.5292 Y18.7702 F80.00
G01 X25.5595 Y18.8550 F80.00
G01 X25.5814 Y18.9424 F80.00
G01 X25.5946 Y19.0315 F80.00
G01 X25.5989 Y19.1156 F80.00
G01 X25.5989 Y19.1272 F80.00
G00 Z2.0000
G00 X25.5989 Y21.6672
G01 F60.00
G01 Z-0.1001
G01 F80.00
G01 X25.5946 Y21.7513 F80.00
G01 X25.5814 Y21.8404 F80.00
G01 X25.5595 Y21.9278 F80.00
G01 X25.5292 Y22.0126 F80.00
G01 X25.4907 Y22.0940 F80.00
G01 X25.4444 Y22.1712 F80.00
G01 X25.3908 Y22.2435 F80.00
G01 X25.3303 Y22.3103 F80.00
G01 X25.2635 Y22.3708 F80.00
G01 X25.1912 Y22.4244 F80.00
G01 X25.1140 Y22.4707 F80.00
G01 X25.0326 Y22.5092 F80.00
G01 X24.9478 Y22.5395 F80.00
G01 X24.8604 Y22.5614 F80.00
G01 X24.7713 Y22.5746 F80.00
G01 X24.6814 Y22.5790 F80.00
G01 X24.5915 Y22.5746 F80.00
G01 X24.5024 Y22.5614 F80.00
G01 X24.4150 Y22.5395 F80.00
G01 X24.3302 Y22.5092 F80.00
G01 X24.2488 Y22.4707 F80.00
G01 X24.1716 Y22.4244 F80.00
G01 X24.0992 Y22.3708 F80.00
G01 X24.0325 Y22.3103 F80.00
G01 X23.9720 Y22.2435 F80.00
G01 X23.9184 Y22.1712 F80.00
G01 X23.8721 Y22.0940 F80.00
G01 X23.8336 Y22.0126 F80.00
G01 X23.8033 Y21.9278 F80.00
G01 X23.7814 Y21.8404 F80.00
G01 X23.7682 Y21.7513 F80.00
G01 X23.7637 Y21.6614 F80.00
G01 X23.7682 Y21.5715 F80.00
G01 X23.7814 Y21.4824 F80.00
G01 X23.8033 Y21.3950 F80.00
G01 X23.8336 Y21.3102 F80.00
G01 X23.8721 Y21.2288 F80.00
G01 X23.9184 Y21.1516 F80.00
G01 X23.9720 Y21.0792 F80.00
G01 X24.0325 Y21.0125 F80.00
G01 X24.0992 Y20.9520 F80.00
G01 X24.1716 Y20.8984 F80.00
G01 X24.2488 Y20.8521 F80.00
G01 X24.3302 Y20.8136 F80.00
G01 X24.4150 Y20.7833 F80.00
G01 X24.5024 Y20.7614 F80.00
G01 X24.5915 Y20.7482 F80.00
G01 X24.6814 Y20.7437 F80.00
G01 X24.7713 Y20.7482 F80.00
G01 X24.8604 Y20.7614 F80.00
G01 X24.9478 Y20.7833 F80.00
G01 X25.0326 Y20.8136 F80.00
G01 X25.1140 Y20.8521 F80.00
G01 X25.1912 Y20.8984 F80.00
G01 X25.2635 Y20.9520 F80.00
G01 X25.3303 Y21.0125 F80.00
G01 X25.3908 Y21.0792 F80.00
G01 X25.4444 Y21.1516 F80.00
G01 X25.4907 Y21.2288 F80.00
G01 X25.5292 Y21.3102 F80.00
G01 X25.5595 Y21.3950 F80.00
G01 X25.5814 Y21.4824 F80.00
G01 X25.5946 Y21.5715 F80.00
G01 X25.5989 Y21.6556 F80.00
G01 X25.5989 Y21.6672 F80.00
G00 Z2.0000
G00 X24.5846 Y22.6437
G01 F60.00
G01 Z-0.1001
G01 F80.00
G01 X24.3949 Y22.6059 F80.00
G01 X24.2161 Y22.5319 F80.00
G01 X24.0552 Y22.4244 F80.00
G01 X23.9184 Y22.2876 F80.00
G01 X23.8109 Y22.1267 F80.00
G01 X23.7368 Y21.9479 F80.00
G01 X23.6991 Y21.7581 F80.00
G01 X23.6991 Y21.5646 F80.00
G01 X23.7368 Y21.3749 F80.00
G01 X23.8109 Y21.1961 F80.00
G01 X23.9184 Y21.0352 F80.00
G01 X24.0552 Y20.8984 F80.00
G01 X24.2161 Y20.7909 F80.00
G01 X24.3949 Y20.7168 F80.00
G01 X24.5846 Y20.6791 F80.00
G01 X24.7781 Y20.6791 F80.00
G01 X24.9679 Y20.7168 F80.00
G01 X25.1467 Y20.7909 F80.00
G01 X25.3076 Y20.8984 F80.00
G01 X25.4444 Y21.0352 F80.00
G01 X25.5519 Y21.1961 F80.00
G01 X25.6259 Y21.3749 F80.00
G01 X25.6637 Y21.5646 F80.00
G01 X25.6637 Y21.7581 F80.00
G01 X25.6259 Y21.9479 F80.00
G01 X25.5519 Y22.1267 F80.00
G01 X25.4444 Y22.2876 F80.00
G01 X25.3076 Y22.4244 F80.00
G01 X25.1467 Y22.5319 F80.00
G01 X24.9679 Y22.6059 F80.00
G01 X24.7781 Y22.6437 F80.00
G01 X24.5846 Y22.6437 F80.00
G00 Z2.0000
G00 X24.5846 Y23.2191
G01 F60.00
G01 Z-0.1001
G01 F80.00
G01 X24.7781 Y23.2191 F80.00
G01 X24.9679 Y23.2568 F80.00
G01 X25.1467 Y23.3309 F80.00
G01 X25.3076 Y23.4384 F80.00
G01 X25.4444 Y23.5752 F80.00
G01 X25.5519 Y23.7361 F80.00
G01 X25.6259 Y23.9149 F80.00
G01 X25.6637 Y24.1046 F80.00
G01 X25.6637 Y24.2981 F80.00
G01 X25.6259 Y24.4879 F80.00
G01 X25.5519 Y24.6667 F80.00
G01 X25.4444 Y24.8276 F80.00
G01 X25.3076 Y24.9644 F80.00
G01 X25.1467 Y25.0719 F80.00
G01 X24.9679 Y25.1459 F80.00
G01 X24.7781 Y25.1837 F80.00
G01 X24.5846 Y25.1837 F80.00
G01 X24.3949 Y25.1459 F80.00
G01 X24.2161 Y25.0719 F80.00
G01 X24.0552 Y24.9644 F80.00
G01 X23.9184 Y24.8276 F80.00
G01 X23.8109 Y24.6667 F80.00
G01 X23.7368 Y24.4879 F80.00
G01 X23.6991 Y24.2981 F80.00
G01 X23.6991 Y24.1046 F80.00
G01 X23.7368 Y23.9149 F80.00
G01 X23.8109 Y23.7361 F80.00
G01 X23.9184 Y23.5752 F80.00
G01 X24.0552 Y23.4384 F80.00
G01 X24.2161 Y23.3309 F80.00
G01 X24.3949 Y23.2568 F80.00
G01 X24.5846 Y23.2191 F80.00
G00 Z2.0000
G00 X25.5989 Y24.2072
G01 F60.00
G01 Z-0.1001
G01 F80.00
G01 X25.5946 Y24.2913 F80.00
G01 X25.5814 Y24.3804 F80.00
G01 X25.5595 Y24.4678 F80.00
G01 X25.5292 Y24.5526 F80.00
G01 X25.4907 Y24.6340 F80.00
G01 X25.4444 Y24.7112 F80.00
G01 X25.3908 Y24.7835 F80.00
G01 X25.3303 Y24.8503 F80.00
G01 X25.2635 Y24.9108 F80.00
G01 X25.1912 Y24.9644 F80.00
G01 X25.1140 Y25.0107 F80.00
G01 X25.0326 Y25.0492 F80.00
G01 X24.9478 Y25.0795 F80.00
G01 X24.8604 Y25.1014 F80.00
G01 X24.7713 Y25.1146 F80.00
G01 X24.6814 Y25.1190 F80.00
G01 X24.5915 Y25.1146 F80.00
G01 X24.5024 Y25.1014 F80.00
G01 X24.4150 Y25.0795 F80.00
G01 X24.3302 Y25.0492 F80.00
G01 X24.2488 Y25.0107 F80.00
G01 X24.1716 Y24.9644 F80.00
G01 X24.0992 Y24.9108 F80.00
G01 X24.0325 Y24.8503 F80.00
G01 X23.9720 Y24.7835 F80.00
G01 X23.9184 Y24.7112 F80.00
G01 X23.8721 Y24.6340 F80.00
G01 X23.8336 Y24.5526 F80.00
G01 X23.8033 Y24.4678 F80.00
G01 X23.7814 Y24.3804 F80.00
G01 X23.7682 Y24.2913 F80.00
G01 X23.7637 Y24.2014 F80.00
G01 X23.7682 Y24.1115 F80.00
G01 X23.7814 Y24.0224 F80.00
G01 X23.8033 Y23.9350 F80.00
G01 X23.8336 Y23.8502 F80.00
G01 X23.8721 Y23.7688 F80.00
G01 X23.9184 Y23.6916 F80.00
G01 X23.9720 Y23.6192 F80.00
G01 X24.0325 Y23.5525 F80.00
G01 X24.0992 Y23.4920 F80.00
G01 X24.1716 Y23.4384 F80.00
G01 X24.2488 Y23.3921 F80.00
G01 X24.3302 Y23.3536 F80.00
G01 X24.4150 Y23.3233 F80.00
G01 X24.5024 Y23.3014 F80.00
G01 X24.5915 Y23.2882 F80.00
G01 X24.6814 Y23.2837 F80.00
G01 X24.7713 Y23.2882 F80.00
G01 X24.8604 Y23.3014 F80.00
G01 X24.9478 Y23.3233 F80.00
G01 X25.0326 Y23.3536 F80.00
G01 X25.1140 Y23.3921 F80.00
G01 X25.1912 Y23.4384 F80.00
G01 X25.2635 Y23.4920 F80.00
G01 X25.3303 Y23.5525 F80.00
G01 X25.3908 Y23.6192 F80.00
G01 X25.4444 Y23.6916 F80.00
G01 X25.4907 Y23.7688 F80.00
G01 X25.5292 Y23.8502 F80.00
G01 X25.5595 Y23.9350 F80.00
G01 X25.5814 Y24.0224 F80.00
G01 X25.5946 Y24.1115 F80.00
G01 X25.5989 Y24.1956 F80.00
G01 X25.5989 Y24.2072 F80.00
G00 Z2.0000
G00 X25.5989 Y26.7472
G01 F60.00
G01 Z-0.1001
G01 F80.00
G01 X25.5946 Y26.8313 F80.00
G01 X25.5814 Y26.9204 F80.00
G01 X25.5595 Y27.0078 F80.00
G01 X25.5292 Y27.0926 F80.00
G01 X25.4907 Y27.1740 F80.00
G01 X25.4444 Y27.2512 F80.00
G01 X25.3908 Y27.3235 F80.00
G01 X25.3303 Y27.3903 F80.00
G01 X25.2635 Y27.4508 F80.00
G01 X25.1912 Y27.5044 F80.00
G01 X25.1140 Y27.5507 F80.00
G01 X25.0326 Y27.5892 F80.00
G01 X24.9478 Y27.6195 F80.00
G01 X24.8604 Y27.6414 F80.00
G01 X24.7713 Y27.6546 F80.00
G01 X24.6814 Y27.6590 F80.00
G01 X24.5915 Y27.6546 F80.00
G01 X24.5024 Y27.6414 F80.00
G01 X24.4150 Y27.6195 F80.00
G01 X24.3302 Y27.5892 F80.00
G01 X24.2488 Y27.5507 F80.00
G01 X24.1716 Y27.5044 F80.00
G01 X24.0992 Y27.4508 F80.00
G01 X24.0325 Y27.3903 F80.00
G01 X23.9720 Y27.3235 F80.00
G01 X23.9184 Y27.2512 F80.00
G01 X23.8721 Y27.1740 F80.00
G01 X23.8336 Y27.0926 F80.00
G01 X23.8033 Y27.0078 F80.00
G01 X23.7814 Y26.9204 F80.00
G01 X23.7682 Y26.8313 F80.00
G01 X23.7637 Y26.7414 F80.00
G01 X23.7682 Y26.6515 F80.00
G01 X23.7814 Y26.5624 F80.00
G01 X23.8033 Y26.4750 F80.00
G01 X23.8336 Y26.3902 F80.00
G01 X23.8721 Y26.3088 F80.00
G01 X23.9184 Y26.2316 F80.00
G01 X23.9720 Y26.1592 F80.00
G01 X24.0325 Y26.0925 F80.00
G01 X24.0992 Y26.0320 F80.00
G01 X24.1716 Y25.9784 F80.00
G01 X24.2488 Y25.9321 F80.00
G01 X24.3302 Y25.8936 F80.00
G01 X24.4150 Y25.8633 F80.00
G01 X24.5024 Y25.8414 F80.00
G01 X24.5915 Y25.8282 F80.00
G01 X24.6814 Y25.8237 F80.00
G01 X24.7713 Y25.8282 F80.00
G01 X24.8604 Y25.8414 F80.00
G01 X24.9478 Y25.8633 F80.00
G01 X25.0326 Y25.8936 F80.00
G01 X25.1140 Y25.9321 F80.00
G01 X25.1912 Y25.9784 F80.00
G01 X25.2635 Y26.0320 F80.00
G01 X25.3303 Y26.0925 F80.00
G01 X25.3908 Y26.1592 F80.00
G01 X25.4444 Y26.2316 F80.00
G01 X25.4907 Y26.3088 F80.00
G01 X25.5292 Y26.3902 F80.00
G01 X25.5595 Y26.4750 F80.00
G01 X25.5814 Y26.5624 F80.00
G01 X25.5946 Y26.6515 F80.00
G01 X25.5989 Y26.7356 F80.00
G01 X25.5989 Y26.7472 F80.00
G00 Z2.0000
G00 X18.8961 Y26.6246
G01 F60.00
G01 Z-0.1001
G01 F80.00
G01 X18.9570 Y26.5957 F80.00
G01 X19.0343 Y26.5494 F80.00
G01 X19.1066 Y26.4957 F80.00
G01 X19.1733 Y26.4352 F80.00
G01 X19.2338 Y26.3685 F80.00
G01 X19.2874 Y26.2962 F80.00
G01 X19.3337 Y26.2189 F80.00
G01 X19.3627 Y26.1581 F80.00
G01 X19.6386 Y26.1581 F80.00
G01 X19.6448 Y26.1701 F80.00
G01 X19.5885 Y26.3175 F80.00
G01 X19.4644 Y26.5149 F80.00
G01 X19.3042 Y26.6843 F80.00
G01 X19.1140 Y26.8192 F80.00
G01 X18.9133 Y26.9089 F80.00
G01 X18.8961 Y26.9001 F80.00
G01 X18.8961 Y26.6246 F80.00
G00 Z2.0000
G00 X17.6862 Y26.1581
G01 F60.00
G01 Z-0.1001
G01 F80.00
G01 X17.7151 Y26.2189 F80.00
G01 X17.7614 Y26.2962 F80.00
G01 X17.8151 Y26.3685 F80.00
G01 X17.8756 Y26.4352 F80.00
G01 X17.9423 Y26.4957 F80.00
G01 X18.0146 Y26.5494 F80.00
G01 X18.0919 Y26.5957 F80.00
G01 X18.1527 Y26.6246 F80.00
G01 X18.1527 Y26.9001 F80.00
G01 X18.1356 Y26.9089 F80.00
G01 X17.9348 Y26.8192 F80.00
G01 X17.7447 Y26.6843 F80.00
G01 X17.5845 Y26.5149 F80.00
G01 X17.4604 Y26.3175 F80.00
G01 X17.4041 Y26.1701 F80.00
G01 X17.4102 Y26.1581 F80.00
G01 X17.6862 Y26.1581 F80.00
G00 Z2.0000
G00 X17.6862 Y25.4147
G01 F60.00
G01 Z-0.1001
G01 F80.00
G01 X17.4102 Y25.4147 F80.00
G01 X17.4041 Y25.4026 F80.00
G01 X17.4604 Y25.2552 F80.00
G01 X17.5845 Y25.0578 F80.00
G01 X17.7447 Y24.8884 F80.00
G01 X17.9348 Y24.7535 F80.00
G01 X18.1356 Y24.6638 F80.00
G01 X18.1527 Y24.6726 F80.00
G01 X18.1527 Y24.9481 F80.00
G01 X18.0919 Y24.9771 F80.00
G01 X18.0146 Y25.0234 F80.00
G01 X17.9423 Y25.0770 F80.00
G01 X17.8756 Y25.1375 F80.00
G01 X17.8151 Y25.2042 F80.00
G01 X17.7614 Y25.2765 F80.00
G01 X17.7151 Y25.3538 F80.00
G01 X17.6862 Y25.4147 F80.00
G00 Z2.0000
G00 X18.8961 Y24.9481
G01 F60.00
G01 Z-0.1001
G01 F80.00
G01 X18.8961 Y24.6726 F80.00
G01 X18.9133 Y24.6638 F80.00
G01 X19.1140 Y24.7535 F80.00
G01 X19.3042 Y24.8884 F80.00
G01 X19.4644 Y25.0578 F80.00
G01 X19.5885 Y25.2552 F80.00
G01 X19.6448 Y25.4026 F80.00
G01 X19.6386 Y25.4147 F80.00
G01 X19.3627 Y25.4147 F80.00
G01 X19.3337 Y25.3538 F80.00
G01 X19.2874 Y25.2765 F80.00
G01 X19.2338 Y25.2042 F80.00
G01 X19.1733 Y25.1375 F80.00
G01 X19.1066 Y25.0770 F80.00
G01 X19.0343 Y25.0234 F80.00
G01 X18.9570 Y24.9771 F80.00
G01 X18.8961 Y24.9481 F80.00
G00 Z2.0000
G00 X15.5294 Y24.8673
G01 F60.00
G01 Z-0.1001
G01 F80.00
G01 X17.7637 Y22.6330 F80.00
G01 X17.7907 Y22.6085 F80.00
G01 X17.8200 Y22.5867 F80.00
G01 X17.8513 Y22.5680 F80.00
G01 X17.8762 Y22.5561 F80.00
G01 X23.2374 Y17.1948 F80.00
G01 X23.2601 Y17.1741 F80.00
G01 X23.2690 Y17.1668 F80.00
G01 X23.2937 Y17.1486 F80.00
G01 X23.3250 Y17.1298 F80.00
G01 X23.3527 Y17.1166 F80.00
G01 X23.3634 Y17.1121 F80.00
G01 X23.3924 Y17.1019 F80.00
G01 X23.4221 Y17.0943 F80.00
G01 X23.4335 Y17.0921 F80.00
G01 X23.4639 Y17.0877 F80.00
G01 X23.5003 Y17.0859 F80.00
G01 X26.0149 Y17.0859 F80.00
G01 X26.0456 Y17.0873 F80.00
G01 X26.0571 Y17.0884 F80.00
G01 X26.0874 Y17.0931 F80.00
G01 X26.1228 Y17.1019 F80.00
G01 X26.1572 Y17.1142 F80.00
G01 X26.1850 Y17.1272 F80.00
G01 X26.1952 Y17.1327 F80.00
G01 X26.2214 Y17.1486 F80.00
G01 X26.2462 Y17.1668 F80.00
G01 X26.2530 Y17.1722 F80.00
G01 X26.2757 Y17.1928 F80.00
G01 X27.3954 Y18.3124 F80.00
G01 X27.4161 Y18.3351 F80.00
G01 X27.4234 Y18.3440 F80.00
G01 X27.4416 Y18.3687 F80.00
G01 X27.4604 Y18.4000 F80.00
G01 X27.4736 Y18.4277 F80.00
G01 X27.4781 Y18.4384 F80.00
G01 X27.4883 Y18.4674 F80.00
G01 X27.4959 Y18.4971 F80.00
G01 X27.4981 Y18.5085 F80.00
G01 X27.5025 Y18.5389 F80.00
G01 X27.5043 Y18.5753 F80.00
G01 X27.5043 Y26.8303 F80.00
G01 X27.5025 Y26.8667 F80.00
G01 X27.4971 Y26.9028 F80.00
G01 X27.4883 Y26.9382 F80.00
G01 X27.4781 Y26.9672 F80.00
G01 X27.4736 Y26.9779 F80.00
G01 X27.4604 Y27.0056 F80.00
G01 X27.4447 Y27.0320 F80.00
G01 X27.4383 Y27.0416 F80.00
G01 X27.4199 Y27.0662 F80.00
G01 X27.3974 Y27.0911 F80.00
G01 X25.5370 Y28.9516 F80.00
G01 X25.5595 Y29.0150 F80.00
G01 X25.5814 Y29.1024 F80.00
G01 X25.5946 Y29.1915 F80.00
G01 X25.5990 Y29.2814 F80.00
G01 X25.5946 Y29.3713 F80.00
G01 X25.5814 Y29.4604 F80.00
G01 X25.5595 Y29.5478 F80.00
G01 X25.5313 Y29.6272 F80.00
G01 X25.5269 Y29.6378 F80.00
G01 X25.4933 Y29.7088 F80.00
G01 X25.4878 Y29.7190 F80.00
G01 X25.4444 Y29.7912 F80.00
G01 X25.3943 Y29.8590 F80.00
G01 X25.3870 Y29.8679 F80.00
G01 X25.3303 Y29.9303 F80.00
G01 X25.2635 Y29.9908 F80.00
G01 X25.1912 Y30.0444 F80.00
G01 X25.1140 Y30.0907 F80.00
G01 X25.0326 Y30.1292 F80.00
G01 X24.9533 Y30.1577 F80.00
G01 X24.9422 Y30.1611 F80.00
G01 X24.8604 Y30.1814 F80.00
G01 X24.7713 Y30.1946 F80.00
G01 X24.6872 Y30.1989 F80.00
G01 X24.6756 Y30.1989 F80.00
G01 X24.5972 Y30.1951 F80.00
G01 X24.5857 Y30.1939 F80.00
G01 X24.5024 Y30.1814 F80.00
G01 X24.4150 Y30.1595 F80.00
G01 X24.3302 Y30.1292 F80.00
G01 X24.2540 Y30.0933 F80.00
G01 X24.2438 Y30.0878 F80.00
G01 X24.1765 Y30.0475 F80.00
G01 X24.1669 Y30.0411 F80.00
G01 X24.0992 Y29.9908 F80.00
G01 X24.0325 Y29.9303 F80.00
G01 X23.9758 Y29.8679 F80.00
G01 X23.9685 Y29.8590 F80.00
G01 X23.9184 Y29.7912 F80.00
G01 X23.8721 Y29.7140 F80.00
G01 X23.8336 Y29.6326 F80.00
G01 X23.8051 Y29.5533 F80.00
G01 X23.8017 Y29.5422 F80.00
G01 X23.7826 Y29.4661 F80.00
G01 X23.7804 Y29.4547 F80.00
G01 X23.7682 Y29.3713 F80.00
G01 X23.7637 Y29.2814 F80.00
G01 X23.7682 Y29.1915 F80.00
G01 X23.7804 Y29.1081 F80.00
G01 X23.7826 Y29.0967 F80.00
G01 X23.8017 Y29.0206 F80.00
G01 X23.8051 Y29.0095 F80.00
G01 X23.8336 Y28.9302 F80.00
G01 X23.8695 Y28.8540 F80.00
G01 X23.8749 Y28.8438 F80.00
G01 X23.9184 Y28.7716 F80.00
G01 X23.9685 Y28.7038 F80.00
G01 X23.9758 Y28.6949 F80.00
G01 X24.0285 Y28.6367 F80.00
G01 X24.0367 Y28.6285 F80.00
G01 X24.0992 Y28.5720 F80.00
G01 X24.1716 Y28.5184 F80.00
G01 X24.2488 Y28.4721 F80.00
G01 X24.3249 Y28.4359 F80.00
G01 X24.3329 Y28.4325 F80.00
G01 X24.4150 Y28.4033 F80.00
G01 X24.5024 Y28.3814 F80.00
G01 X24.5915 Y28.3682 F80.00
G01 X24.6814 Y28.3637 F80.00
G01 X24.7713 Y28.3682 F80.00
G01 X24.8604 Y28.3814 F80.00
G01 X24.9478 Y28.4033 F80.00
G01 X25.0112 Y28.4258 F80.00
G01 X26.7607 Y26.6763 F80.00
G01 X26.7607 Y18.7293 F80.00
G01 X25.8609 Y17.8295 F80.00
G01 X23.6543 Y17.8295 F80.00
G01 X18.3250 Y23.1587 F80.00
G01 X18.2980 Y23.1832 F80.00
G01 X18.2687 Y23.2050 F80.00
G01 X18.2374 Y23.2237 F80.00
G01 X18.2126 Y23.2356 F80.00
G01 X16.0552 Y25.3930 F80.00
G01 X16.0777 Y25.4565 F80.00
G01 X16.0983 Y25.5382 F80.00
G01 X16.1006 Y25.5495 F80.00
G01 X16.1128 Y25.6329 F80.00
G01 X16.1171 Y25.7171 F80.00
G01 X16.1171 Y25.7286 F80.00
G01 X16.1128 Y25.8128 F80.00
G01 X16.0996 Y25.9019 F80.00
G01 X16.0793 Y25.9837 F80.00
G01 X16.0759 Y25.9947 F80.00
G01 X16.0474 Y26.0740 F80.00
G01 X16.0089 Y26.1554 F80.00
G01 X15.9626 Y26.2327 F80.00
G01 X15.9125 Y26.3005 F80.00
G01 X15.9052 Y26.3094 F80.00
G01 X15.8485 Y26.3717 F80.00
G01 X15.7861 Y26.4284 F80.00
G01 X15.7772 Y26.4358 F80.00
G01 X15.7094 Y26.4859 F80.00
G01 X15.6322 Y26.5322 F80.00
G01 X15.5507 Y26.5707 F80.00
G01 X15.4714 Y26.5992 F80.00
G01 X15.4604 Y26.6025 F80.00
G01 X15.3786 Y26.6229 F80.00
G01 X15.2895 Y26.6361 F80.00
G01 X15.2054 Y26.6404 F80.00
G01 X15.1938 Y26.6404 F80.00
G01 X15.1096 Y26.6361 F80.00
G01 X15.0262 Y26.6239 F80.00
G01 X15.0149 Y26.6216 F80.00
G01 X14.9332 Y26.6010 F80.00
G01 X14.8511 Y26.5717 F80.00
G01 X14.8431 Y26.5683 F80.00
G01 X14.7670 Y26.5322 F80.00
G01 X14.6898 Y26.4859 F80.00
G01 X14.6174 Y26.4322 F80.00
G01 X14.5507 Y26.3717 F80.00
G01 X14.4902 Y26.3050 F80.00
G01 X14.4366 Y26.2327 F80.00
G01 X14.3903 Y26.1554 F80.00
G01 X14.3518 Y26.0740 F80.00
G01 X14.3214 Y25.9892 F80.00
G01 X14.2996 Y25.9019 F80.00
G01 X14.2863 Y25.8128 F80.00
G01 X14.2819 Y25.7229 F80.00
G01 X14.2863 Y25.6329 F80.00
G01 X14.2996 Y25.5438 F80.00
G01 X14.3214 Y25.4565 F80.00
G01 X14.3507 Y25.3744 F80.00
G01 X14.3541 Y25.3664 F80.00
G01 X14.3903 Y25.2903 F80.00
G01 X14.4366 Y25.2130 F80.00
G01 X14.4902 Y25.1407 F80.00
G01 X14.5507 Y25.0740 F80.00
G01 X14.6174 Y25.0135 F80.00
G01 X14.6898 Y24.9599 F80.00
G01 X14.7670 Y24.9136 F80.00
G01 X14.8458 Y24.8762 F80.00
G01 X14.8538 Y24.8730 F80.00
G01 X14.9332 Y24.8447 F80.00
G01 X15.0206 Y24.8228 F80.00
G01 X15.1096 Y24.8096 F80.00
G01 X15.1967 Y24.8052 F80.00
G01 X15.2054 Y24.8053 F80.00
G01 X15.2895 Y24.8096 F80.00
G01 X15.3786 Y24.8228 F80.00
G01 X15.4660 Y24.8447 F80.00
G01 X15.5294 Y24.8673 F80.00
G00 Z2.0000
G00 X12.4121 Y28.9941
G01 F60.00
G01 Z-0.1001
G01 F80.00
G01 X14.6150 Y28.9941 F80.00
G01 X14.6265 Y28.9950 F80.00
G01 X14.6351 Y28.9964 F80.00
G01 X14.6463 Y28.9992 F80.00
G01 X14.6545 Y29.0020 F80.00
G01 X14.6650 Y29.0067 F80.00
G01 X14.6726 Y29.0108 F80.00
G01 X14.6822 Y29.0173 F80.00
G01 X14.6890 Y29.0227 F80.00
G01 X14.6993 Y29.0327 F80.00
G01 X14.7066 Y29.0417 F80.00
G01 X14.7130 Y29.0513 F80.00
G01 X14.7185 Y29.0615 F80.00
G01 X14.7229 Y29.0721 F80.00
G01 X14.7262 Y29.0832 F80.00
G01 X14.7289 Y29.0974 F80.00
G01 X14.7297 Y29.1089 F80.00
G01 X14.7298 Y30.6036 F80.00
G01 X17.8120 Y33.6858 F80.00
G01 X17.8365 Y33.7129 F80.00
G01 X17.8582 Y33.7422 F80.00
G01 X17.8770 Y33.7735 F80.00
G01 X17.8914 Y33.8038 F80.00
G01 X17.8946 Y33.8118 F80.00
G01 X17.9048 Y33.8408 F80.00
G01 X17.9137 Y33.8762 F80.00
G01 X17.9191 Y33.9123 F80.00
G01 X17.9209 Y33.9487 F80.00
G01 X17.9209 Y39.9349 F80.00
G01 X18.0052 Y39.9748 F80.00
G01 X18.0818 Y40.0206 F80.00
G01 X18.0914 Y40.0270 F80.00
G01 X18.1629 Y40.0802 F80.00
G01 X18.2333 Y40.1440 F80.00
G01 X18.2933 Y40.2100 F80.00
G01 X18.3006 Y40.2189 F80.00
G01 X18.3536 Y40.2906 F80.00
G01 X18.3996 Y40.3671 F80.00
G01 X18.4051 Y40.3772 F80.00
G01 X18.4431 Y40.4579 F80.00
G01 X18.4751 Y40.5473 F80.00
G01 X18.4981 Y40.6395 F80.00
G01 X18.5114 Y40.7277 F80.00
G01 X18.5125 Y40.7392 F80.00
G01 X18.5167 Y40.8282 F80.00
G01 X18.5125 Y40.9173 F80.00
G01 X18.5114 Y40.9288 F80.00
G01 X18.4981 Y41.0170 F80.00
G01 X18.4751 Y41.1091 F80.00
G01 X18.4431 Y41.1985 F80.00
G01 X18.4051 Y41.2792 F80.00
G01 X18.3996 Y41.2894 F80.00
G01 X18.3536 Y41.3658 F80.00
G01 X18.2971 Y41.4421 F80.00
G01 X18.2373 Y41.5083 F80.00
G01 X18.2291 Y41.5165 F80.00
G01 X18.1629 Y41.5762 F80.00
G01 X18.0914 Y41.6295 F80.00
G01 X18.0818 Y41.6359 F80.00
G01 X18.0052 Y41.6816 F80.00
G01 X17.9220 Y41.7211 F80.00
G01 X17.9140 Y41.7243 F80.00
G01 X17.8300 Y41.7542 F80.00
G01 X17.7435 Y41.7760 F80.00
G01 X17.7322 Y41.7783 F80.00
G01 X17.6497 Y41.7905 F80.00
G01 X17.6382 Y41.7917 F80.00
G01 X17.5491 Y41.7959 F80.00
G01 X17.4600 Y41.7917 F80.00
G01 X17.4485 Y41.7905 F80.00
G01 X17.3603 Y41.7773 F80.00
G01 X17.2682 Y41.7542 F80.00
G01 X17.1788 Y41.7222 F80.00
G01 X17.0981 Y41.6842 F80.00
G01 X17.0879 Y41.6788 F80.00
G01 X17.0164 Y41.6359 F80.00
G01 X17.0068 Y41.6295 F80.00
G01 X16.9352 Y41.5762 F80.00
G01 X16.8690 Y41.5165 F80.00
G01 X16.8609 Y41.5083 F80.00
G01 X16.8011 Y41.4421 F80.00
G01 X16.7445 Y41.3658 F80.00
G01 X16.6985 Y41.2894 F80.00
G01 X16.6931 Y41.2792 F80.00
G01 X16.6551 Y41.1985 F80.00
G01 X16.6249 Y41.1146 F80.00
G01 X16.6216 Y41.1036 F80.00
G01 X16.6000 Y41.0170 F80.00
G01 X16.5861 Y40.9231 F80.00
G01 X16.5814 Y40.8282 F80.00
G01 X16.5857 Y40.7392 F80.00
G01 X16.5868 Y40.7277 F80.00
G01 X16.6000 Y40.6395 F80.00
G01 X16.6231 Y40.5473 F80.00
G01 X16.6530 Y40.4633 F80.00
G01 X16.6574 Y40.4527 F80.00
G01 X16.6931 Y40.3772 F80.00
G01 X16.6985 Y40.3671 F80.00
G01 X16.7445 Y40.2906 F80.00
G01 X16.8011 Y40.2144 F80.00
G01 X16.8648 Y40.1440 F80.00
G01 X16.9308 Y40.0840 F80.00
G01 X16.9398 Y40.0767 F80.00
G01 X17.0068 Y40.0270 F80.00
G01 X17.0164 Y40.0206 F80.00
G01 X17.0929 Y39.9748 F80.00
G01 X17.1773 Y39.9349 F80.00
G01 X17.1773 Y34.1027 F80.00
G01 X13.9040 Y30.8294 F80.00
G01 X12.4092 Y30.8294 F80.00
G01 X12.3977 Y30.8285 F80.00
G01 X12.3863 Y30.8265 F80.00
G01 X12.3752 Y30.8235 F80.00
G01 X12.3644 Y30.8193 F80.00
G01 X12.3541 Y30.8141 F80.00
G01 X12.3444 Y30.8079 F80.00
G01 X12.3353 Y30.8008 F80.00
G01 X12.3269 Y30.7929 F80.00
G01 X12.3194 Y30.7841 F80.00
G01 X12.3127 Y30.7747 F80.00
G01 X12.3070 Y30.7647 F80.00
G01 X12.3034 Y30.7568 F80.00
G01 X12.2995 Y30.7459 F80.00
G01 X12.2967 Y30.7347 F80.00
G01 X12.2950 Y30.7233 F80.00
G01 X12.2945 Y30.7146 F80.00
G01 X12.2946 Y29.1060 F80.00
G01 X12.2957 Y29.0945 F80.00
G01 X12.2980 Y29.0832 F80.00
G01 X12.3004 Y29.0749 F80.00
G01 X12.3046 Y29.0641 F80.00
G01 X12.3098 Y29.0538 F80.00
G01 X12.3159 Y29.0440 F80.00
G01 X12.3230 Y29.0349 F80.00
G01 X12.3310 Y29.0266 F80.00
G01 X12.3397 Y29.0190 F80.00
G01 X12.3492 Y29.0124 F80.00
G01 X12.3592 Y29.0067 F80.00
G01 X12.3671 Y29.0031 F80.00
G01 X12.3780 Y28.9992 F80.00
G01 X12.3892 Y28.9964 F80.00
G01 X12.4006 Y28.9947 F80.00
G01 X12.4121 Y28.9941 F80.00
G00 Z2.0000
G00 X11.6237 Y28.3048
G01 F60.00
G01 Z-0.1001
G01 F80.00
G01 X11.6316 Y28.2887 F80.00
G01 X11.6459 Y28.2648 F80.00
G01 X11.6506 Y28.2575 F80.00
G01 X11.6707 Y28.2306 F80.00
G01 X11.6952 Y28.2036 F80.00
G01 X13.1514 Y26.7474 F80.00
G01 X13.1514 Y23.5965 F80.00
G01 X13.1532 Y23.5630 F80.00
G01 X13.1580 Y23.5297 F80.00
G01 X13.1659 Y23.4971 F80.00
G01 X13.1692 Y23.4860 F80.00
G01 X13.1797 Y23.4571 F80.00
G01 X13.1953 Y23.4242 F80.00
G01 X13.2141 Y23.3929 F80.00
G01 X13.2340 Y23.3658 F80.00
G01 X13.2396 Y23.3592 F80.00
G01 X13.2603 Y23.3365 F80.00
G01 X21.0591 Y15.5377 F80.00
G01 X21.0164 Y15.4472 F80.00
G01 X20.9762 Y15.3347 F80.00
G01 X20.9471 Y15.2187 F80.00
G01 X20.9303 Y15.1063 F80.00
G01 X20.9292 Y15.0948 F80.00
G01 X20.9239 Y14.9870 F80.00
G01 X20.9239 Y14.9754 F80.00
G01 X20.9296 Y14.8618 F80.00
G01 X20.9462 Y14.7493 F80.00
G01 X20.9484 Y14.7380 F80.00
G01 X20.9746 Y14.6333 F80.00
G01 X20.9780 Y14.6222 F80.00
G01 X21.0164 Y14.5152 F80.00
G01 X21.0675 Y14.4072 F80.00
G01 X21.1290 Y14.3047 F80.00
G01 X21.1966 Y14.2133 F80.00
G01 X21.2039 Y14.2044 F80.00
G01 X21.2764 Y14.1244 F80.00
G01 X21.2825 Y14.1182 F80.00
G01 X21.3689 Y14.0399 F80.00
G01 X21.4649 Y13.9688 F80.00
G01 X21.5674 Y13.9073 F80.00
G01 X21.6754 Y13.8562 F80.00
G01 X21.7879 Y13.8160 F80.00
G01 X21.9038 Y13.7869 F80.00
G01 X22.0220 Y13.7694 F80.00
G01 X22.1356 Y13.7637 F80.00
G01 X22.1472 Y13.7637 F80.00
G01 X22.2550 Y13.7690 F80.00
G01 X22.2665 Y13.7701 F80.00
G01 X22.3789 Y13.7869 F80.00
G01 X22.4893 Y13.8144 F80.00
G01 X22.5003 Y13.8178 F80.00
G01 X22.6074 Y13.8562 F80.00
G01 X22.7154 Y13.9073 F80.00
G01 X22.8179 Y13.9688 F80.00
G01 X22.9116 Y14.0381 F80.00
G01 X22.9182 Y14.0437 F80.00
G01 X23.0024 Y14.1202 F80.00
G01 X23.0827 Y14.2087 F80.00
G01 X23.1538 Y14.3047 F80.00
G01 X23.2153 Y14.4072 F80.00
G01 X23.2664 Y14.5152 F80.00
G01 X23.3066 Y14.6277 F80.00
G01 X23.3357 Y14.7436 F80.00
G01 X23.3525 Y14.8561 F80.00
G01 X23.3536 Y14.8676 F80.00
G01 X23.3590 Y14.9812 F80.00
G01 X23.3536 Y15.0948 F80.00
G01 X23.3525 Y15.1063 F80.00
G01 X23.3357 Y15.2187 F80.00
G01 X23.3082 Y15.3291 F80.00
G01 X23.3048 Y15.3401 F80.00
G01 X23.2684 Y15.4418 F80.00
G01 X23.2640 Y15.4525 F80.00
G01 X23.2153 Y15.5552 F80.00
G01 X23.1538 Y15.6577 F80.00
G01 X23.0827 Y15.7537 F80.00
G01 X23.0064 Y15.8380 F80.00
G01 X22.9982 Y15.8462 F80.00
G01 X22.9182 Y15.9187 F80.00
G01 X22.9093 Y15.9260 F80.00
G01 X22.8179 Y15.9936 F80.00
G01 X22.7154 Y16.0551 F80.00
G01 X22.6074 Y16.1062 F80.00
G01 X22.5003 Y16.1446 F80.00
G01 X22.4893 Y16.1480 F80.00
G01 X22.3846 Y16.1742 F80.00
G01 X22.3733 Y16.1764 F80.00
G01 X22.2607 Y16.1930 F80.00
G01 X22.1472 Y16.1987 F80.00
G01 X22.1356 Y16.1987 F80.00
G01 X22.0278 Y16.1934 F80.00
G01 X22.0163 Y16.1923 F80.00
G01 X21.9038 Y16.1755 F80.00
G01 X21.7879 Y16.1464 F80.00
G01 X21.6754 Y16.1062 F80.00
G01 X21.5849 Y16.0635 F80.00
G01 X13.8950 Y23.7534 F80.00
G01 X13.8950 Y26.9014 F80.00
G01 X13.8932 Y26.9379 F80.00
G01 X13.8878 Y26.9739 F80.00
G01 X13.8789 Y27.0093 F80.00
G01 X13.8667 Y27.0437 F80.00
G01 X13.8511 Y27.0767 F80.00
G01 X13.8323 Y27.1080 F80.00
G01 X13.8106 Y27.1373 F80.00
G01 X13.7881 Y27.1622 F80.00
G01 X12.2926 Y28.6578 F80.00
G01 X12.2846 Y28.6739 F80.00
G01 X12.2703 Y28.6978 F80.00
G01 X12.2656 Y28.7050 F80.00
G01 X12.2455 Y28.7320 F80.00
G01 X12.2230 Y28.7569 F80.00
G01 X11.6299 Y29.3501 F80.00
G01 X11.6299 Y31.9404 F80.00
G01 X11.6491 Y31.8871 F80.00
G01 X11.6792 Y31.8235 F80.00
G01 X11.7154 Y31.7631 F80.00
G01 X11.7574 Y31.7065 F80.00
G01 X11.8047 Y31.6543 F80.00
G01 X11.8568 Y31.6070 F80.00
G01 X11.9134 Y31.5651 F80.00
G01 X11.9688 Y31.5317 F80.00
G01 X11.9790 Y31.5263 F80.00
G01 X12.0322 Y31.5011 F80.00
G01 X12.0429 Y31.4967 F80.00
G01 X12.1038 Y31.4750 F80.00
G01 X12.1665 Y31.4592 F80.00
G01 X12.1778 Y31.4569 F80.00
G01 X12.2418 Y31.4476 F80.00
G01 X12.3121 Y31.4441 F80.00
G01 X12.3825 Y31.4476 F80.00
G01 X12.4464 Y31.4569 F80.00
G01 X12.4578 Y31.4592 F80.00
G01 X12.5149 Y31.4735 F80.00
G01 X12.5259 Y31.4768 F80.00
G01 X12.5868 Y31.4987 F80.00
G01 X12.6453 Y31.5263 F80.00
G01 X12.6554 Y31.5317 F80.00
G01 X12.7108 Y31.5651 F80.00
G01 X12.7674 Y31.6070 F80.00
G01 X12.8196 Y31.6543 F80.00
G01 X12.8669 Y31.7065 F80.00
G01 X12.9088 Y31.7631 F80.00
G01 X12.9422 Y31.8184 F80.00
G01 X12.9476 Y31.8286 F80.00
G01 X12.9728 Y31.8818 F80.00
G01 X12.9772 Y31.8925 F80.00
G01 X12.9989 Y31.9534 F80.00
G01 X13.0160 Y32.0218 F80.00
G01 X13.0263 Y32.0914 F80.00
G01 X13.0298 Y32.1618 F80.00
G01 X13.0263 Y32.2321 F80.00
G01 X13.0170 Y32.2961 F80.00
G01 X13.0147 Y32.3074 F80.00
G01 X13.0004 Y32.3645 F80.00
G01 X12.9971 Y32.3756 F80.00
G01 X12.9751 Y32.4364 F80.00
G01 X12.9450 Y32.5001 F80.00
G01 X12.9088 Y32.5605 F80.00
G01 X12.8704 Y32.6125 F80.00
G01 X12.8631 Y32.6214 F80.00
G01 X12.8236 Y32.6650 F80.00
G01 X12.8154 Y32.6732 F80.00
G01 X12.7674 Y32.7165 F80.00
G01 X12.7108 Y32.7585 F80.00
G01 X12.6504 Y32.7947 F80.00
G01 X12.5920 Y32.8224 F80.00
G01 X12.5814 Y32.8269 F80.00
G01 X12.5259 Y32.8467 F80.00
G01 X12.5149 Y32.8500 F80.00
G01 X12.4521 Y32.8656 F80.00
G01 X12.3825 Y32.8760 F80.00
G01 X12.3121 Y32.8794 F80.00
G01 X12.2475 Y32.8764 F80.00
G01 X12.2360 Y32.8752 F80.00
G01 X12.1778 Y32.8666 F80.00
G01 X12.1665 Y32.8644 F80.00
G01 X12.1038 Y32.8485 F80.00
G01 X12.0402 Y32.8259 F80.00
G01 X12.0322 Y32.8224 F80.00
G01 X11.9738 Y32.7947 F80.00
G01 X11.9134 Y32.7585 F80.00
G01 X11.8568 Y32.7165 F80.00
G01 X11.8088 Y32.6732 F80.00
G01 X11.8007 Y32.6650 F80.00
G01 X11.7574 Y32.6170 F80.00
G01 X11.7187 Y32.5652 F80.00
G01 X11.7123 Y32.5556 F80.00
G01 X11.6821 Y32.5051 F80.00
G01 X11.6766 Y32.4949 F80.00
G01 X11.6491 Y32.4364 F80.00
G01 X11.6299 Y32.3831 F80.00
G01 X11.6299 Y32.5137 F80.00
G01 X14.5303 Y35.4141 F80.00
G01 X14.5548 Y35.4411 F80.00
G01 X14.5732 Y35.4657 F80.00
G01 X14.5796 Y35.4753 F80.00
G01 X14.5953 Y35.5017 F80.00
G01 X14.6085 Y35.5294 F80.00
G01 X14.6130 Y35.5401 F80.00
G01 X14.6232 Y35.5690 F80.00
G01 X14.6308 Y35.5988 F80.00
G01 X14.6330 Y35.6101 F80.00
G01 X14.6374 Y35.6405 F80.00
G01 X14.6392 Y35.6770 F80.00
G01 X14.6392 Y39.9326 F80.00
G01 X14.6403 Y39.9337 F80.00
G01 X14.7282 Y39.9023 F80.00
G01 X14.8147 Y39.8804 F80.00
G01 X14.8260 Y39.8782 F80.00
G01 X14.9085 Y39.8660 F80.00
G01 X14.9200 Y39.8648 F80.00
G01 X15.0091 Y39.8606 F80.00
G01 X15.1039 Y39.8652 F80.00
G01 X15.1979 Y39.8792 F80.00
G01 X15.2844 Y39.9007 F80.00
G01 X15.2955 Y39.9041 F80.00
G01 X15.3794 Y39.9342 F80.00
G01 X15.4601 Y39.9723 F80.00
G01 X15.4702 Y39.9777 F80.00
G01 X15.5418 Y40.0206 F80.00
G01 X15.5514 Y40.0270 F80.00
G01 X15.6229 Y40.0802 F80.00
G01 X15.6933 Y40.1440 F80.00
G01 X15.7571 Y40.2144 F80.00
G01 X15.8103 Y40.2859 F80.00
G01 X15.8167 Y40.2955 F80.00
G01 X15.8596 Y40.3671 F80.00
G01 X15.8651 Y40.3772 F80.00
G01 X15.9031 Y40.4579 F80.00
G01 X15.9332 Y40.5419 F80.00
G01 X15.9366 Y40.5529 F80.00
G01 X15.9581 Y40.6395 F80.00
G01 X15.9721 Y40.7334 F80.00
G01 X15.9767 Y40.8282 F80.00
G01 X15.9721 Y40.9231 F80.00
G01 X15.9581 Y41.0170 F80.00
G01 X15.9366 Y41.1036 F80.00
G01 X15.9332 Y41.1146 F80.00
G01 X15.9051 Y41.1932 F80.00
G01 X15.9007 Y41.2038 F80.00
G01 X15.8625 Y41.2844 F80.00
G01 X15.8136 Y41.3658 F80.00
G01 X15.7571 Y41.4421 F80.00
G01 X15.6933 Y41.5125 F80.00
G01 X15.6229 Y41.5762 F80.00
G01 X15.5514 Y41.6295 F80.00
G01 X15.5418 Y41.6359 F80.00
G01 X15.4702 Y41.6788 F80.00
G01 X15.4601 Y41.6842 F80.00
G01 X15.3794 Y41.7222 F80.00
G01 X15.2955 Y41.7524 F80.00
G01 X15.2872 Y41.7550 F80.00
G01 X15.1979 Y41.7773 F80.00
G01 X15.1039 Y41.7912 F80.00
G01 X15.0091 Y41.7959 F80.00
G01 X14.9200 Y41.7917 F80.00
G01 X14.9085 Y41.7905 F80.00
G01 X14.8203 Y41.7773 F80.00
G01 X14.7337 Y41.7558 F80.00
G01 X14.7227 Y41.7524 F80.00
G01 X14.6388 Y41.7222 F80.00
G01 X14.5581 Y41.6842 F80.00
G01 X14.5479 Y41.6788 F80.00
G01 X14.4764 Y41.6359 F80.00
G01 X14.4668 Y41.6295 F80.00
G01 X14.3952 Y41.5762 F80.00
G01 X14.3248 Y41.5125 F80.00
G01 X14.2611 Y41.4421 F80.00
G01 X14.2045 Y41.3658 F80.00
G01 X14.1557 Y41.2844 F80.00
G01 X14.1151 Y41.1985 F80.00
G01 X14.0831 Y41.1091 F80.00
G01 X14.0606 Y41.0198 F80.00
G01 X14.0590 Y41.0113 F80.00
G01 X14.0468 Y40.9288 F80.00
G01 X14.0457 Y40.9173 F80.00
G01 X14.0414 Y40.8282 F80.00
G01 X14.0461 Y40.7334 F80.00
G01 X14.0590 Y40.6451 F80.00
G01 X14.0613 Y40.6338 F80.00
G01 X14.0831 Y40.5473 F80.00
G01 X14.1145 Y40.4594 F80.00
G01 X14.0045 Y40.3494 F80.00
G01 X13.9838 Y40.3268 F80.00
G01 X13.9782 Y40.3202 F80.00
G01 X13.9599 Y40.2955 F80.00
G01 X13.9424 Y40.2668 F80.00
G01 X13.9369 Y40.2567 F80.00
G01 X13.9239 Y40.2288 F80.00
G01 X13.9134 Y40.2000 F80.00
G01 X13.9101 Y40.1889 F80.00
G01 X13.9028 Y40.1591 F80.00
G01 X13.8981 Y40.1287 F80.00
G01 X13.8972 Y40.1201 F80.00
G01 X13.8957 Y40.0894 F80.00
G01 X13.8956 Y35.8310 F80.00
G01 X10.9952 Y32.9306 F80.00
G01 X10.9745 Y32.9079 F80.00
G01 X10.9672 Y32.8990 F80.00
G01 X10.9490 Y32.8742 F80.00
G01 X10.9331 Y32.8480 F80.00
G01 X10.9276 Y32.8378 F80.00
G01 X10.9146 Y32.8100 F80.00
G01 X10.9042 Y32.7811 F80.00
G01 X10.9015 Y32.7728 F80.00
G01 X10.8935 Y32.7402 F80.00
G01 X10.8888 Y32.7099 F80.00
G01 X10.8877 Y32.6984 F80.00
G01 X10.8863 Y32.6677 F80.00
G01 X10.8863 Y29.1961 F80.00
G01 X10.8881 Y29.1597 F80.00
G01 X10.8930 Y29.1264 F80.00
G01 X10.9008 Y29.0938 F80.00
G01 X10.9042 Y29.0827 F80.00
G01 X10.9146 Y29.0538 F80.00
G01 X10.9276 Y29.0260 F80.00
G01 X10.9331 Y29.0158 F80.00
G01 X10.9490 Y28.9896 F80.00
G01 X10.9672 Y28.9648 F80.00
G01 X10.9745 Y28.9559 F80.00
G01 X10.9952 Y28.9332 F80.00
G01 X11.6237 Y28.3048 F80.00
G00 Z2.0000
G00 X7.6568 Y29.1118
G01 F60.00
G01 Z-0.1001
G01 F80.00
G01 X7.6567 Y30.7146 F80.00
G01 X7.6559 Y30.7262 F80.00
G01 X7.6532 Y30.7403 F80.00
G01 X7.6489 Y30.7541 F80.00
G01 X7.6429 Y30.7672 F80.00
G01 X7.6353 Y30.7795 F80.00
G01 X7.6263 Y30.7908 F80.00
G01 X7.6160 Y30.8008 F80.00
G01 X7.6069 Y30.8079 F80.00
G01 X7.5996 Y30.8127 F80.00
G01 X7.5894 Y30.8181 F80.00
G01 X7.5815 Y30.8215 F80.00
G01 X7.5733 Y30.8243 F80.00
G01 X7.5649 Y30.8265 F80.00
G01 X7.5564 Y30.8281 F80.00
G01 X7.5478 Y30.8291 F80.00
G01 X7.5391 Y30.8294 F80.00
G01 X5.3391 Y30.8294 F80.00
G01 X5.3247 Y30.8285 F80.00
G01 X5.3133 Y30.8265 F80.00
G01 X5.2995 Y30.8225 F80.00
G01 X5.2862 Y30.8168 F80.00
G01 X5.2738 Y30.8096 F80.00
G01 X5.2623 Y30.8008 F80.00
G01 X5.2519 Y30.7908 F80.00
G01 X5.2429 Y30.7795 F80.00
G01 X5.2382 Y30.7722 F80.00
G01 X5.2340 Y30.7647 F80.00
G01 X5.2304 Y30.7568 F80.00
G01 X5.2274 Y30.7487 F80.00
G01 X5.2250 Y30.7403 F80.00
G01 X5.2232 Y30.7319 F80.00
G01 X5.2220 Y30.7233 F80.00
G01 X5.2215 Y30.7146 F80.00
G01 X5.2215 Y29.1089 F80.00
G01 X5.2227 Y29.0945 F80.00
G01 X5.2257 Y29.0804 F80.00
G01 X5.2304 Y29.0667 F80.00
G01 X5.2354 Y29.0563 F80.00
G01 X5.2429 Y29.0440 F80.00
G01 X5.2519 Y29.0327 F80.00
G01 X5.2623 Y29.0227 F80.00
G01 X5.2714 Y29.0156 F80.00
G01 X5.2811 Y29.0094 F80.00
G01 X5.2888 Y29.0054 F80.00
G01 X5.2968 Y29.0020 F80.00
G01 X5.3050 Y28.9992 F80.00
G01 X5.3133 Y28.9970 F80.00
G01 X5.3219 Y28.9954 F80.00
G01 X5.3305 Y28.9944 F80.00
G01 X5.3391 Y28.9941 F80.00
G01 X7.5449 Y28.9942 F80.00
G01 X7.5564 Y28.9954 F80.00
G01 X7.5677 Y28.9976 F80.00
G01 X7.5788 Y29.0010 F80.00
G01 X7.5894 Y29.0054 F80.00
G01 X7.5971 Y29.0094 F80.00
G01 X7.6069 Y29.0156 F80.00
G01 X7.6160 Y29.0227 F80.00
G01 X7.6243 Y29.0306 F80.00
G01 X7.6319 Y29.0394 F80.00
G01 X7.6385 Y29.0488 F80.00
G01 X7.6429 Y29.0563 F80.00
G01 X7.6478 Y29.0667 F80.00
G01 X7.6517 Y29.0776 F80.00
G01 X7.6545 Y29.0888 F80.00
G01 X7.6562 Y29.1002 F80.00
G01 X7.6568 Y29.1118 F80.00
G00 Z2.0000
G00 X6.3063 Y32.8793
G01 F60.00
G01 Z-0.1001
G01 F80.00
G01 X6.2418 Y32.8760 F80.00
G01 X6.1721 Y32.8656 F80.00
G01 X6.1038 Y32.8485 F80.00
G01 X6.0375 Y32.8248 F80.00
G01 X5.9738 Y32.7947 F80.00
G01 X5.9134 Y32.7585 F80.00
G01 X5.8568 Y32.7165 F80.00
G01 X5.8047 Y32.6692 F80.00
G01 X5.7574 Y32.6170 F80.00
G01 X5.7154 Y32.5605 F80.00
G01 X5.6792 Y32.5001 F80.00
G01 X5.6491 Y32.4364 F80.00
G01 X5.6254 Y32.3701 F80.00
G01 X5.6083 Y32.3018 F80.00
G01 X5.5979 Y32.2321 F80.00
G01 X5.5945 Y32.1618 F80.00
G01 X5.5979 Y32.0914 F80.00
G01 X5.6083 Y32.0218 F80.00
G01 X5.6254 Y31.9534 F80.00
G01 X5.6491 Y31.8871 F80.00
G01 X5.6792 Y31.8235 F80.00
G01 X5.7154 Y31.7631 F80.00
G01 X5.7574 Y31.7065 F80.00
G01 X5.8047 Y31.6543 F80.00
G01 X5.8568 Y31.6070 F80.00
G01 X5.9134 Y31.5651 F80.00
G01 X5.9738 Y31.5288 F80.00
G01 X6.0375 Y31.4987 F80.00
G01 X6.1038 Y31.4750 F80.00
G01 X6.1721 Y31.4579 F80.00
G01 X6.2418 Y31.4476 F80.00
G01 X6.3121 Y31.4441 F80.00
G01 X6.3825 Y31.4476 F80.00
G01 X6.4521 Y31.4579 F80.00
G01 X6.5204 Y31.4750 F80.00
G01 X6.5868 Y31.4987 F80.00
G01 X6.6504 Y31.5288 F80.00
