(G-CODE GENERATED BY FLATCAM v8.994 - www.flatcam.org - Version Date: 2020/11/7)

(Name: po_midi_adapter-B_Cu.gbr_iso_combined_2_cnc)
(Type: G-code from Geometry)
(Units: MM)

(Created on Friday, 13 August 2021 at 11:45)

(This preprocessor is the default preprocessor used by FlatCAM.)
(It is made to work with MACH3 compatible motion controllers.)

(TOOL DIAMETER: 0.1529 mm)
(Feedrate_XY: 120.0 mm/min)
(Feedrate_Z: 50.0 mm/min)
(Feedrate rapids 1500.0 mm/min)

(Z_Cut: -0.15 mm)
(Z_Move: 2.0 mm)
(Z Start: None mm)
(Z End: 15.0 mm)
(X,Y End: None mm)
(Steps per circle: 64)
(Preprocessor Geometry: default)

(X range:    3.9211 ...   68.5869  mm)
(Y range:    2.8629 ...   66.8736  mm)

(Spindle Speed: 8000.0 RPM)
G21
G90
G94

G01 F120.00

M5
G00 Z15.0000
G00 X0.0000 Y0.0000
T2
M6    
(MSG, Change to Tool Dia = 0.1529)
M0
G00 Z15.0000

M03 S8000.0
G01 F120.00
G00 X9.7687 Y7.9226
G01 F50.00
G01 Z-0.1500
G01 F120.00
G01 X10.0589 Y7.9226
G01 X10.3435 Y7.9792
G01 X10.6116 Y8.0902
G01 X10.8529 Y8.2514
G01 X11.0581 Y8.4566
G01 X11.2194 Y8.6979
G01 X11.3304 Y8.9660
G01 X11.3870 Y9.2506
G01 X11.3870 Y9.5408
G01 X11.3304 Y9.8254
G01 X11.2194 Y10.0935
G01 X11.0581 Y10.3348
G01 X10.8529 Y10.5400
G01 X10.6116 Y10.7013
G01 X10.3435 Y10.8123
G01 X10.0589 Y10.8689
G01 X9.7687 Y10.8689
G01 X9.4841 Y10.8123
G01 X9.2160 Y10.7013
G01 X8.9747 Y10.5400
G01 X8.7695 Y10.3348
G01 X8.6083 Y10.0935
G01 X8.4973 Y9.8254
G01 X8.4407 Y9.5408
G01 X8.4407 Y9.2506
G01 X8.4973 Y8.9660
G01 X8.6083 Y8.6979
G01 X8.7695 Y8.4566
G01 X8.9747 Y8.2514
G01 X9.2160 Y8.0902
G01 X9.4841 Y7.9792
G01 X9.7687 Y7.9226
G00 Z2.0000
G00 X9.9101 Y10.7218
G01 F50.00
G01 Z-0.1500
G01 F120.00
G01 X9.7839 Y10.7155
G01 X9.6551 Y10.6964
G01 X9.5289 Y10.6648
G01 X9.4064 Y10.6209
G01 X9.2887 Y10.5653
G01 X9.1771 Y10.4984
G01 X9.0726 Y10.4209
G01 X8.9761 Y10.3335
G01 X8.8887 Y10.2370
G01 X8.8112 Y10.1325
G01 X8.7443 Y10.0209
G01 X8.6887 Y9.9032
G01 X8.6448 Y9.7807
G01 X8.6132 Y9.6545
G01 X8.5941 Y9.5257
G01 X8.5877 Y9.3957
G01 X8.5941 Y9.2658
G01 X8.6132 Y9.1370
G01 X8.6448 Y9.0108
G01 X8.6887 Y8.8883
G01 X8.7443 Y8.7706
G01 X8.8112 Y8.6590
G01 X8.8887 Y8.5545
G01 X8.9761 Y8.4580
G01 X9.0726 Y8.3706
G01 X9.1771 Y8.2931
G01 X9.2887 Y8.2262
G01 X9.4064 Y8.1706
G01 X9.5289 Y8.1267
G01 X9.6551 Y8.0951
G01 X9.7839 Y8.0760
G01 X9.9138 Y8.0696
G01 X10.0438 Y8.0760
G01 X10.1726 Y8.0951
G01 X10.2988 Y8.1267
G01 X10.4213 Y8.1706
G01 X10.5390 Y8.2262
G01 X10.6506 Y8.2931
G01 X10.7551 Y8.3706
G01 X10.8516 Y8.4580
G01 X10.9390 Y8.5545
G01 X11.0165 Y8.6590
G01 X11.0834 Y8.7706
G01 X11.1390 Y8.8883
G01 X11.1829 Y9.0108
G01 X11.2145 Y9.1370
G01 X11.2336 Y9.2658
G01 X11.2400 Y9.3957
G01 X11.2336 Y9.5257
G01 X11.2145 Y9.6545
G01 X11.1829 Y9.7807
G01 X11.1390 Y9.9032
G01 X11.0834 Y10.0209
G01 X11.0165 Y10.1325
G01 X10.9390 Y10.2370
G01 X10.8516 Y10.3335
G01 X10.7551 Y10.4209
G01 X10.6506 Y10.4984
G01 X10.5390 Y10.5653
G01 X10.4213 Y10.6209
G01 X10.2988 Y10.6648
G01 X10.1726 Y10.6964
G01 X10.0438 Y10.7155
G01 X9.9176 Y10.7218
G01 X9.9101 Y10.7218
G00 Z2.0000
G00 X9.4855 Y11.5226
G01 F50.00
G01 Z-0.1500
G01 F120.00
G01 X9.6970 Y11.5226
G01 X9.9044 Y11.5639
G01 X10.0998 Y11.6448
G01 X10.2756 Y11.7623
G01 X10.4251 Y11.9118
G01 X10.5426 Y12.0876
G01 X10.6235 Y12.2830
G01 X10.6648 Y12.4904
G01 X10.6648 Y12.7019
G01 X10.6235 Y12.9093
G01 X10.5426 Y13.1046
G01 X10.4251 Y13.2805
G01 X10.2756 Y13.4300
G01 X10.0998 Y13.5475
G01 X9.9044 Y13.6284
G01 X9.6970 Y13.6696
G01 X9.4855 Y13.6696
G01 X9.2781 Y13.6284
G01 X9.0828 Y13.5475
G01 X8.9069 Y13.4300
G01 X8.7574 Y13.2805
G01 X8.6399 Y13.1046
G01 X8.5590 Y12.9093
G01 X8.5178 Y12.7019
G01 X8.5178 Y12.4904
G01 X8.5590 Y12.2830
G01 X8.6399 Y12.0876
G01 X8.7574 Y11.9118
G01 X8.9069 Y11.7623
G01 X9.0828 Y11.6448
G01 X9.2781 Y11.5639
G01 X9.4855 Y11.5226
G00 Z2.0000
G00 X10.5176 Y12.5999
G01 F50.00
G01 Z-0.1500
G01 F120.00
G01 X10.5132 Y12.6869
G01 X10.4999 Y12.7769
G01 X10.4778 Y12.8651
G01 X10.4472 Y12.9507
G01 X10.4083 Y13.0329
G01 X10.3616 Y13.1108
G01 X10.3074 Y13.1839
G01 X10.2464 Y13.2512
G01 X10.1790 Y13.3123
G01 X10.1060 Y13.3665
G01 X10.0280 Y13.4132
G01 X9.9458 Y13.4521
G01 X9.8602 Y13.4827
G01 X9.7720 Y13.5048
G01 X9.6821 Y13.5181
G01 X9.5913 Y13.5226
G01 X9.5005 Y13.5181
G01 X9.4105 Y13.5048
G01 X9.3223 Y13.4827
G01 X9.2367 Y13.4521
G01 X9.1545 Y13.4132
G01 X9.0766 Y13.3665
G01 X9.0035 Y13.3123
G01 X8.9362 Y13.2512
G01 X8.8751 Y13.1839
G01 X8.8209 Y13.1108
G01 X8.7742 Y13.0329
G01 X8.7353 Y12.9507
G01 X8.7047 Y12.8651
G01 X8.6826 Y12.7769
G01 X8.6693 Y12.6869
G01 X8.6648 Y12.5961
G01 X8.6693 Y12.5053
G01 X8.6826 Y12.4154
G01 X8.7047 Y12.3272
G01 X8.7353 Y12.2416
G01 X8.7742 Y12.1594
G01 X8.8209 Y12.0814
G01 X8.8751 Y12.0084
G01 X8.9362 Y11.9410
G01 X9.0035 Y11.8800
G01 X9.0766 Y11.8258
G01 X9.1545 Y11.7791
G01 X9.2367 Y11.7402
G01 X9.3223 Y11.7096
G01 X9.4105 Y11.6875
G01 X9.5005 Y11.6741
G01 X9.5913 Y11.6697
G01 X9.6821 Y11.6741
G01 X9.7720 Y11.6875
G01 X9.8602 Y11.7096
G01 X9.9458 Y11.7402
G01 X10.0280 Y11.7791
G01 X10.1060 Y11.8258
G01 X10.1790 Y11.8800
G01 X10.2464 Y11.9410
G01 X10.3074 Y12.0084
G01 X10.3616 Y12.0814
G01 X10.4083 Y12.1594
G01 X10.4472 Y12.2416
G01 X10.4778 Y12.3272
G01 X10.4999 Y12.4154
G01 X10.5132 Y12.5053
G01 X10.5176 Y12.5924
G01 X10.5176 Y12.5999
G00 Z2.0000
G00 X10.5177 Y14.2861
G01 F50.00
G01 Z-0.1500
G01 F120.00
G01 X10.5177 Y15.9861
G01 X10.5169 Y15.9974
G01 X10.5154 Y16.0047
G01 X10.5138 Y16.0101
G01 X10.5095 Y16.0205
G01 X10.5038 Y16.0302
G01 X10.4966 Y16.0389
G01 X10.4883 Y16.0464
G01 X10.4806 Y16.0517
G01 X10.4705 Y16.0568
G01 X10.4598 Y16.0603
G01 X10.4488 Y16.0622
G01 X10.4413 Y16.0626
G01 X9.9244 Y16.0626
G01 X9.9244 Y22.1214
G01 X11.2564 Y23.4534
G01 X11.2675 Y23.4603
G01 X11.2905 Y23.4774
G01 X11.3161 Y23.5003
G01 X12.1771 Y24.3613
G01 X12.1988 Y24.3854
G01 X12.2160 Y24.4084
G01 X12.2202 Y24.4146
G01 X12.2357 Y24.4409
G01 X12.2472 Y24.4652
G01 X12.2501 Y24.4721
G01 X12.2596 Y24.4991
G01 X12.2667 Y24.5269
G01 X12.2682 Y24.5343
G01 X12.2723 Y24.5627
G01 X12.2739 Y24.5932
G01 X12.2739 Y26.7358
G01 X12.2723 Y26.7663
G01 X12.2675 Y26.7984
G01 X12.2596 Y26.8299
G01 X12.2487 Y26.8604
G01 X12.2348 Y26.8897
G01 X12.2182 Y26.9176
G01 X12.1988 Y26.9436
G01 X12.1784 Y26.9663
G01 X10.0260 Y29.1187
G01 X10.0260 Y32.9089
G01 X10.3051 Y33.1880
G01 X10.3256 Y33.2106
G01 X10.3462 Y33.2381
G01 X10.3629 Y33.2659
G01 X10.3767 Y33.2952
G01 X10.3871 Y33.3240
G01 X10.3947 Y33.3536
G01 X10.3962 Y33.3610
G01 X10.4003 Y33.3894
G01 X10.4019 Y33.4199
G01 X10.4019 Y34.0213
G01 X12.7028 Y36.3222
G01 X12.7222 Y36.3434
G01 X12.7269 Y36.3492
G01 X12.7439 Y36.3723
G01 X12.7588 Y36.3969
G01 X12.7623 Y36.4035
G01 X12.7745 Y36.4295
G01 X12.7859 Y36.4618
G01 X12.7933 Y36.4915
G01 X12.7976 Y36.5198
G01 X12.7983 Y36.5273
G01 X12.7997 Y36.5560
G01 X12.7997 Y39.9636
G01 X12.8253 Y39.9730
G01 X12.9074 Y40.0121
G01 X12.9838 Y40.0579
G01 X13.0553 Y40.1109
G01 X13.1215 Y40.1706
G01 X13.1268 Y40.1759
G01 X13.1852 Y40.2405
G01 X13.2383 Y40.3120
G01 X13.2843 Y40.3882
G01 X13.2878 Y40.3949
G01 X13.3250 Y40.4737
G01 X13.3556 Y40.5593
G01 X13.3777 Y40.6475
G01 X13.3906 Y40.7337
G01 X13.3913 Y40.7412
G01 X13.3954 Y40.8245
G01 X13.3954 Y40.8320
G01 X13.3911 Y40.9190
G01 X13.3777 Y41.0090
G01 X13.3556 Y41.0972
G01 X13.3250 Y41.1828
G01 X13.2861 Y41.2650
G01 X13.2394 Y41.3429
G01 X13.1852 Y41.4160
G01 X13.1268 Y41.4806
G01 X13.1215 Y41.4859
G01 X13.0568 Y41.5444
G01 X12.9869 Y41.5964
G01 X12.9806 Y41.6006
G01 X12.9091 Y41.6434
G01 X12.9025 Y41.6470
G01 X12.8236 Y41.6842
G01 X12.7380 Y41.7148
G01 X12.6498 Y41.7369
G01 X12.5580 Y41.7504
G01 X12.4691 Y41.7547
G01 X12.3783 Y41.7502
G01 X12.2883 Y41.7369
G01 X12.2001 Y41.7148
G01 X12.1145 Y41.6842
G01 X12.0324 Y41.6453
G01 X11.9544 Y41.5986
G01 X11.8813 Y41.5444
G01 X11.8140 Y41.4833
G01 X11.7529 Y41.4160
G01 X11.6988 Y41.3429
G01 X11.6520 Y41.2650
G01 X11.6131 Y41.1828
G01 X11.5825 Y41.0972
G01 X11.5604 Y41.0090
G01 X11.5469 Y40.9172
G01 X11.5426 Y40.8282
G01 X11.5471 Y40.7374
G01 X11.5604 Y40.6475
G01 X11.5815 Y40.5629
G01 X11.5837 Y40.5557
G01 X11.6118 Y40.4772
G01 X11.6147 Y40.4703
G01 X11.6520 Y40.3915
G01 X11.6977 Y40.3151
G01 X11.7529 Y40.2405
G01 X11.8114 Y40.1759
G01 X11.8167 Y40.1706
G01 X11.8828 Y40.1109
G01 X11.9544 Y40.0579
G01 X12.0307 Y40.0121
G01 X12.1128 Y39.9730
G01 X12.1385 Y39.9636
G01 X12.1385 Y36.6929
G01 X9.8376 Y34.3920
G01 X9.8146 Y34.3664
G01 X9.7965 Y34.3419
G01 X9.7816 Y34.3173
G01 X9.7781 Y34.3107
G01 X9.7659 Y34.2847
G01 X9.7550 Y34.2542
G01 X9.7479 Y34.2264
G01 X9.7465 Y34.2190
G01 X9.7423 Y34.1906
G01 X9.7407 Y34.1582
G01 X9.7407 Y33.5587
G01 X9.4616 Y33.2796
G01 X9.4387 Y33.2541
G01 X9.4205 Y33.2295
G01 X9.4057 Y33.2049
G01 X9.4022 Y33.1983
G01 X9.3900 Y33.1723
G01 X9.3791 Y33.1418
G01 X9.3720 Y33.1140
G01 X9.3705 Y33.1066
G01 X9.3663 Y33.0764
G01 X9.3648 Y33.0458
G01 X9.3648 Y28.9818
G01 X9.3661 Y28.9531
G01 X9.3669 Y28.9457
G01 X9.3712 Y28.9173
G01 X9.3785 Y28.8876
G01 X9.3900 Y28.8553
G01 X9.4022 Y28.8293
G01 X9.4057 Y28.8227
G01 X9.4205 Y28.7981
G01 X9.4375 Y28.7750
G01 X9.4423 Y28.7692
G01 X9.4603 Y28.7494
G01 X11.6127 Y26.5970
G01 X11.6127 Y24.7320
G01 X10.8955 Y24.0148
G01 X10.8844 Y24.0079
G01 X10.8613 Y23.9908
G01 X10.8358 Y23.9679
G01 X9.3600 Y22.4921
G01 X9.3407 Y22.4709
G01 X9.3359 Y22.4651
G01 X9.3189 Y22.4420
G01 X9.3041 Y22.4174
G01 X9.3006 Y22.4108
G01 X9.2884 Y22.3848
G01 X9.2769 Y22.3525
G01 X9.2696 Y22.3228
G01 X9.2653 Y22.2944
G01 X9.2645 Y22.2870
G01 X9.2632 Y22.2583
G01 X9.2632 Y16.0626
G01 X8.7413 Y16.0626
G01 X8.7338 Y16.0622
G01 X8.7245 Y16.0607
G01 X8.7137 Y16.0575
G01 X8.7036 Y16.0527
G01 X8.6942 Y16.0464
G01 X8.6859 Y16.0389
G01 X8.6788 Y16.0302
G01 X8.6730 Y16.0205
G01 X8.6687 Y16.0101
G01 X8.6659 Y15.9992
G01 X8.6652 Y15.9936
G01 X8.6648 Y15.9861
G01 X8.6649 Y14.2824
G01 X8.6656 Y14.2749
G01 X8.6667 Y14.2694
G01 X8.6687 Y14.2622
G01 X8.6714 Y14.2552
G01 X8.6747 Y14.2485
G01 X8.6788 Y14.2421
G01 X8.6834 Y14.2362
G01 X8.6872 Y14.2321
G01 X8.6913 Y14.2282
G01 X8.6972 Y14.2236
G01 X8.7036 Y14.2196
G01 X8.7103 Y14.2162
G01 X8.7173 Y14.2135
G01 X8.7245 Y14.2115
G01 X8.7300 Y14.2105
G01 X8.7375 Y14.2098
G01 X10.4413 Y14.2097
G01 X10.4488 Y14.2101
G01 X10.4562 Y14.2112
G01 X10.4635 Y14.2130
G01 X10.4705 Y14.2155
G01 X10.4773 Y14.2187
G01 X10.4837 Y14.2226
G01 X10.4898 Y14.2270
G01 X10.4953 Y14.2321
G01 X10.5004 Y14.2376
G01 X10.5048 Y14.2437
G01 X10.5087 Y14.2501
G01 X10.5119 Y14.2569
G01 X10.5144 Y14.2639
G01 X10.5162 Y14.2712
G01 X10.5173 Y14.2786
G01 X10.5177 Y14.2861
G00 Z2.0000
G00 X10.0161 Y16.2531
G01 F50.00
G01 Z-0.1500
G01 F120.00
G01 X10.0161 Y16.1543
G01 X10.1163 Y16.1543
G01 X10.0988 Y16.1650
G01 X10.0841 Y16.1756
G01 X10.0745 Y16.1834
G01 X10.0581 Y16.1984
G01 X10.0458 Y16.2117
G01 X10.0379 Y16.2211
G01 X10.0248 Y16.2390
G01 X10.0161 Y16.2531
G00 Z2.0000
G00 X9.0713 Y16.1543
G01 F50.00
G01 Z-0.1500
G01 F120.00
G01 X9.1715 Y16.1543
G01 X9.1715 Y16.2531
G01 X9.1628 Y16.2390
G01 X9.1497 Y16.2211
G01 X9.1418 Y16.2117
G01 X9.1295 Y16.1984
G01 X9.1131 Y16.1834
G01 X9.1035 Y16.1756
G01 X9.0888 Y16.1650
G01 X9.0713 Y16.1543
G00 Z2.0000
G00 X14.7773 Y14.6916
G01 F50.00
G01 Z-0.1500
G01 F120.00
G01 X14.7773 Y14.6926
G01 X14.7764 Y14.6931
G01 X14.7773 Y14.6916
G00 Z2.0000
G00 X15.6228 Y14.6931
G01 F50.00
G01 Z-0.1500
G01 F120.00
G01 X15.6219 Y14.6926
G01 X15.6219 Y14.6916
G01 X15.6228 Y14.6931
G00 Z2.0000
G00 X18.1021 Y14.7561
G01 F50.00
G01 Z-0.1500
G01 F120.00
G01 X18.1013 Y14.7566
G01 X18.1021 Y14.7551
G01 X18.1021 Y14.7561
G00 Z2.0000
G00 X18.9476 Y14.7566
G01 F50.00
G01 Z-0.1500
G01 F120.00
G01 X18.9468 Y14.7561
G01 X18.9468 Y14.7551
G01 X18.9476 Y14.7566
G00 Z2.0000
G00 X20.9887 Y15.5072
G01 F50.00
G01 Z-0.1500
G01 F120.00
G01 X20.9982 Y15.5272
G01 X20.9817 Y15.5436
G01 X20.9855 Y15.5276
G01 X20.9887 Y15.5072
G00 Z2.0000
G00 X21.5790 Y16.1409
G01 F50.00
G01 Z-0.1500
G01 F120.00
G01 X21.5954 Y16.1244
G01 X21.6154 Y16.1339
G01 X21.5950 Y16.1371
G01 X21.5790 Y16.1409
G00 Z2.0000
G00 X22.1308 Y13.2881
G01 F50.00
G01 Z-0.1500
G01 F120.00
G01 X22.2609 Y13.3077
G01 X22.2732 Y13.3090
G01 X22.4040 Y13.3155
G01 X22.4164 Y13.3153
G01 X22.4521 Y13.3136
G01 X22.4376 Y13.3227
G01 X22.4231 Y13.3335
G01 X22.4167 Y13.3388
G01 X22.4033 Y13.3509
G01 X22.3947 Y13.3597
G01 X22.3827 Y13.3733
G01 X22.3718 Y13.3877
G01 X22.3648 Y13.3979
G01 X22.3555 Y13.4134
G01 X22.3498 Y13.4244
G01 X22.3422 Y13.4408
G01 X22.3359 Y13.4577
G01 X22.3322 Y13.4695
G01 X22.3278 Y13.4871
G01 X22.3255 Y13.4992
G01 X22.3231 Y13.5172
G01 X22.3220 Y13.5352
G01 X22.3219 Y13.5476
G01 X22.3227 Y13.5656
G01 X22.3241 Y13.5779
G01 X22.3270 Y13.5958
G01 X22.3312 Y13.6134
G01 X22.3346 Y13.6252
G01 X22.3407 Y13.6423
G01 X22.3456 Y13.6536
G01 X22.3535 Y13.6699
G01 X22.3626 Y13.6855
G01 X22.3693 Y13.6959
G01 X22.3801 Y13.7104
G01 X22.3854 Y13.7168
G01 X22.3975 Y13.7302
G01 X22.4105 Y13.7426
G01 X22.3928 Y13.7382
G01 X22.3848 Y13.7366
G01 X22.2657 Y13.7191
G01 X22.1455 Y13.7131
G01 X22.1331 Y13.7132
G01 X22.0983 Y13.7149
G01 X22.1092 Y13.7075
G01 X22.1236 Y13.6966
G01 X22.1431 Y13.6789
G01 X22.1554 Y13.6656
G01 X22.1634 Y13.6561
G01 X22.1741 Y13.6416
G01 X22.1809 Y13.6312
G01 X22.1900 Y13.6156
G01 X22.1979 Y13.5994
G01 X22.2028 Y13.5880
G01 X22.2089 Y13.5710
G01 X22.2123 Y13.5591
G01 X22.2165 Y13.5415
G01 X22.2194 Y13.5237
G01 X22.2207 Y13.5114
G01 X22.2216 Y13.4933
G01 X22.2215 Y13.4809
G01 X22.2204 Y13.4629
G01 X22.2179 Y13.4450
G01 X22.2157 Y13.4328
G01 X22.2113 Y13.4153
G01 X22.2075 Y13.4035
G01 X22.2013 Y13.3865
G01 X22.1900 Y13.3627
G01 X22.1809 Y13.3471
G01 X22.1741 Y13.3368
G01 X22.1634 Y13.3223
G01 X22.1554 Y13.3128
G01 X22.1431 Y13.2995
G01 X22.1308 Y13.2881
G00 Z2.0000
G00 X21.0885 Y12.0293
G01 F50.00
G01 Z-0.1500
G01 F120.00
G01 X21.0820 Y11.8976
G01 X21.0884 Y11.7677
G01 X21.1074 Y11.6389
G01 X21.1391 Y11.5127
G01 X21.1829 Y11.3902
G01 X21.2386 Y11.2725
G01 X21.3055 Y11.1609
G01 X21.3830 Y11.0564
G01 X21.4704 Y10.9599
G01 X21.5668 Y10.8725
G01 X21.6713 Y10.7950
G01 X21.7830 Y10.7281
G01 X21.9006 Y10.6725
G01 X22.0231 Y10.6286
G01 X22.1494 Y10.5970
G01 X22.2781 Y10.5779
G01 X22.4081 Y10.5715
G01 X22.5381 Y10.5779
G01 X22.6668 Y10.5970
G01 X22.7931 Y10.6286
G01 X22.9156 Y10.6725
G01 X23.0332 Y10.7281
G01 X23.1449 Y10.7950
G01 X23.2494 Y10.8725
G01 X23.3458 Y10.9599
G01 X23.4332 Y11.0564
G01 X23.5107 Y11.1609
G01 X23.5776 Y11.2725
G01 X23.6333 Y11.3902
G01 X23.6771 Y11.5127
G01 X23.7087 Y11.6389
G01 X23.7278 Y11.7677
G01 X23.7342 Y11.8976
G01 X23.7278 Y12.0276
G01 X23.7087 Y12.1564
G01 X23.6781 Y12.2790
G01 X23.6759 Y12.2862
G01 X23.6346 Y12.4016
G01 X23.6318 Y12.4086
G01 X23.5776 Y12.5228
G01 X23.5127 Y12.6312
G01 X23.5086 Y12.6375
G01 X23.4332 Y12.7389
G01 X23.3458 Y12.8354
G01 X23.2494 Y12.9228
G01 X23.1449 Y13.0003
G01 X23.0332 Y13.0672
G01 X22.9156 Y13.1228
G01 X22.7931 Y13.1667
G01 X22.6686 Y13.1979
G01 X22.5418 Y13.2169
G01 X22.5343 Y13.2177
G01 X22.4081 Y13.2238
G01 X22.2781 Y13.2174
G01 X22.1531 Y13.1989
G01 X22.1457 Y13.1975
G01 X22.0231 Y13.1667
G01 X21.9024 Y13.1235
G01 X21.7863 Y13.0689
G01 X21.7797 Y13.0653
G01 X21.6713 Y13.0003
G01 X21.5683 Y12.9239
G01 X21.4691 Y12.8340
G01 X21.3842 Y12.7404
G01 X21.3470 Y12.6905
G01 X19.6596 Y12.6905
G01 X18.8550 Y13.4951
G01 X18.8550 Y14.8148
G01 X18.8633 Y14.8181
G01 X18.9376 Y14.8534
G01 X19.0114 Y14.8976
G01 X19.0805 Y14.9489
G01 X19.1442 Y15.0066
G01 X19.2019 Y15.0703
G01 X19.2532 Y15.1394
G01 X19.2974 Y15.2132
G01 X19.3342 Y15.2910
G01 X19.3631 Y15.3719
G01 X19.3840 Y15.4554
G01 X19.3967 Y15.5405
G01 X19.4009 Y15.6264
G01 X19.3967 Y15.7123
G01 X19.3840 Y15.7973
G01 X19.3631 Y15.8808
G01 X19.3334 Y15.9635
G01 X19.2974 Y16.0395
G01 X19.2552 Y16.1101
G01 X19.2510 Y16.1164
G01 X19.2043 Y16.1794
G01 X19.1995 Y16.1852
G01 X19.1442 Y16.2461
G01 X19.0833 Y16.3014
G01 X19.0775 Y16.3062
G01 X19.0114 Y16.3551
G01 X18.9376 Y16.3993
G01 X18.8598 Y16.4361
G01 X18.7789 Y16.4651
G01 X18.6954 Y16.4860
G01 X18.6141 Y16.4981
G01 X18.6066 Y16.4989
G01 X18.5282 Y16.5027
G01 X18.5207 Y16.5027
G01 X18.4385 Y16.4986
G01 X18.3571 Y16.4866
G01 X18.3498 Y16.4851
G01 X18.2700 Y16.4651
G01 X18.1890 Y16.4361
G01 X18.1113 Y16.3993
G01 X18.0360 Y16.3540
G01 X17.9714 Y16.3062
G01 X17.9656 Y16.3014
G01 X17.9047 Y16.2461
G01 X17.8494 Y16.1852
G01 X17.8446 Y16.1794
G01 X17.7957 Y16.1133
G01 X17.7533 Y16.0428
G01 X17.7498 Y16.0362
G01 X17.7147 Y15.9618
G01 X17.6869 Y15.8843
G01 X17.6847 Y15.8772
G01 X17.6648 Y15.7973
G01 X17.6527 Y15.7160
G01 X17.6519 Y15.7085
G01 X17.6480 Y15.6264
G01 X17.6520 Y15.5423
G01 X17.6642 Y15.4591
G01 X17.6657 Y15.4517
G01 X17.6857 Y15.3719
G01 X17.7147 Y15.2910
G01 X17.7498 Y15.2166
G01 X17.7533 Y15.2099
G01 X17.7957 Y15.1394
G01 X17.8446 Y15.0733
G01 X17.8494 Y15.0675
G01 X17.9021 Y15.0093
G01 X17.9074 Y15.0040
G01 X17.9684 Y14.9489
G01 X18.0344 Y14.8998
G01 X18.0407 Y14.8956
G01 X18.1113 Y14.8534
G01 X18.1856 Y14.8181
G01 X18.1939 Y14.8148
G01 X18.1939 Y13.3563
G01 X18.1955 Y13.3257
G01 X18.1996 Y13.2973
G01 X18.2010 Y13.2900
G01 X18.2081 Y13.2622
G01 X18.2190 Y13.2316
G01 X18.2312 Y13.2057
G01 X18.2347 Y13.1990
G01 X18.2506 Y13.1729
G01 X18.2689 Y13.1484
G01 X18.2907 Y13.1244
G01 X19.2889 Y12.1262
G01 X19.3129 Y12.1044
G01 X19.3390 Y12.0851
G01 X19.3668 Y12.0684
G01 X19.3962 Y12.0545
G01 X19.4267 Y12.0436
G01 X19.4582 Y12.0357
G01 X19.4903 Y12.0309
G01 X19.5208 Y12.0294
G01 X21.0885 Y12.0293
G00 Z2.0000
G00 X20.9925 Y11.8466
G01 F50.00
G01 Z-0.1500
G01 F120.00
G01 X20.9902 Y11.8976
G01 X20.9920 Y11.9376
G01 X20.8992 Y11.9376
G01 X20.9133 Y11.9290
G01 X20.9312 Y11.9159
G01 X20.9407 Y11.9079
G01 X20.9539 Y11.8956
G01 X20.9662 Y11.8823
G01 X20.9742 Y11.8729
G01 X20.9849 Y11.8583
G01 X20.9925 Y11.8466
G00 Z2.0000
G00 X17.4082 Y10.7243
G01 F50.00
G01 Z-0.1500
G01 F120.00
G01 X17.2819 Y10.7180
G01 X17.1532 Y10.6989
G01 X17.0270 Y10.6673
G01 X16.9044 Y10.6235
G01 X16.7868 Y10.5678
G01 X16.6752 Y10.5009
G01 X16.5706 Y10.4234
G01 X16.4742 Y10.3360
G01 X16.3868 Y10.2396
G01 X16.3093 Y10.1350
G01 X16.2424 Y10.0234
G01 X16.1867 Y9.9058
G01 X16.1429 Y9.7832
G01 X16.1113 Y9.6570
G01 X16.0922 Y9.5283
G01 X16.0858 Y9.3983
G01 X16.0922 Y9.2683
G01 X16.1113 Y9.1396
G01 X16.1429 Y9.0133
G01 X16.1867 Y8.8908
G01 X16.2424 Y8.7731
G01 X16.3093 Y8.6615
G01 X16.3868 Y8.5570
G01 X16.4742 Y8.4606
G01 X16.5706 Y8.3732
G01 X16.6752 Y8.2956
G01 X16.7868 Y8.2287
G01 X16.9044 Y8.1731
G01 X17.0270 Y8.1293
G01 X17.1532 Y8.0976
G01 X17.2819 Y8.0785
G01 X17.4119 Y8.0721
G01 X17.5419 Y8.0785
G01 X17.6706 Y8.0976
G01 X17.7969 Y8.1293
G01 X17.9194 Y8.1731
G01 X18.0371 Y8.2287
G01 X18.1487 Y8.2956
G01 X18.2532 Y8.3732
G01 X18.3496 Y8.4606
G01 X18.4370 Y8.5570
G01 X18.5146 Y8.6615
G01 X18.5815 Y8.7731
G01 X18.6371 Y8.8908
G01 X18.6809 Y9.0133
G01 X18.7126 Y9.1396
G01 X18.7317 Y9.2683
G01 X18.7380 Y9.3983
G01 X18.7317 Y9.5283
G01 X18.7126 Y9.6570
G01 X18.6809 Y9.7832
G01 X18.6371 Y9.9058
G01 X18.5815 Y10.0234
G01 X18.5146 Y10.1350
G01 X18.4370 Y10.2396
G01 X18.3496 Y10.3360
G01 X18.2532 Y10.4234
G01 X18.1487 Y10.5009
G01 X18.0371 Y10.5678
G01 X17.9194 Y10.6235
G01 X17.7969 Y10.6673
G01 X17.6706 Y10.6989
G01 X17.5419 Y10.7180
G01 X17.4157 Y10.7243
G01 X17.4082 Y10.7243
G00 Z2.0000
G00 X17.2668 Y7.9251
G01 F50.00
G01 Z-0.1500
G01 F120.00
G01 X17.5570 Y7.9251
G01 X17.8416 Y7.9817
G01 X18.1097 Y8.0928
G01 X18.3510 Y8.2540
G01 X18.5562 Y8.4592
G01 X18.7174 Y8.7005
G01 X18.8285 Y8.9686
G01 X18.8851 Y9.2532
G01 X18.8851 Y9.5434
G01 X18.8285 Y9.8280
G01 X18.7174 Y10.0961
G01 X18.5562 Y10.3374
G01 X18.3510 Y10.5426
G01 X18.1097 Y10.7038
G01 X17.8416 Y10.8148
G01 X17.5570 Y10.8715
G01 X17.2668 Y10.8715
G01 X16.9822 Y10.8148
G01 X16.7141 Y10.7038
G01 X16.4728 Y10.5426
G01 X16.2676 Y10.3374
G01 X16.1064 Y10.0961
G01 X15.9954 Y9.8280
G01 X15.9387 Y9.5434
G01 X15.9387 Y9.2532
G01 X15.9954 Y8.9686
G01 X16.1064 Y8.7005
G01 X16.2676 Y8.4592
G01 X16.4728 Y8.2540
G01 X16.7141 Y8.0928
G01 X16.9822 Y7.9817
G01 X17.2668 Y7.9251
G00 Z2.0000
G00 X13.8318 Y11.9376
G01 F50.00
G01 Z-0.1500
G01 F120.00
G01 X13.8336 Y11.8976
G01 X13.8313 Y11.8466
G01 X13.8389 Y11.8583
G01 X13.8497 Y11.8729
G01 X13.8576 Y11.8823
G01 X13.8699 Y11.8956
G01 X13.8832 Y11.9079
G01 X13.8927 Y11.9159
G01 X13.9106 Y11.9290
G01 X13.9246 Y11.9376
G01 X13.8318 Y11.9376
G00 Z2.0000
G00 X13.7353 Y12.0293
G01 F50.00
G01 Z-0.1500
G01 F120.00
G01 X14.5251 Y12.0294
G01 X14.5501 Y12.0307
G01 X14.5575 Y12.0314
G01 X14.5859 Y12.0357
G01 X14.6137 Y12.0426
G01 X14.6209 Y12.0448
G01 X14.6479 Y12.0545
G01 X14.6756 Y12.0675
G01 X14.7019 Y12.0830
G01 X14.7081 Y12.0872
G01 X14.7311 Y12.1044
G01 X14.7538 Y12.1249
G01 X15.4333 Y12.8043
G01 X15.4551 Y12.8284
G01 X15.4744 Y12.8544
G01 X15.4911 Y12.8823
G01 X15.5050 Y12.9116
G01 X15.5159 Y12.9421
G01 X15.5238 Y12.9736
G01 X15.5286 Y13.0057
G01 X15.5301 Y13.0362
G01 X15.5302 Y14.7513
G01 X15.5384 Y14.7546
G01 X15.6094 Y14.7882
G01 X15.6160 Y14.7917
G01 X15.6865 Y14.8341
G01 X15.7556 Y14.8854
G01 X15.8193 Y14.9431
G01 X15.8746 Y15.0040
G01 X15.8794 Y15.0098
G01 X15.9283 Y15.0759
G01 X15.9707 Y15.1464
G01 X15.9742 Y15.1531
G01 X16.0093 Y15.2275
G01 X16.0383 Y15.3084
G01 X16.0584 Y15.3882
G01 X16.0598 Y15.3956
G01 X16.0718 Y15.4770
G01 X16.0760 Y15.5629
G01 X16.0718 Y15.6488
G01 X16.0598 Y15.7301
G01 X16.0584 Y15.7375
G01 X16.0383 Y15.8173
G01 X16.0093 Y15.8983
G01 X15.9742 Y15.9727
G01 X15.9707 Y15.9793
G01 X15.9283 Y16.0498
G01 X15.8794 Y16.1159
G01 X15.8746 Y16.1217
G01 X15.8193 Y16.1826
G01 X15.7556 Y16.2404
G01 X15.6865 Y16.2916
G01 X15.6160 Y16.3340
G01 X15.6094 Y16.3375
G01 X15.5350 Y16.3726
G01 X15.4540 Y16.4016
G01 X15.3706 Y16.4225
G01 X15.2855 Y16.4351
G01 X15.2033 Y16.4392
G01 X15.1958 Y16.4392
G01 X15.1137 Y16.4351
G01 X15.0323 Y16.4231
G01 X15.0249 Y16.4216
G01 X14.9488 Y16.4026
G01 X14.9416 Y16.4004
G01 X14.8642 Y16.3726
G01 X14.7864 Y16.3358
G01 X14.7126 Y16.2916
G01 X14.6436 Y16.2404
G01 X14.5798 Y16.1826
G01 X14.5245 Y16.1217
G01 X14.5198 Y16.1159
G01 X14.4708 Y16.0498
G01 X14.4285 Y15.9793
G01 X14.4249 Y15.9727
G01 X14.3914 Y15.9017
G01 X14.3885 Y15.8948
G01 X14.3609 Y15.8173
G01 X14.3400 Y15.7338
G01 X14.3273 Y15.6488
G01 X14.3231 Y15.5629
G01 X14.3273 Y15.4770
G01 X14.3393 Y15.3956
G01 X14.3408 Y15.3882
G01 X14.3599 Y15.3121
G01 X14.3620 Y15.3049
G01 X14.3898 Y15.2275
G01 X14.4266 Y15.1497
G01 X14.4708 Y15.0759
G01 X14.5221 Y15.0068
G01 X14.5798 Y14.9431
G01 X14.6407 Y14.8878
G01 X14.6465 Y14.8830
G01 X14.7126 Y14.8341
G01 X14.7832 Y14.7917
G01 X14.7898 Y14.7882
G01 X14.8607 Y14.7546
G01 X14.8690 Y14.7513
G01 X14.8690 Y13.1750
G01 X14.3845 Y12.6905
G01 X13.4769 Y12.6905
G01 X13.4396 Y12.7404
G01 X13.3521 Y12.8367
G01 X13.2570 Y12.9228
G01 X13.1509 Y13.0013
G01 X13.0409 Y13.0672
G01 X12.9232 Y13.1228
G01 X12.8007 Y13.1667
G01 X12.6726 Y13.1986
G01 X12.5457 Y13.2174
G01 X12.4195 Y13.2237
G01 X12.4120 Y13.2237
G01 X12.2858 Y13.2174
G01 X12.1607 Y13.1989
G01 X12.1534 Y13.1975
G01 X12.0308 Y13.1667
G01 X11.9100 Y13.1235
G01 X11.7940 Y13.0689
G01 X11.7873 Y13.0653
G01 X11.6790 Y13.0003
G01 X11.5745 Y12.9228
G01 X11.4780 Y12.8354
G01 X11.3931 Y12.7418
G01 X11.3883 Y12.7360
G01 X11.3153 Y12.6375
G01 X11.3111 Y12.6312
G01 X11.2462 Y12.5228
G01 X11.1906 Y12.4051
G01 X11.1467 Y12.2826
G01 X11.1159 Y12.1600
G01 X11.1144 Y12.1527
G01 X11.0965 Y12.0313
G01 X11.0957 Y12.0239
G01 X11.0896 Y11.8976
G01 X11.0960 Y11.7677
G01 X11.1151 Y11.6389
G01 X11.1467 Y11.5127
G01 X11.1906 Y11.3902
G01 X11.2462 Y11.2725
G01 X11.3131 Y11.1609
G01 X11.3906 Y11.0564
G01 X11.4780 Y10.9599
G01 X11.5745 Y10.8725
G01 X11.6790 Y10.7950
G01 X11.7906 Y10.7281
G01 X11.9083 Y10.6725
G01 X12.0308 Y10.6286
G01 X12.1570 Y10.5970
G01 X12.2858 Y10.5779
G01 X12.4157 Y10.5715
G01 X12.5457 Y10.5779
G01 X12.6745 Y10.5970
G01 X12.8007 Y10.6286
G01 X12.9232 Y10.6725
G01 X13.0409 Y10.7281
G01 X13.1525 Y10.7950
G01 X13.2570 Y10.8725
G01 X13.3535 Y10.9599
G01 X13.4409 Y11.0564
G01 X13.5184 Y11.1609
G01 X13.5853 Y11.2725
G01 X13.6409 Y11.3902
G01 X13.6848 Y11.5127
G01 X13.7164 Y11.6389
G01 X13.7355 Y11.7677
G01 X13.7419 Y11.8976
G01 X13.7353 Y12.0293
G00 Z2.0000
G00 X12.2706 Y10.4245
G01 F50.00
G01 Z-0.1500
G01 F120.00
G01 X12.5608 Y10.4245
G01 X12.8454 Y10.4811
G01 X13.1135 Y10.5921
G01 X13.3548 Y10.7533
G01 X13.5600 Y10.9585
G01 X13.7213 Y11.1998
G01 X13.8323 Y11.4679
G01 X13.8865 Y11.7404
G01 X13.8902 Y11.7554
G01 X13.8919 Y11.7607
G01 X13.8965 Y11.7735
G01 X13.9023 Y11.7858
G01 X13.9048 Y11.7908
G01 X13.9128 Y11.8040
G01 X13.9220 Y11.8164
G01 X13.9256 Y11.8207
G01 X13.9348 Y11.8307
G01 X13.9448 Y11.8399
G01 X13.9506 Y11.8447
G01 X13.9647 Y11.8547
G01 X13.9764 Y11.8616
G01 X13.9921 Y11.8690
G01 X14.0084 Y11.8748
G01 X14.0215 Y11.8782
G01 X14.0289 Y11.8797
G01 X14.0442 Y11.8817
G01 X14.0596 Y11.8824
G01 X14.4893 Y11.8824
G01 X14.5047 Y11.8817
G01 X14.5214 Y11.8801
G01 X14.6150 Y11.8893
G01 X14.7050 Y11.9166
G01 X14.7880 Y11.9610
G01 X14.8607 Y12.0206
G01 X14.8713 Y12.0336
G01 X14.8818 Y12.0450
G01 X15.5145 Y12.6777
G01 X15.5259 Y12.6882
G01 X15.5389 Y12.6988
G01 X15.5985 Y12.7715
G01 X15.6429 Y12.8545
G01 X15.6702 Y12.9445
G01 X15.6794 Y13.0381
G01 X15.6778 Y13.0548
G01 X15.6771 Y13.0702
G01 X15.6771 Y14.5566
G01 X15.6779 Y14.5739
G01 X15.6809 Y14.5929
G01 X15.6847 Y14.6079
G01 X15.6892 Y14.6207
G01 X15.6913 Y14.6259
G01 X15.6979 Y14.6398
G01 X15.7068 Y14.6547
G01 X15.7148 Y14.6656
G01 X15.7183 Y14.6700
G01 X15.7288 Y14.6814
G01 X15.7416 Y14.6931
G01 X15.7540 Y14.7023
G01 X15.8520 Y14.7679
G01 X15.9946 Y14.9104
G01 X16.1066 Y15.0780
G01 X16.1837 Y15.2643
G01 X16.2231 Y15.4621
G01 X16.2231 Y15.6637
G01 X16.1837 Y15.8614
G01 X16.1066 Y16.0477
G01 X15.9946 Y16.2153
G01 X15.8520 Y16.3579
G01 X15.6844 Y16.4699
G01 X15.4981 Y16.5470
G01 X15.3004 Y16.5864
G01 X15.0988 Y16.5864
G01 X14.9010 Y16.5470
G01 X14.7148 Y16.4699
G01 X14.5471 Y16.3579
G01 X14.4046 Y16.2153
G01 X14.2926 Y16.0477
G01 X14.2154 Y15.8614
G01 X14.1761 Y15.6637
G01 X14.1761 Y15.4621
G01 X14.2154 Y15.2643
G01 X14.2926 Y15.0780
G01 X14.4046 Y14.9104
G01 X14.5471 Y14.7679
G01 X14.6452 Y14.7023
G01 X14.6575 Y14.6931
G01 X14.6717 Y14.6801
G01 X14.6820 Y14.6686
G01 X14.6923 Y14.6547
G01 X14.7012 Y14.6398
G01 X14.7079 Y14.6259
G01 X14.7139 Y14.6096
G01 X14.7179 Y14.5947
G01 X14.7208 Y14.5776
G01 X14.7215 Y14.5702
G01 X14.7221 Y14.5566
G01 X14.7221 Y13.3090
G01 X14.7212 Y13.2917
G01 X14.7187 Y13.2746
G01 X14.7150 Y13.2596
G01 X14.7133 Y13.2542
G01 X14.7086 Y13.2415
G01 X14.7029 Y13.2291
G01 X14.7003 Y13.2241
G01 X14.6923 Y13.2109
G01 X14.6832 Y13.1985
G01 X14.6796 Y13.1942
G01 X14.6704 Y13.1842
G01 X14.3753 Y12.8891
G01 X14.3639 Y12.8787
G01 X14.3501 Y12.8682
G01 X14.3370 Y12.8601
G01 X14.3304 Y12.8566
G01 X14.3163 Y12.8502
G01 X14.3017 Y12.8450
G01 X14.2849 Y12.8408
G01 X14.2678 Y12.8383
G01 X14.2543 Y12.8375
G01 X13.6325 Y12.8374
G01 X13.6152 Y12.8383
G01 X13.5962 Y12.8412
G01 X13.5794 Y12.8456
G01 X13.5615 Y12.8524
G01 X13.5460 Y12.8601
G01 X13.5344 Y12.8672
G01 X13.5234 Y12.8752
G01 X13.5191 Y12.8787
G01 X13.5077 Y12.8891
G01 X13.3548 Y13.0419
G01 X13.1135 Y13.2032
G01 X12.8454 Y13.3142
G01 X12.5608 Y13.3708
G01 X12.2706 Y13.3708
G01 X11.9860 Y13.3142
G01 X11.7179 Y13.2032
G01 X11.4766 Y13.0419
G01 X11.2714 Y12.8367
G01 X11.1102 Y12.5954
G01 X10.9992 Y12.3273
G01 X10.9426 Y12.0427
G01 X10.9426 Y11.7525
G01 X10.9992 Y11.4679
G01 X11.1102 Y11.1998
G01 X11.2714 Y10.9585
G01 X11.4766 Y10.7533
G01 X11.7179 Y10.5921
G01 X11.9860 Y10.4811
G01 X12.2706 Y10.4245
G00 Z2.0000
G00 X9.1155 Y22.2732
G01 F50.00
G01 Z-0.1500
G01 F120.00
G01 X9.1140 Y22.2583
G01 X9.1156 Y22.2416
G01 X9.1163 Y22.2262
G01 X9.1163 Y16.3881
G01 X9.1157 Y16.3745
G01 X9.1152 Y16.3689
G01 X9.1129 Y16.3536
G01 X9.1081 Y16.3350
G01 X9.1029 Y16.3205
G01 X9.0971 Y16.3082
G01 X9.0876 Y16.2916
G01 X9.0762 Y16.2761
G01 X9.0659 Y16.2646
G01 X9.0619 Y16.2607
G01 X9.0518 Y16.2516
G01 X9.0409 Y16.2435
G01 X9.0246 Y16.2333
G01 X9.0073 Y16.2250
G01 X8.9910 Y16.2192
G01 X8.9742 Y16.2150
G01 X8.9571 Y16.2124
G01 X8.9398 Y16.2116
G01 X8.7499 Y16.2116
G01 X8.6974 Y16.2064
G01 X8.6553 Y16.1936
G01 X8.6165 Y16.1729
G01 X8.5825 Y16.1449
G01 X8.5545 Y16.1109
G01 X8.5338 Y16.0721
G01 X8.5210 Y16.0300
G01 X8.5158 Y15.9775
G01 X8.5158 Y14.2948
G01 X8.5210 Y14.2423
G01 X8.5338 Y14.2002
G01 X8.5545 Y14.1614
G01 X8.5825 Y14.1273
G01 X8.6165 Y14.0994
G01 X8.6553 Y14.0787
G01 X8.6974 Y14.0659
G01 X8.7499 Y14.0607
G01 X10.4326 Y14.0607
G01 X10.4851 Y14.0659
G01 X10.5272 Y14.0787
G01 X10.5660 Y14.0994
G01 X10.6001 Y14.1273
G01 X10.6280 Y14.1614
G01 X10.6487 Y14.2002
G01 X10.6615 Y14.2423
G01 X10.6667 Y14.2948
G01 X10.6667 Y15.9775
G01 X10.6615 Y16.0300
G01 X10.6487 Y16.0721
G01 X10.6280 Y16.1109
G01 X10.6001 Y16.1449
G01 X10.5660 Y16.1729
G01 X10.5272 Y16.1936
G01 X10.4851 Y16.2064
G01 X10.4326 Y16.2116
G01 X10.2478 Y16.2116
G01 X10.2342 Y16.2121
G01 X10.2268 Y16.2129
G01 X10.2097 Y16.2158
G01 X10.1966 Y16.2192
G01 X10.1803 Y16.2250
G01 X10.1663 Y16.2315
G01 X10.1613 Y16.2343
G01 X10.1497 Y16.2413
G01 X10.1358 Y16.2516
G01 X10.1243 Y16.2620
G01 X10.1204 Y16.2660
G01 X10.1114 Y16.2761
G01 X10.1032 Y16.2869
G01 X10.1000 Y16.2916
G01 X10.0921 Y16.3049
G01 X10.0855 Y16.3188
G01 X10.0834 Y16.3240
G01 X10.0789 Y16.3368
G01 X10.0751 Y16.3518
G01 X10.0720 Y16.3726
G01 X10.0713 Y16.3881
G01 X10.0713 Y21.9874
G01 X10.0721 Y22.0047
G01 X10.0740 Y22.0181
G01 X10.0779 Y22.0350
G01 X10.0801 Y22.0422
G01 X10.0847 Y22.0549
G01 X10.0921 Y22.0706
G01 X10.1010 Y22.0855
G01 X10.1091 Y22.0964
G01 X10.1126 Y22.1008
G01 X10.1230 Y22.1122
G01 X11.3264 Y23.3156
G01 X11.3392 Y23.3272
G01 X11.4216 Y23.3948
G01 X11.4322 Y23.4078
G01 X11.4427 Y23.4192
G01 X12.2582 Y24.2347
G01 X12.2696 Y24.2452
G01 X12.2826 Y24.2558
G01 X12.3422 Y24.3285
G01 X12.3866 Y24.4115
G01 X12.4139 Y24.5015
G01 X12.4231 Y24.5951
G01 X12.4215 Y24.6118
G01 X12.4208 Y24.6272
G01 X12.4208 Y26.7018
G01 X12.4215 Y26.7172
G01 X12.4231 Y26.7339
G01 X12.4139 Y26.8275
G01 X12.3973 Y26.8823
G01 X12.3931 Y26.8991
G01 X12.3907 Y26.9144
G01 X12.3902 Y26.9200
G01 X12.3897 Y26.9335
G01 X12.3904 Y26.9490
G01 X12.3931 Y26.9680
G01 X12.3973 Y26.9848
G01 X12.4031 Y27.0011
G01 X12.4105 Y27.0167
G01 X12.4194 Y27.0316
G01 X12.4297 Y27.0455
G01 X12.4414 Y27.0583
G01 X12.4528 Y27.0688
G01 X12.4572 Y27.0723
G01 X12.4681 Y27.0803
G01 X12.4797 Y27.0873
G01 X12.4952 Y27.0951
G01 X12.5131 Y27.1019
G01 X12.5281 Y27.1058
G01 X12.5336 Y27.1070
G01 X12.5489 Y27.1092
G01 X12.5662 Y27.1100
G01 X12.5835 Y27.1092
G01 X12.6006 Y27.1066
G01 X12.6156 Y27.1030
G01 X12.6210 Y27.1013
G01 X12.6337 Y27.0966
G01 X12.6460 Y27.0909
G01 X12.6510 Y27.0883
G01 X12.6642 Y27.0803
G01 X12.6767 Y27.0711
G01 X12.6810 Y27.0675
G01 X12.6910 Y27.0583
G01 X12.9953 Y26.7540
G01 X13.0056 Y26.7425
G01 X13.0149 Y26.7301
G01 X13.0230 Y26.7170
G01 X13.0265 Y26.7104
G01 X13.0322 Y26.6981
G01 X13.0381 Y26.6818
G01 X13.0423 Y26.6650
G01 X13.0444 Y26.6515
G01 X13.0450 Y26.6460
G01 X13.0457 Y26.6305
G01 X13.0457 Y23.6315
G01 X13.0450 Y23.6161
G01 X13.0434 Y23.5994
G01 X13.0526 Y23.5058
G01 X13.0799 Y23.4158
G01 X13.1242 Y23.3328
G01 X13.1839 Y23.2601
G01 X13.1969 Y23.2495
G01 X13.2083 Y23.2391
G01 X20.8498 Y15.5973
G01 X20.8601 Y15.5858
G01 X20.8702 Y15.5717
G01 X20.8781 Y15.5585
G01 X20.8862 Y15.5411
G01 X20.8914 Y15.5265
G01 X20.8959 Y15.5078
G01 X20.8983 Y15.4907
G01 X20.8989 Y15.4715
G01 X20.8981 Y15.4579
G01 X20.8962 Y15.4445
G01 X20.8919 Y15.4258
G01 X20.8862 Y15.4094
G01 X20.8688 Y15.3672
G01 X20.8179 Y15.1116
G01 X20.8179 Y14.8508
G01 X20.8688 Y14.5951
G01 X20.9685 Y14.3543
G01 X21.1134 Y14.1375
G01 X21.2977 Y13.9532
G01 X21.5145 Y13.8083
G01 X21.7553 Y13.7086
G01 X21.9897 Y13.6619
G01 X22.0047 Y13.6581
G01 X22.0175 Y13.6536
G01 X22.0227 Y13.6515
G01 X22.0366 Y13.6449
G01 X22.0515 Y13.6360
G01 X22.0639 Y13.6268
G01 X22.0682 Y13.6232
G01 X22.0782 Y13.6140
G01 X22.0874 Y13.6040
G01 X22.0910 Y13.5997
G01 X22.1002 Y13.5873
G01 X22.1082 Y13.5740
G01 X22.1108 Y13.5690
G01 X22.1165 Y13.5567
G01 X22.1212 Y13.5440
G01 X22.1229 Y13.5386
G01 X22.1265 Y13.5236
G01 X22.1291 Y13.5065
G01 X22.1299 Y13.4911
G01 X22.1298 Y13.4854
G01 X22.1291 Y13.4719
G01 X22.1272 Y13.4585
G01 X22.1262 Y13.4529
G01 X22.1223 Y13.4380
G01 X22.1165 Y13.4217
G01 X22.1100 Y13.4077
G01 X22.1072 Y13.4027
G01 X22.1002 Y13.3911
G01 X22.0922 Y13.3802
G01 X22.0887 Y13.3758
G01 X22.0782 Y13.3644
G01 X22.0668 Y13.3540
G01 X22.0624 Y13.3505
G01 X22.0515 Y13.3424
G01 X22.0399 Y13.3354
G01 X22.0350 Y13.3327
G01 X22.0210 Y13.3261
G01 X22.0029 Y13.3198
G01 X21.9897 Y13.3165
G01 X21.9784 Y13.3142
G01 X21.7103 Y13.2032
G01 X21.4690 Y13.0419
G01 X21.3162 Y12.8891
G01 X21.3048 Y12.8787
G01 X21.2894 Y12.8672
G01 X21.2746 Y12.8583
G01 X21.2589 Y12.8509
G01 X21.2444 Y12.8456
G01 X21.2390 Y12.8440
G01 X21.2258 Y12.8408
G01 X21.2124 Y12.8387
G01 X21.2068 Y12.8381
G01 X21.1914 Y12.8374
G01 X19.7917 Y12.8374
G01 X19.7763 Y12.8383
G01 X19.7591 Y12.8408
G01 X19.7423 Y12.8450
G01 X19.7295 Y12.8495
G01 X19.7137 Y12.8566
G01 X19.7071 Y12.8601
G01 X19.6939 Y12.8682
G01 X19.6801 Y12.8787
G01 X19.6687 Y12.8891
G01 X19.0510 Y13.5069
G01 X19.0420 Y13.5171
G01 X19.0317 Y13.5310
G01 X19.0228 Y13.5458
G01 X19.0161 Y13.5598
G01 X19.0101 Y13.5760
G01 X19.0062 Y13.5909
G01 X19.0032 Y13.6080
G01 X19.0025 Y13.6155
G01 X19.0019 Y13.6290
G01 X19.0019 Y14.6201
G01 X19.0028 Y14.6374
G01 X19.0057 Y14.6564
G01 X19.0095 Y14.6714
G01 X19.0140 Y14.6842
G01 X19.0161 Y14.6894
G01 X19.0228 Y14.7033
G01 X19.0317 Y14.7182
G01 X19.0397 Y14.7291
G01 X19.0432 Y14.7335
G01 X19.0536 Y14.7449
G01 X19.0665 Y14.7566
G01 X19.0788 Y14.7658
G01 X19.1769 Y14.8314
G01 X19.3194 Y14.9739
G01 X19.4315 Y15.1415
G01 X19.5086 Y15.3278
G01 X19.5479 Y15.5256
G01 X19.5479 Y15.7272
G01 X19.5086 Y15.9249
G01 X19.4315 Y16.1112
G01 X19.3194 Y16.2788
G01 X19.1769 Y16.4214
G01 X19.0092 Y16.5334
G01 X18.8230 Y16.6105
G01 X18.6252 Y16.6499
G01 X18.4236 Y16.6499
G01 X18.2259 Y16.6105
G01 X18.0396 Y16.5334
G01 X17.8720 Y16.4214
G01 X17.7294 Y16.2788
G01 X17.6174 Y16.1112
G01 X17.5403 Y15.9249
G01 X17.5009 Y15.7272
G01 X17.5009 Y15.5256
G01 X17.5403 Y15.3278
G01 X17.6174 Y15.1415
G01 X17.7294 Y14.9739
G01 X17.8720 Y14.8314
G01 X17.9700 Y14.7658
G01 X17.9824 Y14.7566
G01 X17.9952 Y14.7449
G01 X18.0057 Y14.7335
G01 X18.0092 Y14.7291
G01 X18.0172 Y14.7182
G01 X18.0261 Y14.7033
G01 X18.0328 Y14.6894
G01 X18.0349 Y14.6842
G01 X18.0393 Y14.6714
G01 X18.0432 Y14.6564
G01 X18.0461 Y14.6374
G01 X18.0469 Y14.6201
G01 X18.0469 Y13.3903
G01 X18.0462 Y13.3748
G01 X18.0446 Y13.3581
G01 X18.0538 Y13.2645
G01 X18.0812 Y13.1745
G01 X18.1255 Y13.0916
G01 X18.1852 Y13.0189
G01 X18.1981 Y13.0082
G01 X18.2095 Y12.9978
G01 X19.1623 Y12.0450
G01 X19.1727 Y12.0336
G01 X19.1834 Y12.0206
G01 X19.2561 Y11.9610
G01 X19.3390 Y11.9166
G01 X19.4291 Y11.8893
G01 X19.5227 Y11.8801
G01 X19.5394 Y11.8817
G01 X19.5548 Y11.8824
G01 X20.7661 Y11.8824
G01 X20.7815 Y11.8816
G01 X20.7950 Y11.8797
G01 X20.8005 Y11.8786
G01 X20.8155 Y11.8748
G01 X20.8300 Y11.8697
G01 X20.8352 Y11.8675
G01 X20.8474 Y11.8616
G01 X20.8623 Y11.8527
G01 X20.8747 Y11.8435
G01 X20.8790 Y11.8399
G01 X20.8890 Y11.8307
G01 X20.9007 Y11.8179
G01 X20.9110 Y11.8040
G01 X20.9180 Y11.7924
G01 X20.9216 Y11.7858
G01 X20.9286 Y11.7700
G01 X20.9331 Y11.7572
G01 X20.9373 Y11.7404
G01 X20.9915 Y11.4679
G01 X21.1026 Y11.1998
G01 X21.2638 Y10.9585
G01 X21.4690 Y10.7533
G01 X21.7103 Y10.5921
G01 X21.9784 Y10.4811
G01 X22.2630 Y10.4245
G01 X22.5532 Y10.4245
G01 X22.8378 Y10.4811
G01 X23.1059 Y10.5921
G01 X23.3472 Y10.7533
G01 X23.5524 Y10.9585
G01 X23.7136 Y11.1998
G01 X23.8247 Y11.4679
G01 X23.8813 Y11.7525
G01 X23.8813 Y12.0427
G01 X23.8247 Y12.3273
G01 X23.7136 Y12.5954
G01 X23.5524 Y12.8367
G01 X23.3472 Y13.0419
G01 X23.1059 Y13.2032
G01 X22.8378 Y13.3142
G01 X22.5538 Y13.3707
G01 X22.5388 Y13.3745
G01 X22.5260 Y13.3790
G01 X22.5208 Y13.3811
G01 X22.5068 Y13.3878
G01 X22.4936 Y13.3957
G01 X22.4889 Y13.3989
G01 X22.4781 Y13.4070
G01 X22.4680 Y13.4161
G01 X22.4639 Y13.4200
G01 X22.4536 Y13.4315
G01 X22.4433 Y13.4454
G01 X22.4353 Y13.4586
G01 X22.4327 Y13.4636
G01 X22.4270 Y13.4759
G01 X22.4223 Y13.4886
G01 X22.4206 Y13.4940
G01 X22.4169 Y13.5090
G01 X22.4142 Y13.5280
G01 X22.4136 Y13.5472
G01 X22.4144 Y13.5607
G01 X22.4163 Y13.5742
G01 X22.4173 Y13.5797
G01 X22.4211 Y13.5947
G01 X22.4270 Y13.6110
G01 X22.4335 Y13.6250
G01 X22.4362 Y13.6299
G01 X22.4433 Y13.6415
G01 X22.4513 Y13.6525
G01 X22.4548 Y13.6569
G01 X22.4652 Y13.6682
G01 X22.4781 Y13.6799
G01 X22.4904 Y13.6891
G01 X22.4952 Y13.6922
G01 X22.5068 Y13.6991
G01 X22.5208 Y13.7058
G01 X22.7683 Y13.8083
G01 X22.9851 Y13.9532
G01 X23.1694 Y14.1375
G01 X23.3143 Y14.3543
G01 X23.4140 Y14.5951
G01 X23.4649 Y14.8508
G01 X23.4649 Y15.1116
G01 X23.4140 Y15.3672
G01 X23.3143 Y15.6081
G01 X23.1694 Y15.8249
G01 X22.9851 Y16.0092
G01 X22.7683 Y16.1541
G01 X22.5274 Y16.2538
G01 X22.2718 Y16.3047
G01 X22.0110 Y16.3047
G01 X21.7553 Y16.2538
G01 X21.7131 Y16.2364
G01 X21.6986 Y16.2312
G01 X21.6818 Y16.2270
G01 X21.6665 Y16.2247
G01 X21.6609 Y16.2242
G01 X21.6455 Y16.2237
G01 X21.6282 Y16.2247
G01 X21.6129 Y16.2270
G01 X21.5943 Y16.2318
G01 X21.5798 Y16.2371
G01 X21.5641 Y16.2445
G01 X21.5493 Y16.2534
G01 X21.5339 Y16.2649
G01 X21.5225 Y16.2753
G01 X14.0524 Y23.7455
G01 X14.0407 Y23.7583
G01 X14.0304 Y23.7723
G01 X14.0215 Y23.7871
G01 X14.0141 Y23.8028
G01 X14.0083 Y23.8191
G01 X14.0041 Y23.8359
G01 X14.0015 Y23.8530
G01 X14.0007 Y23.8703
G01 X14.0007 Y25.0930
G01 X14.0014 Y25.1085
G01 X14.0041 Y25.1275
G01 X14.0078 Y25.1425
G01 X14.0095 Y25.1478
G01 X14.0141 Y25.1606
G01 X14.0198 Y25.1729
G01 X14.0224 Y25.1779
G01 X14.0304 Y25.1911
G01 X14.0407 Y25.2050
G01 X14.0511 Y25.2165
G01 X14.0551 Y25.2204
G01 X14.0652 Y25.2295
G01 X14.0761 Y25.2376
G01 X14.0807 Y25.2408
G01 X14.0940 Y25.2487
G01 X14.1079 Y25.2554
G01 X14.1131 Y25.2575
G01 X14.1259 Y25.2619
G01 X14.1391 Y25.2653
G01 X14.1446 Y25.2665
G01 X14.1599 Y25.2687
G01 X14.1753 Y25.2695
G01 X14.1809 Y25.2695
G01 X14.1945 Y25.2687
G01 X14.2079 Y25.2668
G01 X14.2134 Y25.2658
G01 X14.2284 Y25.2619
G01 X14.2430 Y25.2568
G01 X14.2482 Y25.2546
G01 X14.2604 Y25.2487
G01 X14.2737 Y25.2408
G01 X14.2862 Y25.2318
G01 X14.2920 Y25.2270
G01 X14.3033 Y25.2165
G01 X14.3148 Y25.2036
G01 X14.3239 Y25.1911
G01 X14.4046 Y25.0704
G01 X14.5471 Y24.9279
G01 X14.7148 Y24.8158
G01 X14.9010 Y24.7387
G01 X15.0988 Y24.6994
G01 X15.3004 Y24.6994
G01 X15.4161 Y24.7223
G01 X15.4313 Y24.7245
G01 X15.4505 Y24.7254
G01 X15.4659 Y24.7245
G01 X15.4794 Y24.7226
G01 X15.4867 Y24.7212
G01 X15.5017 Y24.7172
G01 X15.5162 Y24.7120
G01 X15.5302 Y24.7054
G01 X15.5435 Y24.6977
G01 X15.5498 Y24.6935
G01 X15.5606 Y24.6853
G01 X15.5735 Y24.6737
G01 X17.6662 Y22.5809
G01 X17.6767 Y22.5695
G01 X17.6873 Y22.5566
G01 X17.7600 Y22.4969
G01 X17.7940 Y22.4787
G01 X17.8072 Y22.4707
G01 X17.8211 Y22.4604
G01 X17.8339 Y22.4488
G01 X23.1399 Y17.1428
G01 X23.1504 Y17.1314
G01 X23.1610 Y17.1184
G01 X23.2337 Y17.0588
G01 X23.3167 Y17.0144
G01 X23.4067 Y16.9871
G01 X23.5003 Y16.9779
G01 X23.5170 Y16.9795
G01 X23.5324 Y16.9802
G01 X25.9828 Y16.9802
G01 X25.9982 Y16.9795
G01 X26.0149 Y16.9779
G01 X26.1085 Y16.9871
G01 X26.1985 Y17.0144
G01 X26.2815 Y17.0588
G01 X26.3542 Y17.1184
G01 X26.3648 Y17.1314
G01 X26.3753 Y17.1428
G01 X27.4474 Y18.2149
G01 X27.4588 Y18.2254
G01 X27.4718 Y18.2360
G01 X27.5314 Y18.3087
G01 X27.5758 Y18.3917
G01 X27.6031 Y18.4817
G01 X27.6123 Y18.5753
G01 X27.6107 Y18.5920
G01 X27.6100 Y18.6074
G01 X27.6100 Y26.7982
G01 X27.6107 Y26.8136
G01 X27.6123 Y26.8303
G01 X27.6031 Y26.9239
G01 X27.5758 Y27.0139
G01 X27.5314 Y27.0969
G01 X27.4718 Y27.1696
G01 X27.4588 Y27.1802
G01 X27.4474 Y27.1907
G01 X25.7306 Y28.9075
G01 X25.7189 Y28.9204
G01 X25.7108 Y28.9312
G01 X25.7066 Y28.9374
G01 X25.6988 Y28.9508
G01 X25.6923 Y28.9648
G01 X25.6870 Y28.9793
G01 X25.6831 Y28.9942
G01 X25.6816 Y29.0016
G01 X25.6797 Y29.0150
G01 X25.6789 Y29.0305
G01 X25.6797 Y29.0496
G01 X25.6819 Y29.0649
G01 X25.7049 Y29.1806
G01 X25.7049 Y29.3822
G01 X25.6656 Y29.5799
G01 X25.5884 Y29.7662
G01 X25.4764 Y29.9338
G01 X25.3338 Y30.0764
G01 X25.1662 Y30.1884
G01 X24.9799 Y30.2656
G01 X24.7822 Y30.3049
G01 X24.5806 Y30.3049
G01 X24.3829 Y30.2656
G01 X24.1966 Y30.1884
G01 X24.0290 Y30.0764
G01 X23.8864 Y29.9338
G01 X23.7744 Y29.7662
G01 X23.6972 Y29.5799
G01 X23.6579 Y29.3822
G01 X23.6579 Y29.1806
G01 X23.6972 Y28.9829
G01 X23.7744 Y28.7966
G01 X23.8864 Y28.6290
G01 X24.0290 Y28.4864
G01 X24.1966 Y28.3744
G01 X24.3829 Y28.2972
G01 X24.5806 Y28.2579
G01 X24.7822 Y28.2579
G01 X24.8979 Y28.2809
G01 X24.9132 Y28.2831
G01 X24.9305 Y28.2839
G01 X24.9478 Y28.2831
G01 X24.9631 Y28.2809
G01 X24.9686 Y28.2797
G01 X24.9817 Y28.2763
G01 X24.9945 Y28.2718
G01 X24.9997 Y28.2698
G01 X25.0137 Y28.2631
G01 X25.0270 Y28.2552
G01 X25.0316 Y28.2520
G01 X25.0424 Y28.2439
G01 X25.0539 Y28.2335
G01 X25.3460 Y27.9415
G01 X25.3565 Y27.9301
G01 X25.3600 Y27.9257
G01 X25.3680 Y27.9147
G01 X25.3751 Y27.9031
G01 X25.3836 Y27.8859
G01 X25.3901 Y27.8679
G01 X25.3947 Y27.8492
G01 X25.3972 Y27.8302
G01 X25.3977 Y27.8167
G01 X25.3972 Y27.8031
G01 X25.3967 Y27.7975
G01 X25.3944 Y27.7822
G01 X25.3896 Y27.7636
G01 X25.3843 Y27.7491
G01 X25.3778 Y27.7351
G01 X25.3700 Y27.7218
G01 X25.3658 Y27.7155
G01 X25.3577 Y27.7047
G01 X25.3460 Y27.6919
G01 X25.3332 Y27.6802
G01 X25.3224 Y27.6721
G01 X25.3077 Y27.6628
G01 X25.3011 Y27.6593
G01 X25.2888 Y27.6536
G01 X25.2725 Y27.6478
G01 X25.2575 Y27.6439
G01 X25.2520 Y27.6429
G01 X25.2385 Y27.6410
G01 X25.2212 Y27.6402
G01 X25.2039 Y27.6410
G01 X25.1905 Y27.6429
G01 X25.1831 Y27.6444
G01 X25.1664 Y27.6489
G01 X25.1537 Y27.6536
G01 X24.9799 Y27.7256
G01 X24.7822 Y27.7649
G01 X24.5806 Y27.7649
G01 X24.3829 Y27.7256
G01 X24.1966 Y27.6484
G01 X24.0290 Y27.5364
G01 X23.8864 Y27.3938
G01 X23.7744 Y27.2262
G01 X23.6972 Y27.0399
G01 X23.6579 Y26.8422
G01 X23.6579 Y26.6622
G01 X23.6570 Y26.6467
G01 X23.6551 Y26.6333
G01 X23.6541 Y26.6278
G01 X23.6503 Y26.6128
G01 X23.6445 Y26.5965
G01 X23.6371 Y26.5808
G01 X23.6282 Y26.5660
G01 X23.6178 Y26.5521
G01 X23.6062 Y26.5392
G01 X23.5934 Y26.5276
G01 X23.5795 Y26.5173
G01 X23.5629 Y26.5075
G01 X23.5489 Y26.5010
G01 X23.5362 Y26.4963
G01 X23.5308 Y26.4946
G01 X23.5158 Y26.4909
G01 X23.5006 Y26.4886
G01 X23.4950 Y26.4881
G01 X23.4814 Y26.4875
G01 X23.4678 Y26.4881
G01 X23.4622 Y26.4886
G01 X23.4470 Y26.4909
G01 X23.4320 Y26.4946
G01 X23.4266 Y26.4963
G01 X23.4139 Y26.5010
G01 X23.3999 Y26.5075
G01 X23.3818 Y26.5183
G01 X23.3694 Y26.5276
G01 X23.3566 Y26.5392
G01 X23.3450 Y26.5521
G01 X23.3357 Y26.5644
G01 X23.3249 Y26.5825
G01 X23.3191 Y26.5948
G01 X23.3143 Y26.6063
G01 X23.1694 Y26.8231
G01 X22.9851 Y27.0074
G01 X22.7683 Y27.1523
G01 X22.5274 Y27.2520
G01 X22.2718 Y27.3029
G01 X22.0110 Y27.3029
G01 X21.7553 Y27.2520
G01 X21.7149 Y27.2353
G01 X21.7004 Y27.2300
G01 X21.6818 Y27.2252
G01 X21.6665 Y27.2229
G01 X21.6511 Y27.2219
G01 X21.6436 Y27.2219
G01 X21.6300 Y27.2227
G01 X21.6129 Y27.2252
G01 X21.5961 Y27.2294
G01 X21.5833 Y27.2339
G01 X21.5764 Y27.2368
G01 X21.5609 Y27.2445
G01 X21.5493 Y27.2516
G01 X21.5383 Y27.2596
G01 X21.5339 Y27.2631
G01 X21.5225 Y27.2735
G01 X20.6500 Y28.1461
G01 X20.6397 Y28.1576
G01 X20.6315 Y28.1685
G01 X20.6283 Y28.1731
G01 X20.6204 Y28.1864
G01 X20.6130 Y28.2021
G01 X20.6084 Y28.2148
G01 X20.6062 Y28.2220
G01 X20.6026 Y28.2370
G01 X20.6004 Y28.2523
G01 X20.5996 Y28.2696
G01 X20.5996 Y36.4154
G01 X20.6004 Y36.4327
G01 X20.6030 Y36.4498
G01 X20.6072 Y36.4666
G01 X20.6123 Y36.4812
G01 X20.6146 Y36.4863
G01 X20.6204 Y36.4986
G01 X20.6273 Y36.5102
G01 X20.6304 Y36.5150
G01 X20.6397 Y36.5273
G01 X20.6513 Y36.5402
G01 X20.6627 Y36.5506
G01 X20.6671 Y36.5541
G01 X20.6780 Y36.5621
G01 X20.6896 Y36.5692
G01 X20.7051 Y36.5769
G01 X20.7103 Y36.5791
G01 X20.7249 Y36.5843
G01 X20.7417 Y36.5885
G01 X20.7588 Y36.5910
G01 X20.7742 Y36.5918
G01 X20.7798 Y36.5918
G01 X20.7934 Y36.5910
G01 X20.8068 Y36.5891
G01 X20.8255 Y36.5848
G01 X20.8436 Y36.5784
G01 X20.8609 Y36.5701
G01 X20.8772 Y36.5599
G01 X20.8881 Y36.5518
G01 X20.8982 Y36.5427
G01 X20.9022 Y36.5388
G01 X20.9125 Y36.5273
G01 X20.9239 Y36.5118
G01 X20.9318 Y36.4986
G01 X20.9384 Y36.4846
G01 X20.9939 Y36.3507
G01 X21.1388 Y36.1339
G01 X21.3231 Y35.9496
G01 X21.5399 Y35.8047
G01 X21.7807 Y35.7050
G01 X22.0364 Y35.6541
G01 X22.2972 Y35.6541
G01 X22.5528 Y35.7050
G01 X22.7937 Y35.8047
G01 X23.0105 Y35.9496
G01 X23.1948 Y36.1339
G01 X23.3397 Y36.3507
G01 X23.4394 Y36.5915
G01 X23.4903 Y36.8472
G01 X23.4903 Y37.1080
G01 X23.4394 Y37.3636
G01 X23.3397 Y37.6045
G01 X23.1948 Y37.8213
G01 X23.0105 Y38.0056
G01 X22.7937 Y38.1505
G01 X22.7515 Y38.1680
G01 X22.7360 Y38.1755
G01 X22.7197 Y38.1857
G01 X22.7088 Y38.1939
G01 X22.6987 Y38.2029
G01 X22.6947 Y38.2068
G01 X22.6844 Y38.2183
G01 X22.6740 Y38.2322
G01 X22.6651 Y38.2471
G01 X22.6577 Y38.2627
G01 X22.6519 Y38.2791
G01 X22.6477 Y38.2959
G01 X22.6451 Y38.3130
G01 X22.6443 Y38.3303
G01 X22.6443 Y39.5919
G01 X22.6451 Y39.6092
G01 X22.6477 Y39.6263
G01 X22.6519 Y39.6431
G01 X22.6570 Y39.6577
G01 X22.6593 Y39.6629
G01 X22.6651 Y39.6751
G01 X22.6740 Y39.6899
G01 X22.6844 Y39.7039
G01 X22.6947 Y39.7153
G01 X22.7060 Y39.7259
G01 X22.7118 Y39.7306
G01 X22.7243 Y39.7397
G01 X22.7393 Y39.7484
G01 X22.7533 Y39.7549
G01 X22.7660 Y39.7596
G01 X22.7845 Y39.7646
G01 X22.9422 Y39.7960
G01 X23.1376 Y39.8769
G01 X23.3134 Y39.9944
G01 X23.4629 Y40.1439
G01 X23.5804 Y40.3197
G01 X23.6613 Y40.5151
G01 X23.7026 Y40.7225
G01 X23.7026 Y40.9340
G01 X23.6613 Y41.1414
G01 X23.5804 Y41.3367
G01 X23.4629 Y41.5126
G01 X23.3134 Y41.6621
G01 X23.1376 Y41.7796
G01 X22.9422 Y41.8605
G01 X22.7348 Y41.9017
G01 X22.5233 Y41.9017
G01 X22.3160 Y41.8605
G01 X22.1206 Y41.7796
G01 X22.1171 Y41.7772
G01 X21.9448 Y41.6621
G01 X21.7952 Y41.5126
G01 X21.6778 Y41.3367
G01 X21.5968 Y41.1414
G01 X21.5556 Y40.9340
G01 X21.5556 Y40.7225
G01 X21.5968 Y40.5151
G01 X21.6766 Y40.3226
G01 X21.6817 Y40.3080
G01 X21.6855 Y40.2930
G01 X21.6880 Y40.2778
G01 X21.6887 Y40.2703
G01 X21.6893 Y40.2568
G01 X21.6893 Y38.3303
G01 X21.6884 Y38.3130
G01 X21.6855 Y38.2940
G01 X21.6817 Y38.2791
G01 X21.6759 Y38.2627
G01 X21.6685 Y38.2471
G01 X21.6616 Y38.2354
G01 X21.6574 Y38.2292
G01 X21.6480 Y38.2169
G01 X21.6376 Y38.2055
G01 X21.6262 Y38.1951
G01 X21.6109 Y38.1835
G01 X21.5943 Y38.1738
G01 X21.5803 Y38.1672
G01 X21.5399 Y38.1505
G01 X21.3231 Y38.0056
G01 X21.1388 Y37.8213
G01 X20.9939 Y37.6045
G01 X20.9384 Y37.4706
G01 X20.9299 Y37.4534
G01 X20.9229 Y37.4418
G01 X20.9148 Y37.4308
G01 X20.9022 Y37.4164
G01 X20.8895 Y37.4046
G01 X20.8742 Y37.3931
G01 X20.8609 Y37.3851
G01 X20.8436 Y37.3768
G01 X20.8273 Y37.3709
G01 X20.8105 Y37.3667
G01 X20.7953 Y37.3644
G01 X20.7761 Y37.3633
G01 X20.7588 Y37.3642
G01 X20.7417 Y37.3667
G01 X20.7249 Y37.3709
G01 X20.7086 Y37.3768
G01 X20.6929 Y37.3842
G01 X20.6780 Y37.3931
G01 X20.6641 Y37.4034
G01 X20.6513 Y37.4150
G01 X20.6397 Y37.4279
G01 X20.6293 Y37.4418
G01 X20.6204 Y37.4566
G01 X20.6130 Y37.4723
G01 X20.6072 Y37.4886
G01 X20.6030 Y37.5054
G01 X20.6003 Y37.5244
G01 X20.5996 Y37.5398
G01 X20.5996 Y39.7839
G01 X20.6003 Y39.7994
G01 X20.6026 Y39.8165
G01 X20.6062 Y39.8315
G01 X20.6084 Y39.8387
G01 X20.6146 Y39.8549
G01 X20.6204 Y39.8671
G01 X20.6293 Y39.8820
G01 X20.6397 Y39.8959
G01 X20.6500 Y39.9074
G01 X20.6641 Y39.9204
G01 X20.6765 Y39.9296
G01 X20.7734 Y39.9944
G01 X20.9229 Y40.1439
G01 X21.0404 Y40.3197
G01 X21.1213 Y40.5151
G01 X21.1626 Y40.7225
G01 X21.1626 Y40.9340
G01 X21.1213 Y41.1414
G01 X21.0404 Y41.3367
G01 X20.9229 Y41.5126
G01 X20.7734 Y41.6621
G01 X20.5976 Y41.7796
G01 X20.4022 Y41.8605
G01 X20.1948 Y41.9017
G01 X19.9833 Y41.9017
G01 X19.7760 Y41.8605
G01 X19.5806 Y41.7796
G01 X19.4048 Y41.6621
G01 X19.2552 Y41.5126
G01 X19.1378 Y41.3367
G01 X19.0568 Y41.1414
G01 X19.0156 Y40.9340
G01 X19.0156 Y40.7225
G01 X19.0568 Y40.5151
G01 X19.1378 Y40.3197
G01 X19.2552 Y40.1439
G01 X19.4048 Y39.9944
G01 X19.5677 Y39.8855
G01 X19.5829 Y39.8738
G01 X19.5929 Y39.8646
G01 X19.6033 Y39.8532
G01 X19.6127 Y39.8409
G01 X19.6169 Y39.8347
G01 X19.6246 Y39.8213
G01 X19.6319 Y39.8056
G01 X19.6370 Y39.7910
G01 X19.6412 Y39.7742
G01 X19.6437 Y39.7571
G01 X19.6445 Y39.7436
G01 X19.6446 Y28.0308
G01 X19.6439 Y28.0154
G01 X19.6423 Y27.9987
G01 X19.6515 Y27.9051
G01 X19.6788 Y27.8151
G01 X19.7232 Y27.7321
G01 X19.7828 Y27.6594
G01 X19.7958 Y27.6488
G01 X19.8072 Y27.6383
G01 X20.8473 Y26.5983
G01 X20.8577 Y26.5869
G01 X20.8612 Y26.5825
G01 X20.8692 Y26.5715
G01 X20.8781 Y26.5567
G01 X20.8855 Y26.5410
G01 X20.8902 Y26.5282
G01 X20.8919 Y26.5229
G01 X20.8956 Y26.5079
G01 X20.8979 Y26.4926
G01 X20.8984 Y26.4870
G01 X20.8990 Y26.4734
G01 X20.8983 Y26.4580
G01 X20.8956 Y26.4390
G01 X20.8908 Y26.4204
G01 X20.8855 Y26.4059
G01 X20.8688 Y26.3654
G01 X20.8179 Y26.1098
G01 X20.8179 Y25.8490
G01 X20.8688 Y25.5933
G01 X20.9685 Y25.3525
G01 X21.1134 Y25.1357
G01 X21.2977 Y24.9514
G01 X21.5145 Y24.8065
G01 X21.7553 Y24.7068
G01 X22.0110 Y24.6559
G01 X22.2718 Y24.6559
G01 X22.5274 Y24.7068
G01 X22.7683 Y24.8065
G01 X22.9851 Y24.9514
G01 X23.1694 Y25.1357
G01 X23.3143 Y25.3525
G01 X23.4140 Y25.5933
G01 X23.4649 Y25.8490
G01 X23.4649 Y26.1099
G01 X23.4627 Y26.1252
G01 X23.4618 Y26.1425
G01 X23.4627 Y26.1598
G01 X23.4656 Y26.1788
G01 X23.4706 Y26.1973
G01 X23.4753 Y26.2100
G01 X23.4810 Y26.2223
G01 X23.4836 Y26.2273
G01 X23.4916 Y26.2406
G01 X23.5019 Y26.2545
G01 X23.5122 Y26.2660
G01 X23.5163 Y26.2699
G01 X23.5264 Y26.2789
G01 X23.5372 Y26.2871
G01 X23.5419 Y26.2903
G01 X23.5551 Y26.2982
G01 X23.5725 Y26.3063
G01 X23.5907 Y26.3124
G01 X23.6039 Y26.3156
G01 X23.6173 Y26.3177
G01 X23.6229 Y26.3183
G01 X23.6383 Y26.3190
G01 X23.6556 Y26.3181
G01 X23.6728 Y26.3156
G01 X23.6878 Y26.3119
G01 X23.6931 Y26.3102
G01 X23.7059 Y26.3056
G01 X23.7182 Y26.2998
G01 X23.7232 Y26.2973
G01 X23.7364 Y26.2893
G01 X23.7503 Y26.2789
G01 X23.7604 Y26.2699
G01 X23.7657 Y26.2646
G01 X23.7771 Y26.2515
G01 X23.7851 Y26.2406
G01 X23.8864 Y26.0890
G01 X24.0290 Y25.9464
G01 X24.1966 Y25.8344
G01 X24.3829 Y25.7572
G01 X24.5806 Y25.7179
G01 X24.7822 Y25.7179
G01 X24.9799 Y25.7572
G01 X25.1662 Y25.8344
G01 X25.3338 Y25.9464
G01 X25.4764 Y26.0890
G01 X25.5884 Y26.2566
G01 X25.6656 Y26.4429
G01 X25.7049 Y26.6406
G01 X25.7049 Y26.8422
G01 X25.6656 Y27.0399
G01 X25.5936 Y27.2137
G01 X25.5889 Y27.2264
G01 X25.5844 Y27.2431
G01 X25.5829 Y27.2505
G01 X25.5808 Y27.2658
G01 X25.5802 Y27.2831
G01 X25.5810 Y27.2985
G01 X25.5829 Y27.3120
G01 X25.5839 Y27.3175
G01 X25.5878 Y27.3325
G01 X25.5936 Y27.3488
G01 X25.5993 Y27.3611
G01 X25.6019 Y27.3661
G01 X25.6099 Y27.3793
G01 X25.6202 Y27.3932
G01 X25.6293 Y27.4033
G01 X25.6332 Y27.4074
G01 X25.6447 Y27.4177
G01 X25.6571 Y27.4269
G01 X25.6618 Y27.4300
G01 X25.6735 Y27.4369
G01 X25.6874 Y27.4436
G01 X25.7072 Y27.4507
G01 X25.7222 Y27.4544
G01 X25.7356 Y27.4564
G01 X25.7412 Y27.4571
G01 X25.7567 Y27.4577
G01 X25.7721 Y27.4571
G01 X25.7777 Y27.4564
G01 X25.7911 Y27.4544
G01 X25.8043 Y27.4511
G01 X25.8097 Y27.4496
G01 X25.8242 Y27.4443
G01 X25.8399 Y27.4369
G01 X25.8515 Y27.4300
G01 X25.8563 Y27.4269
G01 X25.8686 Y27.4177
G01 X25.8815 Y27.4060
G01 X26.6033 Y26.6842
G01 X26.6161 Y26.6699
G01 X26.6253 Y26.6575
G01 X26.6342 Y26.6426
G01 X26.6416 Y26.6269
G01 X26.6462 Y26.6142
G01 X26.6484 Y26.6070
G01 X26.6522 Y26.5901
G01 X26.6541 Y26.5767
G01 X26.6550 Y26.5594
G01 X26.6550 Y18.8462
G01 X26.6541 Y18.8289
G01 X26.6522 Y18.8155
G01 X26.6512 Y18.8099
G01 X26.6474 Y18.7950
G01 X26.6416 Y18.7787
G01 X26.6358 Y18.7663
G01 X26.6273 Y18.7513
G01 X26.6231 Y18.7451
G01 X26.6149 Y18.7342
G01 X26.6033 Y18.7214
G01 X25.8688 Y17.9869
G01 X25.8574 Y17.9765
G01 X25.8530 Y17.9730
G01 X25.8421 Y17.9649
G01 X25.8288 Y17.9569
G01 X25.8115 Y17.9486
G01 X25.7934 Y17.9423
G01 X25.7747 Y17.9379
G01 X25.7613 Y17.9360
G01 X25.7478 Y17.9353
G01 X25.3302 Y17.9352
G01 X25.3148 Y17.9359
G01 X25.3092 Y17.9365
G01 X25.2958 Y17.9386
G01 X25.2790 Y17.9428
G01 X25.2644 Y17.9479
G01 X25.2592 Y17.9502
G01 X25.2470 Y17.9560
G01 X25.2353 Y17.9629
G01 X25.2212 Y17.9730
G01 X25.2154 Y17.9777
G01 X25.2041 Y17.9882
G01 X25.1915 Y18.0027
G01 X25.1824 Y18.0152
G01 X25.1737 Y18.0302
G01 X25.1672 Y18.0442
G01 X25.1608 Y18.0623
G01 X25.1571 Y18.0773
G01 X25.1546 Y18.0944
G01 X25.1537 Y18.1117
G01 X25.1546 Y18.1290
G01 X25.1571 Y18.1461
G01 X25.1613 Y18.1629
G01 X25.1672 Y18.1792
G01 X25.1737 Y18.1932
G01 X25.1824 Y18.2082
G01 X25.1915 Y18.2207
G01 X25.1962 Y18.2265
G01 X25.2081 Y18.2391
G01 X25.2182 Y18.2481
G01 X25.2306 Y18.2574
G01 X25.3338 Y18.3264
G01 X25.4764 Y18.4690
G01 X25.5884 Y18.6366
G01 X25.6656 Y18.8229
G01 X25.7049 Y19.0206
G01 X25.7049 Y19.2222
G01 X25.6656 Y19.4199
G01 X25.5884 Y19.6062
G01 X25.4764 Y19.7738
G01 X25.3338 Y19.9164
G01 X25.1662 Y20.0284
G01 X24.9799 Y20.1056
G01 X24.7822 Y20.1449
G01 X24.5806 Y20.1449
G01 X24.3829 Y20.1056
G01 X24.1966 Y20.0284
G01 X24.0290 Y19.9164
G01 X23.8864 Y19.7738
G01 X23.7744 Y19.6062
G01 X23.6972 Y19.4199
G01 X23.6579 Y19.2222
G01 X23.6579 Y19.0206
G01 X23.6972 Y18.8229
G01 X23.7744 Y18.6366
G01 X23.8864 Y18.4690
G01 X24.0290 Y18.3264
G01 X24.1306 Y18.2585
G01 X24.1431 Y18.2493
G01 X24.1587 Y18.2352
G01 X24.1690 Y18.2237
G01 X24.1772 Y18.2128
G01 X24.1804 Y18.2082
G01 X24.1882 Y18.1949
G01 X24.1956 Y18.1792
G01 X24.2015 Y18.1629
G01 X24.2053 Y18.1480
G01 X24.2063 Y18.1424
G01 X24.2082 Y18.1290
G01 X24.2090 Y18.1154
G01 X24.2084 Y18.0963
G01 X24.2057 Y18.0773
G01 X24.2009 Y18.0587
G01 X24.1956 Y18.0442
G01 X24.1899 Y18.0318
G01 X24.1873 Y18.0269
G01 X24.1793 Y18.0136
G01 X24.1702 Y18.0012
G01 X24.1666 Y17.9969
G01 X24.1574 Y17.9869
G01 X24.1474 Y17.9777
G01 X24.1431 Y17.9741
G01 X24.1306 Y17.9649
G01 X24.1174 Y17.9569
G01 X24.1124 Y17.9544
G01 X24.1001 Y17.9486
G01 X24.0856 Y17.9434
G01 X24.0652 Y17.9382
G01 X24.0499 Y17.9360
G01 X24.0326 Y17.9352
G01 X23.7712 Y17.9352
G01 X23.7558 Y17.9359
G01 X23.7349 Y17.9390
G01 X23.7200 Y17.9428
G01 X23.7072 Y17.9473
G01 X23.7019 Y17.9494
G01 X23.6880 Y17.9560
G01 X23.6716 Y17.9660
G01 X23.6592 Y17.9753
G01 X23.6464 Y17.9869
G01 X18.4225 Y23.2108
G01 X18.4121 Y23.2222
G01 X18.4014 Y23.2351
G01 X18.3287 Y23.2948
G01 X18.2948 Y23.3130
G01 X18.2816 Y23.3210
G01 X18.2676 Y23.3313
G01 X18.2548 Y23.3429
G01 X16.2462 Y25.3517
G01 X16.2371 Y25.3618
G01 X16.2268 Y25.3757
G01 X16.2179 Y25.3906
G01 X16.2120 Y25.4028
G01 X16.2058 Y25.4190
G01 X16.2036 Y25.4262
G01 X16.2004 Y25.4394
G01 X16.1979 Y25.4565
G01 X16.1971 Y25.4719
G01 X16.1971 Y25.4775
G01 X16.1979 Y25.4911
G01 X16.1998 Y25.5045
G01 X16.2231 Y25.6221
G01 X16.2231 Y25.8237
G01 X16.1837 Y26.0214
G01 X16.1066 Y26.2077
G01 X15.9946 Y26.3753
G01 X15.8520 Y26.5179
G01 X15.6844 Y26.6299
G01 X15.4981 Y26.7070
G01 X15.3004 Y26.7464
G01 X15.0988 Y26.7464
G01 X14.9010 Y26.7070
G01 X14.7148 Y26.6299
G01 X14.5471 Y26.5179
G01 X14.4046 Y26.3753
G01 X14.3239 Y26.2546
G01 X14.3136 Y26.2407
G01 X14.3020 Y26.2279
G01 X14.2891 Y26.2162
G01 X14.2752 Y26.2059
G01 X14.2604 Y26.1970
G01 X14.2464 Y26.1903
G01 X14.2412 Y26.1883
G01 X14.2284 Y26.1838
G01 X14.2153 Y26.1804
G01 X14.2098 Y26.1792
G01 X14.1945 Y26.1770
G01 X14.1791 Y26.1762
G01 X14.1734 Y26.1763
G01 X14.1599 Y26.1770
G01 X14.1464 Y26.1789
G01 X14.1409 Y26.1800
G01 X14.1259 Y26.1838
G01 X14.1114 Y26.1889
G01 X14.1062 Y26.1911
G01 X14.0940 Y26.1970
G01 X14.0807 Y26.2049
G01 X14.0652 Y26.2162
G01 X14.0524 Y26.2279
G01 X14.0407 Y26.2407
G01 X14.0304 Y26.2546
G01 X14.0215 Y26.2695
G01 X14.0141 Y26.2851
G01 X14.0083 Y26.3014
G01 X14.0037 Y26.3201
G01 X14.0015 Y26.3354
G01 X14.0007 Y26.3527
G01 X14.0007 Y26.8693
G01 X14.0014 Y26.8847
G01 X14.0030 Y26.9014
G01 X13.9938 Y26.9950
G01 X13.9665 Y27.0850
G01 X13.9221 Y27.1680
G01 X13.8625 Y27.2407
G01 X13.8495 Y27.2514
G01 X13.8381 Y27.2618
G01 X12.5149 Y28.5850
G01 X12.5032 Y28.5979
G01 X12.4929 Y28.6118
G01 X12.4840 Y28.6266
G01 X12.4759 Y28.6440
G01 X12.4698 Y28.6622
G01 X12.4666 Y28.6754
G01 X12.4645 Y28.6888
G01 X12.4639 Y28.6944
G01 X12.4632 Y28.7098
G01 X12.4640 Y28.7271
G01 X12.4666 Y28.7443
G01 X12.4702 Y28.7593
G01 X12.4719 Y28.7646
G01 X12.4766 Y28.7774
G01 X12.4823 Y28.7897
G01 X12.4909 Y28.8047
G01 X12.4940 Y28.8094
G01 X12.5032 Y28.8218
G01 X12.5149 Y28.8346
G01 X12.5277 Y28.8463
G01 X12.5432 Y28.8576
G01 X12.5598 Y28.8672
G01 X12.5721 Y28.8729
G01 X12.5849 Y28.8775
G01 X12.6034 Y28.8825
G01 X12.6205 Y28.8853
G01 X12.6397 Y28.8863
G01 X14.6034 Y28.8863
G01 X14.6559 Y28.8915
G01 X14.6981 Y28.9043
G01 X14.7369 Y28.9250
G01 X14.7709 Y28.9530
G01 X14.7989 Y28.9870
G01 X14.8196 Y29.0258
G01 X14.8324 Y29.0679
G01 X14.8376 Y29.1204
G01 X14.8376 Y30.4907
G01 X14.8384 Y30.5061
G01 X14.8403 Y30.5195
G01 X14.8413 Y30.5251
G01 X14.8452 Y30.5400
G01 X14.8510 Y30.5563
G01 X14.8567 Y30.5686
G01 X14.8593 Y30.5736
G01 X14.8673 Y30.5869
G01 X14.8776 Y30.6008
G01 X14.8892 Y30.6136
G01 X17.8640 Y33.5884
G01 X17.8754 Y33.5988
G01 X17.8884 Y33.6094
G01 X17.9480 Y33.6822
G01 X17.9924 Y33.7651
G01 X18.0197 Y33.8551
G01 X18.0289 Y33.9487
G01 X18.0273 Y33.9654
G01 X18.0266 Y33.9808
G01 X18.0266 Y39.7619
G01 X18.0274 Y39.7792
G01 X18.0300 Y39.7963
G01 X18.0332 Y39.8095
G01 X18.0347 Y39.8149
G01 X18.0400 Y39.8294
G01 X18.0474 Y39.8451
G01 X18.0543 Y39.8568
G01 X18.0585 Y39.8630
G01 X18.0678 Y39.8753
G01 X18.0783 Y39.8867
G01 X18.0883 Y39.8959
G01 X18.1035 Y39.9076
G01 X18.2334 Y39.9944
G01 X18.3829 Y40.1439
G01 X18.5004 Y40.3197
G01 X18.5813 Y40.5151
G01 X18.6226 Y40.7225
G01 X18.6226 Y40.9340
G01 X18.5813 Y41.1414
G01 X18.5004 Y41.3367
G01 X18.3829 Y41.5126
G01 X18.2334 Y41.6621
G01 X18.0576 Y41.7796
G01 X17.8622 Y41.8605
G01 X17.6548 Y41.9017
G01 X17.4433 Y41.9017
G01 X17.2360 Y41.8605
G01 X17.0406 Y41.7796
G01 X16.8648 Y41.6621
G01 X16.7152 Y41.5126
G01 X16.5978 Y41.3367
G01 X16.5168 Y41.1414
G01 X16.4756 Y40.9340
G01 X16.4756 Y40.7225
G01 X16.5168 Y40.5151
G01 X16.5978 Y40.3197
G01 X16.7152 Y40.1439
G01 X16.8648 Y39.9944
G01 X16.9947 Y39.9076
G01 X17.0099 Y39.8959
G01 X17.0199 Y39.8867
G01 X17.0303 Y39.8753
G01 X17.0397 Y39.8630
G01 X17.0438 Y39.8568
G01 X17.0507 Y39.8451
G01 X17.0581 Y39.8294
G01 X17.0640 Y39.8131
G01 X17.0674 Y39.8000
G01 X17.0688 Y39.7926
G01 X17.0709 Y39.7773
G01 X17.0716 Y39.7619
G01 X17.0716 Y34.2196
G01 X17.0707 Y34.2023
G01 X17.0682 Y34.1852
G01 X17.0640 Y34.1684
G01 X17.0574 Y34.1503
G01 X17.0507 Y34.1364
G01 X17.0418 Y34.1216
G01 X17.0315 Y34.1076
G01 X17.0199 Y34.0948
G01 X13.9140 Y30.9889
G01 X13.9011 Y30.9773
G01 X13.8872 Y30.9669
G01 X13.8740 Y30.9589
G01 X13.8690 Y30.9563
G01 X13.8567 Y30.9506
G01 X13.8404 Y30.9448
G01 X13.8254 Y30.9410
G01 X13.8199 Y30.9399
G01 X13.8065 Y30.9380
G01 X13.7910 Y30.9372
G01 X12.4208 Y30.9372
G01 X12.3683 Y30.9320
G01 X12.3262 Y30.9192
G01 X12.2873 Y30.8985
G01 X12.2533 Y30.8706
G01 X12.2254 Y30.8365
G01 X12.2046 Y30.7977
G01 X12.1919 Y30.7556
G01 X12.1867 Y30.7031
G01 X12.1867 Y29.3689
G01 X12.1858 Y29.3516
G01 X12.1833 Y29.3345
G01 X12.1796 Y29.3195
G01 X12.1779 Y29.3141
G01 X12.1732 Y29.3014
G01 X12.1675 Y29.2891
G01 X12.1589 Y29.2741
G01 X12.1559 Y29.2693
G01 X12.1466 Y29.2570
G01 X12.1350 Y29.2441
G01 X12.1222 Y29.2325
G01 X12.1098 Y29.2233
G01 X12.1051 Y29.2202
G01 X12.0934 Y29.2133
G01 X12.0812 Y29.2074
G01 X12.0760 Y29.2052
G01 X12.0614 Y29.2000
G01 X12.0465 Y29.1962
G01 X12.0409 Y29.1952
G01 X12.0275 Y29.1933
G01 X12.0121 Y29.1925
G01 X11.9910 Y29.1935
G01 X11.9757 Y29.1958
G01 X11.9626 Y29.1990
G01 X11.9572 Y29.2006
G01 X11.9426 Y29.2059
G01 X11.9286 Y29.2124
G01 X11.9237 Y29.2151
G01 X11.9121 Y29.2222
G01 X11.9012 Y29.2302
G01 X11.8867 Y29.2428
G01 X11.7873 Y29.3422
G01 X11.7769 Y29.3536
G01 X11.7654 Y29.3690
G01 X11.7574 Y29.3822
G01 X11.7548 Y29.3872
G01 X11.7491 Y29.3995
G01 X11.7438 Y29.4140
G01 X11.7387 Y29.4344
G01 X11.7365 Y29.4497
G01 X11.7356 Y29.4670
G01 X11.7356 Y31.2451
G01 X11.7363 Y31.2605
G01 X11.7369 Y31.2661
G01 X11.7390 Y31.2795
G01 X11.7432 Y31.2963
G01 X11.7491 Y31.3126
G01 X11.7548 Y31.3249
G01 X11.7574 Y31.3299
G01 X11.7654 Y31.3431
G01 X11.7745 Y31.3556
G01 X11.7781 Y31.3599
G01 X11.7873 Y31.3699
G01 X11.8001 Y31.3815
G01 X11.8141 Y31.3918
G01 X11.8257 Y31.3989
G01 X11.8306 Y31.4016
G01 X11.8446 Y31.4081
G01 X11.8591 Y31.4134
G01 X11.8645 Y31.4150
G01 X11.8777 Y31.4182
G01 X11.8948 Y31.4207
G01 X11.9121 Y31.4216
G01 X11.9257 Y31.4210
G01 X11.9331 Y31.4202
G01 X11.9502 Y31.4173
G01 X11.9634 Y31.4140
G01 X11.9779 Y31.4088
G01 X12.0719 Y31.3699
G01 X12.2310 Y31.3383
G01 X12.3932 Y31.3383
G01 X12.5523 Y31.3699
G01 X12.7022 Y31.4320
G01 X12.8371 Y31.5221
G01 X12.9518 Y31.6368
G01 X13.0419 Y31.7717
G01 X13.1040 Y31.9216
G01 X13.1356 Y32.0807
G01 X13.1356 Y32.2429
G01 X13.1040 Y32.4020
G01 X13.0419 Y32.5518
G01 X12.9518 Y32.6867
G01 X12.8371 Y32.8014
G01 X12.7022 Y32.8915
G01 X12.5609 Y32.9501
G01 X12.5436 Y32.9584
G01 X12.5304 Y32.9664
G01 X12.5165 Y32.9767
G01 X12.5036 Y32.9883
G01 X12.4920 Y33.0011
G01 X12.4817 Y33.0151
G01 X12.4746 Y33.0267
G01 X12.4719 Y33.0316
G01 X12.4654 Y33.0456
G01 X12.4601 Y33.0601
G01 X12.4586 Y33.0655
G01 X12.4553 Y33.0787
G01 X12.4533 Y33.0921
G01 X12.4526 Y33.0977
G01 X12.4520 Y33.1131
G01 X12.4526 Y33.1286
G01 X12.4533 Y33.1341
G01 X12.4553 Y33.1476
G01 X12.4590 Y33.1626
G01 X12.4661 Y33.1824
G01 X12.4728 Y33.1963
G01 X12.4817 Y33.2112
G01 X12.4920 Y33.2251
G01 X12.5036 Y33.2379
G01 X14.5823 Y35.3166
G01 X14.5937 Y35.3270
G01 X14.6067 Y35.3377
G01 X14.6663 Y35.4104
G01 X14.7107 Y35.4933
G01 X14.7380 Y35.5834
G01 X14.7472 Y35.6770
G01 X14.7456 Y35.6936
G01 X14.7449 Y35.7091
G01 X14.7449 Y39.5782
G01 X14.7457 Y39.5955
G01 X14.7483 Y39.6127
G01 X14.7520 Y39.6277
G01 X14.7537 Y39.6330
G01 X14.7583 Y39.6458
G01 X14.7641 Y39.6581
G01 X14.7666 Y39.6631
G01 X14.7746 Y39.6763
G01 X14.7838 Y39.6887
G01 X14.7874 Y39.6930
G01 X14.7966 Y39.7030
G01 X14.8066 Y39.7122
G01 X14.8109 Y39.7158
G01 X14.8233 Y39.7250
G01 X14.8366 Y39.7330
G01 X14.8415 Y39.7356
G01 X14.8539 Y39.7413
G01 X14.8684 Y39.7466
G01 X14.8833 Y39.7505
G01 X14.8907 Y39.7520
G01 X14.9041 Y39.7539
G01 X14.9195 Y39.7547
G01 X15.1148 Y39.7547
G01 X15.3222 Y39.7960
G01 X15.5176 Y39.8769
G01 X15.6934 Y39.9944
G01 X15.8429 Y40.1439
G01 X15.9604 Y40.3197
G01 X16.0413 Y40.5151
G01 X16.0826 Y40.7225
G01 X16.0826 Y40.9340
G01 X16.0413 Y41.1414
G01 X15.9604 Y41.3367
G01 X15.8429 Y41.5126
G01 X15.6934 Y41.6621
G01 X15.5176 Y41.7796
G01 X15.3222 Y41.8605
G01 X15.1148 Y41.9017
G01 X14.9033 Y41.9017
G01 X14.6960 Y41.8605
G01 X14.5006 Y41.7796
G01 X14.3248 Y41.6621
G01 X14.1752 Y41.5126
G01 X14.0578 Y41.3367
G01 X13.9768 Y41.1414
G01 X13.9356 Y40.9340
G01 X13.9356 Y40.7225
G01 X13.9653 Y40.5729
G01 X13.9674 Y40.5595
G01 X13.9682 Y40.5520
G01 X13.9687 Y40.5366
G01 X13.9679 Y40.5212
G01 X13.9657 Y40.5059
G01 X13.9611 Y40.4872
G01 X13.9560 Y40.4727
G01 X13.9488 Y40.4569
G01 X13.9410 Y40.4436
G01 X13.9379 Y40.4389
G01 X13.9287 Y40.4265
G01 X13.8685 Y40.3531
G01 X13.8241 Y40.2702
G01 X13.7968 Y40.1802
G01 X13.7876 Y40.0866
G01 X13.7892 Y40.0699
G01 X13.7899 Y40.0544
G01 X13.7899 Y35.9479
G01 X13.7892 Y35.9324
G01 X13.7886 Y35.9268
G01 X13.7865 Y35.9134
G01 X13.7833 Y35.9002
G01 X13.7817 Y35.8948
G01 X13.7765 Y35.8803
G01 X13.7699 Y35.8663
G01 X13.7672 Y35.8614
G01 X13.7602 Y35.8498
G01 X13.7521 Y35.8388
G01 X13.7486 Y35.8344
G01 X13.7382 Y35.8231
G01 X10.9432 Y33.0280
G01 X10.9318 Y33.0176
G01 X10.9188 Y33.0070
G01 X10.8592 Y32.9342
G01 X10.8148 Y32.8513
G01 X10.7875 Y32.7613
G01 X10.7783 Y32.6677
G01 X10.7799 Y32.6510
G01 X10.7806 Y32.6356
G01 X10.7806 Y29.2282
G01 X10.7799 Y29.2128
G01 X10.7783 Y29.1961
G01 X10.7875 Y29.1025
G01 X10.8171 Y29.0052
G01 X10.8204 Y28.9920
G01 X10.8216 Y28.9865
G01 X10.8238 Y28.9712
G01 X10.8246 Y28.9521
G01 X10.8233 Y28.9329
G01 X10.8213 Y28.9195
G01 X10.8176 Y28.9045
G01 X10.8112 Y28.8864
G01 X10.8047 Y28.8724
G01 X10.8020 Y28.8675
G01 X10.7949 Y28.8559
G01 X10.7869 Y28.8449
G01 X10.7834 Y28.8405
G01 X10.7730 Y28.8291
G01 X10.7616 Y28.8187
G01 X10.7572 Y28.8152
G01 X10.7462 Y28.8072
G01 X10.7330 Y28.7992
G01 X10.7191 Y28.7924
G01 X10.7122 Y28.7895
G01 X10.6994 Y28.7850
G01 X10.6826 Y28.7808
G01 X10.6673 Y28.7785
G01 X10.6617 Y28.7780
G01 X10.6482 Y28.7774
G01 X10.6309 Y28.7783
G01 X10.6156 Y28.7805
G01 X10.6101 Y28.7817
G01 X10.5969 Y28.7850
G01 X10.5806 Y28.7909
G01 X10.5666 Y28.7974
G01 X10.5617 Y28.8001
G01 X10.5501 Y28.8072
G01 X10.5376 Y28.8163
G01 X10.5233 Y28.8291
G01 X10.2246 Y29.1279
G01 X10.2142 Y29.1393
G01 X10.2048 Y29.1516
G01 X10.2006 Y29.1578
G01 X10.1937 Y29.1695
G01 X10.1871 Y29.1834
G01 X10.1800 Y29.2033
G01 X10.1763 Y29.2183
G01 X10.1742 Y29.2317
G01 X10.1736 Y29.2373
G01 X10.1729 Y29.2527
G01 X10.1729 Y32.7749
G01 X10.1737 Y32.7922
G01 X10.1763 Y32.8094
G01 X10.1805 Y32.8262
G01 X10.1856 Y32.8407
G01 X10.1879 Y32.8459
G01 X10.1937 Y32.8581
G01 X10.2006 Y32.8698
G01 X10.2118 Y32.8854
G01 X10.2246 Y32.8997
G01 X10.3862 Y33.0614
G01 X10.3976 Y33.0718
G01 X10.4106 Y33.0825
G01 X10.4703 Y33.1552
G01 X10.5146 Y33.2381
G01 X10.5419 Y33.3282
G01 X10.5511 Y33.4218
G01 X10.5495 Y33.4384
G01 X10.5488 Y33.4539
G01 X10.5488 Y33.8873
G01 X10.5497 Y33.9046
G01 X10.5519 Y33.9199
G01 X10.5530 Y33.9254
G01 X10.5564 Y33.9385
G01 X10.5623 Y33.9548
G01 X10.5688 Y33.9688
G01 X10.5715 Y33.9738
G01 X10.5786 Y33.9854
G01 X10.5877 Y33.9978
G01 X10.6005 Y34.0121
G01 X12.7840 Y36.1956
G01 X12.7954 Y36.2060
G01 X12.8084 Y36.2167
G01 X12.8680 Y36.2894
G01 X12.9124 Y36.3723
G01 X12.9397 Y36.4624
G01 X12.9489 Y36.5560
G01 X12.9473 Y36.5727
G01 X12.9466 Y36.5881
G01 X12.9466 Y39.7619
G01 X12.9473 Y39.7773
G01 X12.9479 Y39.7829
G01 X12.9500 Y39.7963
G01 X12.9537 Y39.8113
G01 X12.9608 Y39.8311
G01 X12.9674 Y39.8451
G01 X12.9743 Y39.8568
G01 X12.9785 Y39.8630
G01 X12.9878 Y39.8753
G01 X12.9983 Y39.8867
G01 X13.0083 Y39.8959
G01 X13.0235 Y39.9076
G01 X13.1534 Y39.9944
G01 X13.3029 Y40.1439
G01 X13.4204 Y40.3197
G01 X13.5013 Y40.5151
G01 X13.5426 Y40.7225
G01 X13.5426 Y40.9340
G01 X13.5013 Y41.1414
G01 X13.4204 Y41.3367
G01 X13.3029 Y41.5126
G01 X13.1534 Y41.6621
G01 X12.9776 Y41.7796
G01 X12.7822 Y41.8605
G01 X12.5748 Y41.9017
G01 X12.3633 Y41.9017
G01 X12.1560 Y41.8605
G01 X11.9606 Y41.7796
G01 X11.7848 Y41.6621
G01 X11.6352 Y41.5126
G01 X11.5178 Y41.3367
G01 X11.4368 Y41.1414
G01 X11.3956 Y40.9340
G01 X11.3956 Y40.7225
G01 X11.4368 Y40.5151
G01 X11.5178 Y40.3197
G01 X11.6352 Y40.1439
G01 X11.7848 Y39.9944
G01 X11.9147 Y39.9076
G01 X11.9270 Y39.8983
G01 X11.9399 Y39.8867
G01 X11.9515 Y39.8738
G01 X11.9597 Y39.8630
G01 X11.9638 Y39.8568
G01 X11.9724 Y39.8417
G01 X11.9781 Y39.8294
G01 X11.9840 Y39.8131
G01 X11.9882 Y39.7963
G01 X11.9905 Y39.7810
G01 X11.9916 Y39.7619
G01 X11.9916 Y36.8250
G01 X11.9907 Y36.8096
G01 X11.9882 Y36.7924
G01 X11.9840 Y36.7756
G01 X11.9781 Y36.7593
G01 X11.9707 Y36.7437
G01 X11.9618 Y36.7288
G01 X11.9515 Y36.7149
G01 X11.9412 Y36.7034
G01 X9.9709 Y34.7330
G01 X9.9595 Y34.7226
G01 X9.9551 Y34.7191
G01 X9.9441 Y34.7111
G01 X9.9325 Y34.7040
G01 X9.9276 Y34.7013
G01 X9.9136 Y34.6948
G01 X9.8955 Y34.6884
G01 X9.8805 Y34.6847
G01 X9.8634 Y34.6822
G01 X9.8461 Y34.6813
G01 X9.8325 Y34.6819
G01 X9.8250 Y34.6826
G01 X9.8080 Y34.6855
G01 X9.7948 Y34.6889
G01 X9.7785 Y34.6948
G01 X9.7629 Y34.7022
G01 X9.7512 Y34.7091
G01 X9.7370 Y34.7191
G01 X9.7312 Y34.7238
G01 X9.7212 Y34.7330
G01 X9.7096 Y34.7459
G01 X9.6993 Y34.7598
G01 X9.6904 Y34.7746
G01 X9.6830 Y34.7903
G01 X9.6772 Y34.8066
G01 X9.6729 Y34.8234
G01 X9.6702 Y34.8424
G01 X9.6696 Y34.8578
G01 X9.6696 Y35.2031
G01 X9.6644 Y35.2556
G01 X9.6516 Y35.2977
G01 X9.6309 Y35.3365
G01 X9.6029 Y35.3706
G01 X9.5689 Y35.3985
G01 X9.5301 Y35.4192
G01 X9.4879 Y35.4320
G01 X9.4354 Y35.4372
G01 X7.2528 Y35.4372
G01 X7.2003 Y35.4320
G01 X7.1582 Y35.4192
G01 X7.1193 Y35.3985
G01 X7.0853 Y35.3706
G01 X7.0574 Y35.3365
G01 X7.0366 Y35.2977
G01 X7.0239 Y35.2556
G01 X7.0187 Y35.2031
G01 X7.0187 Y33.6204
G01 X7.0239 Y33.5679
G01 X7.0366 Y33.5258
G01 X7.0574 Y33.4870
G01 X7.0853 Y33.4530
G01 X7.1193 Y33.4250
G01 X7.1582 Y33.4043
G01 X7.2003 Y33.3915
G01 X7.2528 Y33.3863
G01 X9.0617 Y33.3863
G01 X9.0771 Y33.3856
G01 X9.0961 Y33.3829
G01 X9.1111 Y33.3792
G01 X9.1165 Y33.3775
G01 X9.1293 Y33.3729
G01 X9.1416 Y33.3672
G01 X9.1466 Y33.3646
G01 X9.1598 Y33.3566
G01 X9.1722 Y33.3474
G01 X9.1765 Y33.3438
G01 X9.1865 Y33.3346
G01 X9.1957 Y33.3246
G01 X9.1993 Y33.3203
G01 X9.2085 Y33.3079
G01 X9.2182 Y33.2914
G01 X9.2261 Y33.2739
G01 X9.2306 Y33.2611
G01 X9.2340 Y33.2479
G01 X9.2352 Y33.2424
G01 X9.2374 Y33.2271
G01 X9.2382 Y33.2098
G01 X9.2374 Y33.1925
G01 X9.2348 Y33.1754
G01 X9.2311 Y33.1604
G01 X9.2248 Y33.1394
G01 X9.2156 Y33.0458
G01 X9.2172 Y33.0291
G01 X9.2179 Y33.0137
G01 X9.2179 Y29.0139
G01 X9.2172 Y28.9985
G01 X9.2156 Y28.9818
G01 X9.2248 Y28.8882
G01 X9.2521 Y28.7982
G01 X9.2965 Y28.7152
G01 X9.3561 Y28.6425
G01 X9.3691 Y28.6319
G01 X9.3805 Y28.6214
G01 X11.4141 Y26.5878
G01 X11.4245 Y26.5764
G01 X11.4280 Y26.5720
G01 X11.4361 Y26.5611
G01 X11.4450 Y26.5462
G01 X11.4524 Y26.5305
G01 X11.4570 Y26.5178
G01 X11.4592 Y26.5106
G01 X11.4630 Y26.4937
G01 X11.4649 Y26.4803
G01 X11.4658 Y26.4630
G01 X11.4658 Y24.8660
G01 X11.4651 Y24.8506
G01 X11.4645 Y24.8450
G01 X11.4624 Y24.8316
G01 X11.4592 Y24.8184
G01 X11.4576 Y24.8130
G01 X11.4524 Y24.7985
G01 X11.4441 Y24.7811
G01 X11.4361 Y24.7679
G01 X11.4280 Y24.7570
G01 X11.4245 Y24.7526
G01 X11.4141 Y24.7412
G01 X10.8255 Y24.1526
G01 X10.8127 Y24.1410
G01 X10.7303 Y24.0734
G01 X10.7197 Y24.0604
G01 X10.7092 Y24.0490
G01 X9.2789 Y22.6187
G01 X9.2675 Y22.6082
G01 X9.2545 Y22.5976
G01 X9.1949 Y22.5249
G01 X9.1505 Y22.4419
G01 X9.1232 Y22.3519
G01 X9.1155 Y22.2732
G00 Z2.0000
G00 X8.4576 Y25.5109
G01 F50.00
G01 Z-0.1500
G01 F120.00
G01 X8.4502 Y25.5317
G01 X8.4269 Y25.5317
G01 X8.4409 Y25.5230
G01 X8.4576 Y25.5109
G00 Z2.0000
G00 X8.5160 Y25.6234
G01 F50.00
G01 Z-0.1500
G01 F120.00
G01 X8.5200 Y25.6089
G01 X8.5577 Y25.5038
G01 X8.6071 Y25.3994
G01 X8.6664 Y25.3004
G01 X8.7352 Y25.2077
G01 X8.8127 Y25.1221
G01 X8.8983 Y25.0446
G01 X8.9910 Y24.9758
G01 X9.0900 Y24.9165
G01 X9.1944 Y24.8671
G01 X9.3031 Y24.8282
G01 X9.4151 Y24.8002
G01 X9.5293 Y24.7832
G01 X9.6446 Y24.7775
G01 X9.7599 Y24.7832
G01 X9.8741 Y24.8002
G01 X9.9861 Y24.8282
G01 X10.0948 Y24.8671
G01 X10.1992 Y24.9165
G01 X10.2982 Y24.9758
G01 X10.3909 Y25.0446
G01 X10.4765 Y25.1221
G01 X10.5540 Y25.2077
G01 X10.6228 Y25.3004
G01 X10.6821 Y25.3994
G01 X10.7315 Y25.5038
G01 X10.7704 Y25.6125
G01 X10.7984 Y25.7245
G01 X10.8154 Y25.8387
G01 X10.8210 Y25.9540
G01 X10.8154 Y26.0693
G01 X10.7984 Y26.1835
G01 X10.7704 Y26.2955
G01 X10.7315 Y26.4042
G01 X10.6838 Y26.5052
G01 X10.6803 Y26.5118
G01 X10.6228 Y26.6076
G01 X10.5540 Y26.7003
G01 X10.4791 Y26.7832
G01 X10.4738 Y26.7885
G01 X10.3938 Y26.8610
G01 X10.3880 Y26.8657
G01 X10.2982 Y26.9322
G01 X10.1992 Y26.9915
G01 X10.0948 Y27.0409
G01 X9.9897 Y27.0786
G01 X9.9825 Y27.0808
G01 X9.8778 Y27.1070
G01 X9.8704 Y27.1085
G01 X9.7599 Y27.1248
G01 X9.6446 Y27.1304
G01 X9.5293 Y27.1248
G01 X9.4188 Y27.1085
G01 X9.4114 Y27.1070
G01 X9.3067 Y27.0808
G01 X9.2995 Y27.0786
G01 X9.1944 Y27.0409
G01 X9.0900 Y26.9915
G01 X8.9910 Y26.9322
G01 X8.9012 Y26.8657
G01 X8.8954 Y26.8610
G01 X8.8154 Y26.7885
G01 X8.8101 Y26.7832
G01 X8.7352 Y26.7003
G01 X8.6664 Y26.6076
G01 X8.6071 Y26.5086
G01 X8.5592 Y26.4076
G01 X8.5563 Y26.4007
G01 X8.5200 Y26.2991
G01 X8.5160 Y26.2846
G01 X7.0104 Y26.2846
G01 X5.0476 Y28.2474
G01 X5.0476 Y34.2118
G01 X7.6241 Y36.7884
G01 X7.6446 Y36.8111
G01 X7.6618 Y36.8341
G01 X7.6660 Y36.8403
G01 X7.6806 Y36.8649
G01 X7.6945 Y36.8943
G01 X7.7042 Y36.9213
G01 X7.7064 Y36.9284
G01 X7.7136 Y36.9581
G01 X7.7181 Y36.9884
G01 X7.7197 Y37.0208
G01 X7.7197 Y39.9636
G01 X7.7453 Y39.9730
G01 X7.8274 Y40.0121
G01 X7.9038 Y40.0579
G01 X7.9753 Y40.1109
G01 X8.0442 Y40.1731
G01 X8.1028 Y40.2377
G01 X8.1075 Y40.2435
G01 X8.1604 Y40.3151
G01 X8.2061 Y40.3915
G01 X8.2450 Y40.4737
G01 X8.2756 Y40.5593
G01 X8.2969 Y40.6438
G01 X8.2984 Y40.6512
G01 X8.3106 Y40.7337
G01 X8.3113 Y40.7412
G01 X8.3155 Y40.8282
G01 X8.3111 Y40.9190
G01 X8.2977 Y41.0090
G01 X8.2756 Y41.0972
G01 X8.2450 Y41.1828
G01 X8.2061 Y41.2650
G01 X8.1594 Y41.3429
G01 X8.1052 Y41.4160
G01 X8.0442 Y41.4833
G01 X7.9768 Y41.5444
G01 X7.9038 Y41.5986
G01 X7.8258 Y41.6453
G01 X7.7436 Y41.6842
G01 X7.6580 Y41.7148
G01 X7.5698 Y41.7369
G01 X7.4799 Y41.7502
G01 X7.3891 Y41.7547
G01 X7.3001 Y41.7504
G01 X7.2083 Y41.7369
G01 X7.1238 Y41.7158
G01 X7.1166 Y41.7136
G01 X7.0380 Y41.6855
G01 X7.0311 Y41.6826
G01 X6.9524 Y41.6453
G01 X6.8744 Y41.5986
G01 X6.8013 Y41.5444
G01 X6.7340 Y41.4833
G01 X6.6729 Y41.4160
G01 X6.6188 Y41.3429
G01 X6.5720 Y41.2650
G01 X6.5347 Y41.1862
G01 X6.5318 Y41.1793
G01 X6.5037 Y41.1007
G01 X6.5015 Y41.0936
G01 X6.4804 Y41.0090
G01 X6.4675 Y40.9228
G01 X6.4668 Y40.9153
G01 X6.4626 Y40.8282
G01 X6.4671 Y40.7374
G01 X6.4804 Y40.6475
G01 X6.5015 Y40.5629
G01 X6.5037 Y40.5557
G01 X6.5318 Y40.4772
G01 X6.5347 Y40.4703
G01 X6.5720 Y40.3915
G01 X6.6177 Y40.3151
G01 X6.6729 Y40.2405
G01 X6.7314 Y40.1759
G01 X6.7367 Y40.1706
G01 X6.8028 Y40.1109
G01 X6.8744 Y40.0579
G01 X6.9507 Y40.0121
G01 X7.0328 Y39.9730
G01 X7.0585 Y39.9636
G01 X7.0585 Y37.1577
G01 X4.4819 Y34.5811
G01 X4.4615 Y34.5584
G01 X4.4443 Y34.5354
G01 X4.4401 Y34.5292
G01 X4.4255 Y34.5045
G01 X4.4131 Y34.4786
G01 X4.4102 Y34.4717
G01 X4.4007 Y34.4447
G01 X4.3932 Y34.4150
G01 X4.3880 Y34.3811
G01 X4.3864 Y34.3487
G01 X4.3864 Y28.1105
G01 X4.3879 Y28.0799
G01 X4.3928 Y28.0460
G01 X4.3997 Y28.0181
G01 X4.4018 Y28.0109
G01 X4.4102 Y27.9875
G01 X4.4131 Y27.9805
G01 X4.4255 Y27.9546
G01 X4.4421 Y27.9268
G01 X4.4615 Y27.9007
G01 X4.4819 Y27.8780
G01 X6.6397 Y25.7202
G01 X6.6609 Y25.7009
G01 X6.6667 Y25.6961
G01 X6.6898 Y25.6791
G01 X6.7144 Y25.6643
G01 X6.7210 Y25.6608
G01 X6.7470 Y25.6486
G01 X6.7739 Y25.6388
G01 X6.7811 Y25.6367
G01 X6.8090 Y25.6298
G01 X6.8373 Y25.6255
G01 X6.8448 Y25.6247
G01 X6.8716 Y25.6234
G01 X8.5160 Y25.6234
G00 Z2.0000
G00 X8.4269 Y26.3763
G01 F50.00
G01 Z-0.1500
G01 F120.00
G01 X8.4502 Y26.3763
G01 X8.4576 Y26.3971
G01 X8.4409 Y26.3850
G01 X8.4269 Y26.3763
G00 Z2.0000
G00 X7.6156 Y29.1118
G01 F50.00
G01 Z-0.1500
G01 F120.00
G01 X7.6155 Y30.7136
G01 X7.6147 Y30.7230
G01 X7.6133 Y30.7303
G01 X7.6104 Y30.7393
G01 X7.6065 Y30.7478
G01 X7.6016 Y30.7558
G01 X7.5958 Y30.7631
G01 X7.5891 Y30.7696
G01 X7.5831 Y30.7743
G01 X7.5735 Y30.7800
G01 X7.5684 Y30.7824
G01 X7.5613 Y30.7849
G01 X7.5503 Y30.7874
G01 X7.5391 Y30.7882
G01 X5.3391 Y30.7882
G01 X5.3298 Y30.7876
G01 X5.3224 Y30.7864
G01 X5.3134 Y30.7837
G01 X5.3047 Y30.7800
G01 X5.2966 Y30.7753
G01 X5.2892 Y30.7696
G01 X5.2825 Y30.7631
G01 X5.2766 Y30.7558
G01 X5.2708 Y30.7461
G01 X5.2665 Y30.7357
G01 X5.2645 Y30.7285
G01 X5.2635 Y30.7230
G01 X5.2627 Y30.7118
G01 X5.2627 Y29.1118
G01 X5.2632 Y29.1024
G01 X5.2645 Y29.0950
G01 X5.2671 Y29.0860
G01 X5.2708 Y29.0774
G01 X5.2756 Y29.0693
G01 X5.2812 Y29.0618
G01 X5.2878 Y29.0551
G01 X5.2951 Y29.0493
G01 X5.2998 Y29.0462
G01 X5.3064 Y29.0426
G01 X5.3169 Y29.0386
G01 X5.3279 Y29.0361
G01 X5.3391 Y29.0353
G01 X7.5410 Y29.0353
G01 X7.5485 Y29.0359
G01 X7.5559 Y29.0372
G01 X7.5631 Y29.0392
G01 X7.5701 Y29.0419
G01 X7.5752 Y29.0443
G01 X7.5816 Y29.0482
G01 X7.5876 Y29.0527
G01 X7.5932 Y29.0577
G01 X7.5982 Y29.0633
G01 X7.6027 Y29.0693
G01 X7.6065 Y29.0757
G01 X7.6097 Y29.0825
G01 X7.6123 Y29.0896
G01 X7.6141 Y29.0968
G01 X7.6152 Y29.1043
G01 X7.6156 Y29.1118
G00 Z2.0000
G00 X5.2702 Y28.9584
G01 F50.00
G01 Z-0.1500
G01 F120.00
G01 X5.2598 Y28.9634
G01 X5.2491 Y28.9697
G01 X5.2389 Y28.9767
G01 X5.2293 Y28.9844
G01 X5.2202 Y28.9928
G01 X5.2118 Y29.0019
G01 X5.2065 Y29.0083
G01 X5.1993 Y29.0183
G01 X5.1949 Y29.0253
G01 X5.1889 Y29.0361
G01 X5.1837 Y29.0474
G01 X5.1794 Y29.0590
G01 X5.1760 Y29.0709
G01 X5.1742 Y29.0789
G01 X5.1722 Y29.0912
G01 X5.1711 Y29.1035
G01 X5.1709 Y30.7118
G01 X5.1714 Y30.7241
G01 X5.1722 Y30.7323
G01 X5.1742 Y30.7446
G01 X5.1770 Y30.7566
G01 X5.1808 Y30.7684
G01 X5.1854 Y30.7799
G01 X5.1908 Y30.7910
G01 X5.1970 Y30.8017
G01 X5.2040 Y30.8119
G01 X5.2118 Y30.8216
G01 X5.2202 Y30.8307
G01 X5.2293 Y30.8391
G01 X5.2389 Y30.8468
G01 X5.2491 Y30.8539
G01 X5.2598 Y30.8601
G01 X5.2702 Y30.8651
G01 X5.2482 Y30.8752
G01 X5.2289 Y30.8862
G01 X5.2152 Y30.8954
G01 X5.1977 Y30.9090
G01 X5.1813 Y30.9240
G01 X5.1636 Y30.9435
G01 X5.1503 Y30.9613
G01 X5.1393 Y30.9787
G01 X5.1393 Y28.8448
G01 X5.1503 Y28.8623
G01 X5.1636 Y28.8800
G01 X5.1813 Y28.8995
G01 X5.1977 Y28.9145
G01 X5.2152 Y28.9281
G01 X5.2289 Y28.9373
G01 X5.2482 Y28.9483
G01 X5.2702 Y28.9584
G00 Z2.0000
G00 X4.4448 Y27.7854
G01 F50.00
G01 Z-0.1500
G01 F120.00
G01 X4.4288 Y27.7892
G01 X4.4109 Y27.7920
G01 X4.3986 Y27.7934
G01 X4.3806 Y27.7943
G01 X4.3682 Y27.7941
G01 X4.3502 Y27.7930
G01 X4.3241 Y27.7892
G01 X4.2986 Y27.7828
G01 X4.2815 Y27.7769
G01 X4.2700 Y27.7723
G01 X4.2537 Y27.7646
G01 X4.2428 Y27.7586
G01 X4.2274 Y27.7491
G01 X4.2128 Y27.7385
G01 X4.2031 Y27.7308
G01 X4.1897 Y27.7186
G01 X4.1811 Y27.7098
G01 X4.1691 Y27.6962
G01 X4.1534 Y27.6751
G01 X4.1440 Y27.6597
G01 X4.1380 Y27.6489
G01 X4.1303 Y27.6325
G01 X4.1271 Y27.6249
G01 X4.1210 Y27.6079
G01 X4.1176 Y27.5960
G01 X4.1134 Y27.5784
G01 X4.1105 Y27.5606
G01 X4.1092 Y27.5482
G01 X4.1083 Y27.5302
G01 X4.1106 Y5.2064
G01 X4.1111 Y5.1887
G01 X4.1135 Y5.1669
G01 X4.1581 Y4.8681
G01 X4.1632 Y4.8424
G01 X4.1708 Y4.8173
G01 X4.2674 Y4.5475
G01 X4.2774 Y4.5232
G01 X4.2897 Y4.5001
G01 X4.4390 Y4.2506
G01 X4.4514 Y4.2323
G01 X4.4680 Y4.2121
G01 X4.6601 Y3.9993
G01 X4.6786 Y3.9808
G01 X4.6988 Y3.9641
G01 X4.9527 Y3.7748
G01 X4.9698 Y3.7634
G01 X5.8376 Y3.2312
G01 X5.8622 Y3.2179
G01 X5.8881 Y3.2071
G01 X5.9149 Y3.1992
G01 X6.5169 Y3.0538
G01 X6.5267 Y3.0518
G01 X6.5462 Y3.0485
G01 X6.5581 Y3.0474
G01 X6.5799 Y3.0464
G01 X56.9733 Y3.0464
G01 X56.9954 Y3.0473
G01 X57.0174 Y3.0501
G01 X57.0296 Y3.0524
G01 X57.0511 Y3.0579
G01 X57.0720 Y3.0652
G01 X57.0834 Y3.0701
G01 X57.0996 Y3.0780
G01 X57.1188 Y3.0893
G01 X57.1290 Y3.0963
G01 X57.1434 Y3.1072
G01 X57.1599 Y3.1220
G01 X57.1685 Y3.1308
G01 X57.1805 Y3.1443
G01 X57.1939 Y3.1620
G01 X57.2006 Y3.1724
G01 X57.2098 Y3.1880
G01 X57.2177 Y3.2042
G01 X57.2226 Y3.2156
G01 X57.2299 Y3.2365
G01 X57.2345 Y3.2540
G01 X57.2371 Y3.2661
G01 X57.2397 Y3.2840
G01 X57.2408 Y3.2963
G01 X57.2415 Y3.3143
G01 X57.2664 Y29.6886
G01 X57.2653 Y29.7131
G01 X57.2698 Y29.7587
G01 X57.2831 Y29.8023
G01 X57.3046 Y29.8426
G01 X57.3336 Y29.8779
G01 X57.3688 Y29.9068
G01 X57.4091 Y29.9284
G01 X57.4528 Y29.9416
G01 X57.4869 Y29.9450
G01 X57.4986 Y29.9452
G01 X68.1393 Y29.9435
G01 X68.1615 Y29.9447
G01 X68.1875 Y29.9486
G01 X68.2130 Y29.9550
G01 X68.2378 Y29.9638
G01 X68.2616 Y29.9751
G01 X68.2807 Y29.9864
G01 X68.2876 Y29.9910
G01 X68.3021 Y30.0017
G01 X68.3189 Y30.0163
G01 X68.3306 Y30.0280
G01 X68.3399 Y30.0383
G01 X68.3476 Y30.0480
G01 X68.3605 Y30.0661
G01 X68.3698 Y30.0816
G01 X68.3737 Y30.0889
G01 X68.3830 Y30.1090
G01 X68.3919 Y30.1338
G01 X68.3983 Y30.1593
G01 X68.4022 Y30.1854
G01 X68.4034 Y30.2117
G01 X68.4034 Y45.1927
G01 X68.4025 Y45.2107
G01 X68.4011 Y45.2231
G01 X68.3983 Y45.2409
G01 X68.3941 Y45.2585
G01 X68.3906 Y45.2704
G01 X68.3846 Y45.2874
G01 X68.3797 Y45.2988
G01 X68.3718 Y45.3150
G01 X68.3627 Y45.3306
G01 X68.3559 Y45.3410
G01 X68.3451 Y45.3555
G01 X68.3372 Y45.3650
G01 X68.3249 Y45.3782
G01 X68.3116 Y45.3905
G01 X68.3021 Y45.3985
G01 X68.2876 Y45.4093
G01 X68.2773 Y45.4160
G01 X68.2616 Y45.4251
G01 X68.2454 Y45.4330
G01 X68.2340 Y45.4379
G01 X68.2170 Y45.4440
G01 X68.2051 Y45.4475
G01 X68.1875 Y45.4517
G01 X68.1697 Y45.4545
G01 X68.1574 Y45.4559
G01 X68.1393 Y45.4568
G01 X68.1269 Y45.4566
G01 X68.1089 Y45.4555
G01 X68.0910 Y45.4531
G01 X68.0788 Y45.4508
G01 X68.0613 Y45.4464
G01 X68.0491 Y45.4425
G01 X68.0687 Y45.4755
G01 X68.0831 Y45.5054
G01 X68.0894 Y45.5206
G01 X68.1004 Y45.5520
G01 X68.1105 Y45.5922
G01 X68.1156 Y45.6250
G01 X68.1172 Y45.6414
G01 X68.1186 Y45.6746
G01 X68.1186 Y48.2248
G01 X68.1240 Y48.2480
G01 X68.1288 Y48.2808
G01 X68.1299 Y48.2932
G01 X68.1313 Y48.3263
G01 X68.1313 Y58.0647
G01 X68.1299 Y58.0978
G01 X68.1288 Y58.1102
G01 X68.1232 Y58.1471
G01 X68.1131 Y58.1873
G01 X68.0992 Y58.2263
G01 X68.0852 Y58.2564
G01 X68.0774 Y58.2709
G01 X68.0646 Y58.2923
G01 X68.0578 Y58.3027
G01 X68.0355 Y58.3326
G01 X68.0105 Y58.3603
G01 X63.9589 Y62.4121
G01 X63.9344 Y62.4345
G01 X63.9249 Y62.4425
G01 X63.8949 Y62.4646
G01 X63.8665 Y62.4818
G01 X63.8519 Y62.4896
G01 X63.8294 Y62.5003
G01 X63.8180 Y62.5051
G01 X63.7828 Y62.5176
G01 X63.7467 Y62.5268
G01 X63.7345 Y62.5291
G01 X63.7098 Y62.5327
G01 X63.6934 Y62.5343
G01 X63.6602 Y62.5358
G01 X62.3929 Y62.5358
G01 X62.4069 Y62.5444
G01 X62.4249 Y62.5575
G01 X62.4343 Y62.5655
G01 X62.4476 Y62.5778
G01 X62.4626 Y62.5941
G01 X62.4703 Y62.6038
G01 X62.4809 Y62.6184
G01 X62.4925 Y62.6374
G01 X62.4982 Y62.6484
G01 X62.5057 Y62.6648
G01 X62.5134 Y62.6856
G01 X62.5168 Y62.6975
G01 X62.5210 Y62.7151
G01 X62.5244 Y62.7370
G01 X62.5255 Y62.7494
G01 X62.5261 Y62.7674
G01 X62.5252 Y62.7896
G01 X62.5238 Y62.8019
G01 X62.5210 Y62.8198
G01 X62.5157 Y62.8413
G01 X62.5120 Y62.8531
G01 X62.5057 Y62.8701
G01 X62.4964 Y62.8902
G01 X62.4904 Y62.9011
G01 X62.4809 Y62.9165
G01 X62.4678 Y62.9344
G01 X62.4599 Y62.9439
G01 X62.4476 Y62.9571
G01 X62.4312 Y62.9721
G01 X62.4216 Y62.9799
G01 X62.4069 Y62.9905
G01 X62.3897 Y63.0010
G01 X62.4624 Y62.9975
G01 X62.4748 Y62.9973
G01 X62.6455 Y63.0057
G01 X62.6578 Y63.0071
G01 X62.8188 Y63.0309
G01 X62.8310 Y63.0332
G01 X63.0008 Y63.0759
G01 X63.1618 Y63.1333
G01 X63.1771 Y63.1396
G01 X63.3241 Y63.2092
G01 X63.3351 Y63.2149
G01 X63.4852 Y63.3050
G01 X63.6227 Y63.4067
G01 X63.6354 Y63.4172
G01 X63.7620 Y63.5321
G01 X63.8823 Y63.6649
G01 X63.9843 Y63.8021
G01 X63.9935 Y63.8158
G01 X64.0771 Y63.9554
G01 X64.0849 Y63.9700
G01 X64.1578 Y64.1246
G01 X64.2156 Y64.2855
G01 X64.2204 Y64.3013
G01 X64.2618 Y64.4672
G01 X64.2870 Y64.6362
G01 X64.2887 Y64.6527
G01 X64.2968 Y64.8234
G01 X64.2887 Y64.9942
G01 X64.2870 Y65.0106
G01 X64.2618 Y65.1797
G01 X64.2204 Y65.3456
G01 X64.2156 Y65.3614
G01 X64.1578 Y65.5223
G01 X64.0849 Y65.6769
G01 X64.0771 Y65.6915
G01 X63.9913 Y65.8346
G01 X63.9843 Y65.8448
G01 X63.8823 Y65.9820
G01 X63.7677 Y66.1088
G01 X63.7560 Y66.1204
G01 X63.6354 Y66.2297
G01 X63.6227 Y66.2402
G01 X63.4852 Y66.3419
G01 X63.3387 Y66.4299
G01 X63.3241 Y66.4377
G01 X63.1695 Y66.5106
G01 X63.0008 Y66.5710
G01 X62.8269 Y66.6145
G01 X62.6578 Y66.6398
G01 X62.6414 Y66.6414
G01 X62.4707 Y66.6496
G01 X62.2917 Y66.6408
G01 X62.1144 Y66.6145
G01 X61.9445 Y66.5721
G01 X61.9327 Y66.5684
G01 X61.7718 Y66.5106
G01 X61.6135 Y66.4359
G01 X61.6026 Y66.4299
G01 X61.4595 Y66.3441
G01 X61.4493 Y66.3371
G01 X61.3965 Y66.2979
G01 X61.4048 Y66.3154
G01 X61.4094 Y66.3269
G01 X61.4153 Y66.3440
G01 X61.4209 Y66.3655
G01 X61.4231 Y66.3777
G01 X61.4256 Y66.3956
G01 X61.4267 Y66.4137
G01 X61.4268 Y66.4260
G01 X61.4256 Y66.4482
G01 X61.4231 Y66.4661
G01 X61.4208 Y66.4783
G01 X61.4164 Y66.4958
G01 X61.4127 Y66.5076
G01 X61.4064 Y66.5246
G01 X61.3970 Y66.5447
G01 X61.3911 Y66.5556
G01 X61.3816 Y66.5710
G01 X61.3685 Y66.5889
G01 X61.3605 Y66.5984
G01 X61.3482 Y66.6116
G01 X61.3349 Y66.6239
G01 X61.3255 Y66.6319
G01 X61.3075 Y66.6450
G01 X61.2921 Y66.6544
G01 X61.2813 Y66.6604
G01 X61.2611 Y66.6697
G01 X61.2442 Y66.6760
G01 X61.2324 Y66.6797
G01 X61.2108 Y66.6850
G01 X61.1929 Y66.6878
G01 X61.1806 Y66.6892
G01 X61.1626 Y66.6900
G01 X50.6458 Y66.6827
G01 X50.6277 Y66.6818
G01 X50.6154 Y66.6804
G01 X50.5976 Y66.6775
G01 X50.5760 Y66.6723
G01 X50.5642 Y66.6685
G01 X50.5473 Y66.6622
G01 X50.5309 Y66.6547
G01 X50.5199 Y66.6490
G01 X50.5044 Y66.6397
G01 X50.4942 Y66.6327
G01 X50.4798 Y66.6217
G01 X50.4633 Y66.6069
G01 X50.4546 Y66.5981
G01 X50.4426 Y66.5846
G01 X50.4293 Y66.5668
G01 X50.4226 Y66.5564
G01 X50.4135 Y66.5408
G01 X50.4038 Y66.5208
G01 X50.3992 Y66.5093
G01 X50.3934 Y66.4923
G01 X50.3888 Y66.4748
G01 X50.3862 Y66.4627
G01 X50.3831 Y66.4407
G01 X50.3820 Y66.4227
G01 X50.3819 Y66.4103
G01 X50.3831 Y66.3881
G01 X50.3856 Y66.3702
G01 X50.3879 Y66.3581
G01 X50.3922 Y66.3405
G01 X50.3960 Y66.3287
G01 X50.4023 Y66.3118
G01 X50.4107 Y66.2936
G01 X50.3520 Y66.3371
G01 X50.3418 Y66.3441
G01 X50.1987 Y66.4299
G01 X50.1879 Y66.4359
G01 X50.0295 Y66.5106
G01 X49.8647 Y66.5697
G01 X49.8528 Y66.5732
G01 X49.6950 Y66.6127
G01 X49.6788 Y66.6159
G01 X49.5097 Y66.6408
G01 X49.3307 Y66.6496
G01 X49.1517 Y66.6408
G01 X48.9825 Y66.6159
G01 X48.9663 Y66.6127
G01 X48.8085 Y66.5732
G01 X48.7966 Y66.5697
G01 X48.6318 Y66.5106
G01 X48.4735 Y66.4359
G01 X48.4626 Y66.4299
G01 X48.3195 Y66.3441
G01 X48.3093 Y66.3371
G01 X48.2491 Y66.2925
G01 X48.2556 Y66.3062
G01 X48.2602 Y66.3177
G01 X48.2661 Y66.3348
G01 X48.2707 Y66.3523
G01 X48.2732 Y66.3644
G01 X48.2759 Y66.3823
G01 X48.2767 Y66.3905
G01 X48.2776 Y66.4086
G01 X48.2774 Y66.4209
G01 X48.2763 Y66.4390
G01 X48.2725 Y66.4650
G01 X48.2661 Y66.4906
G01 X48.2601 Y66.5077
G01 X48.2555 Y66.5192
G01 X48.2478 Y66.5355
G01 X48.2418 Y66.5463
G01 X48.2324 Y66.5617
G01 X48.2217 Y66.5764
G01 X48.2140 Y66.5860
G01 X48.2019 Y66.5994
G01 X48.1960 Y66.6053
G01 X48.1826 Y66.6174
G01 X48.1729 Y66.6251
G01 X48.1583 Y66.6357
G01 X48.1357 Y66.6493
G01 X48.1119 Y66.6605
G01 X48.0949 Y66.6668
G01 X48.0831 Y66.6705
G01 X48.0615 Y66.6757
G01 X48.0437 Y66.6786
G01 X48.0314 Y66.6799
G01 X48.0092 Y66.6809
G01 X46.9068 Y66.6800
G01 X46.8846 Y66.6788
G01 X46.8586 Y66.6749
G01 X46.8370 Y66.6696
G01 X46.8160 Y66.6626
G01 X46.8008 Y66.6563
G01 X46.7809 Y66.6464
G01 X46.7620 Y66.6348
G01 X46.7408 Y66.6191
G01 X46.7214 Y66.6015
G01 X46.7063 Y66.5851
G01 X46.6928 Y66.5676
G01 X46.6836 Y66.5538
G01 X46.6726 Y66.5346
G01 X46.6633 Y66.5145
G01 X46.6544 Y66.4897
G01 X46.6489 Y66.4682
G01 X46.6466 Y66.4560
G01 X46.6441 Y66.4381
G01 X46.6429 Y66.4118
G01 X46.6429 Y64.6751
G01 X46.6440 Y64.6506
G01 X46.6394 Y64.6051
G01 X46.6261 Y64.5614
G01 X46.6156 Y64.5419
G01 X46.6045 Y64.5212
G01 X46.5755 Y64.4860
G01 X46.5402 Y64.4571
G01 X46.4999 Y64.4356
G01 X46.4562 Y64.4224
G01 X46.4110 Y64.4180
G01 X46.3866 Y64.4192
G01 X5.8924 Y64.4826
G01 X5.8709 Y64.4818
G01 X5.6217 Y64.4622
G01 X5.5983 Y64.4593
G01 X5.5752 Y64.4543
G01 X5.2831 Y64.3782
G01 X5.2621 Y64.3715
G01 X5.2380 Y64.3612
G01 X4.9743 Y64.2338
G01 X4.9584 Y64.2253
G01 X4.9478 Y64.2190
G01 X4.9296 Y64.2065
G01 X4.6958 Y64.0303
G01 X4.6756 Y64.0135
G01 X4.6572 Y63.9948
G01 X4.4621 Y63.7765
G01 X4.4456 Y63.7562
G01 X4.4311 Y63.7343
G01 X4.2973 Y63.5077
G01 X4.2887 Y63.4906
G01 X4.2807 Y63.4709
G01 X4.2767 Y63.4593
G01 X4.2712 Y63.4387
G01 X4.1109 Y62.7149
G01 X4.1062 Y62.6861
G01 X4.1046 Y62.6615
G01 X4.1075 Y34.9323
G01 X4.1087 Y34.9060
G01 X4.1112 Y34.8881
G01 X4.1135 Y34.8759
G01 X4.1179 Y34.8584
G01 X4.1216 Y34.8466
G01 X4.1279 Y34.8296
G01 X4.1354 Y34.8132
G01 X4.1411 Y34.8022
G01 X4.1504 Y34.7867
G01 X4.1574 Y34.7765
G01 X4.1684 Y34.7621
G01 X4.1860 Y34.7426
G01 X4.1993 Y34.7303
G01 X4.2088 Y34.7223
G01 X4.2233 Y34.7116
G01 X4.2337 Y34.7048
G01 X4.2493 Y34.6957
G01 X4.2655 Y34.6878
G01 X4.2769 Y34.6829
G01 X4.2939 Y34.6768
G01 X4.3058 Y34.6734
G01 X4.3234 Y34.6692
G01 X4.3494 Y34.6653
G01 X4.3675 Y34.6643
G01 X4.3798 Y34.6641
G01 X4.3979 Y34.6650
G01 X4.4102 Y34.6664
G01 X4.4280 Y34.6692
G01 X4.4441 Y34.6730
G01 X4.4155 Y34.6444
G01 X4.3959 Y34.6229
G01 X4.3880 Y34.6134
G01 X4.3706 Y34.5901
G01 X4.3636 Y34.5799
G01 X4.3465 Y34.5514
G01 X4.3408 Y34.5404
G01 X4.3302 Y34.5179
G01 X4.3253 Y34.5065
G01 X4.3141 Y34.4752
G01 X4.3107 Y34.4633
G01 X4.3037 Y34.4351
G01 X4.3014 Y34.4230
G01 X4.2967 Y34.3901
G01 X4.2947 Y34.3528
G01 X4.2947 Y28.1105
G01 X4.2967 Y28.0691
G01 X4.3028 Y28.0281
G01 X4.3129 Y27.9879
G01 X4.3239 Y27.9565
G01 X4.3302 Y27.9413
G01 X4.3408 Y27.9188
G01 X4.3465 Y27.9078
G01 X4.3636 Y27.8793
G01 X4.3706 Y27.8691
G01 X4.3880 Y27.8458
G01 X4.3959 Y27.8363
G01 X4.4155 Y27.8148
G01 X4.4448 Y27.7854
G00 Z2.0000
G00 X4.2638 Y27.8679
G01 F50.00
G01 Z-0.1500
G01 F120.00
G01 X4.2387 Y27.8587
G01 X4.2124 Y27.8465
G01 X4.2012 Y27.8405
G01 X4.1872 Y27.8322
G01 X4.1765 Y27.8254
G01 X4.1660 Y27.8180
G01 X4.1531 Y27.8083
G01 X4.1432 Y27.8002
G01 X4.1219 Y27.7806
G01 X4.1023 Y27.7593
G01 X4.0942 Y27.7495
G01 X4.0845 Y27.7365
G01 X4.0771 Y27.7261
G01 X4.0703 Y27.7153
G01 X4.0621 Y27.7013
G01 X4.0560 Y27.6901
G01 X4.0439 Y27.6638
G01 X4.0339 Y27.6366
G01 X4.0302 Y27.6244
G01 X4.0262 Y27.6087
G01 X4.0234 Y27.5963
G01 X4.0212 Y27.5837
G01 X4.0189 Y27.5677
G01 X4.0177 Y27.5550
G01 X4.0165 Y27.5261
G01 X4.0188 Y5.2064
G01 X4.0196 Y5.1830
G01 X4.0207 Y5.1702
G01 X4.0228 Y5.1534
G01 X4.0673 Y4.8546
G01 X4.0695 Y4.8420
G01 X4.0742 Y4.8201
G01 X4.0805 Y4.7985
G01 X4.0844 Y4.7864
G01 X4.1810 Y4.5165
G01 X4.1856 Y4.5047
G01 X4.1944 Y4.4841
G01 X4.2047 Y4.4641
G01 X4.2110 Y4.4530
G01 X4.3615 Y4.2016
G01 X4.3776 Y4.1778
G01 X4.3957 Y4.1553
G01 X4.5920 Y3.9379
G01 X4.6007 Y3.9286
G01 X4.6168 Y3.9129
G01 X4.6340 Y3.8984
G01 X4.6440 Y3.8906
G01 X4.8996 Y3.7000
G01 X4.9218 Y3.6852
G01 X5.7897 Y3.1530
G01 X5.8014 Y3.1462
G01 X5.8227 Y3.1351
G01 X5.8351 Y3.1296
G01 X5.8574 Y3.1207
G01 X5.8803 Y3.1135
G01 X5.8934 Y3.1100
G01 X6.4954 Y2.9647
G01 X6.5105 Y2.9615
G01 X6.5343 Y2.9575
G01 X6.5527 Y2.9558
G01 X6.5799 Y2.9546
G01 X56.9733 Y2.9546
G01 X56.9958 Y2.9554
G01 X57.0149 Y2.9571
G01 X57.0435 Y2.9615
G01 X57.0654 Y2.9667
G01 X57.0838 Y2.9720
G01 X57.1110 Y2.9820
G01 X57.1315 Y2.9913
G01 X57.1485 Y3.0001
G01 X57.1732 Y3.0152
G01 X57.1915 Y3.0284
G01 X57.2064 Y3.0403
G01 X57.2277 Y3.0599
G01 X57.2431 Y3.0764
G01 X57.2554 Y3.0911
G01 X57.2725 Y3.1144
G01 X57.2843 Y3.1336
G01 X57.2936 Y3.1504
G01 X57.3058 Y3.1766
G01 X57.3137 Y3.1977
G01 X57.3195 Y3.2160
G01 X57.3263 Y3.2441
G01 X57.3299 Y3.2663
G01 X57.3320 Y3.2853
G01 X57.3333 Y3.3143
G01 X57.3582 Y29.6886
G01 X57.3573 Y29.7117
G01 X57.3602 Y29.7407
G01 X57.3682 Y29.7671
G01 X57.3812 Y29.7914
G01 X57.3987 Y29.8127
G01 X57.4200 Y29.8302
G01 X57.4444 Y29.8432
G01 X57.4708 Y29.8512
G01 X57.4915 Y29.8532
G01 X57.4985 Y29.8534
G01 X68.1415 Y29.8518
G01 X68.1704 Y29.8534
G01 X68.1928 Y29.8564
G01 X68.2054 Y29.8586
G01 X68.2274 Y29.8638
G01 X68.2397 Y29.8672
G01 X68.2670 Y29.8767
G01 X68.2788 Y29.8816
G01 X68.2992 Y29.8912
G01 X68.3105 Y29.8973
G01 X68.3244 Y29.9055
G01 X68.3352 Y29.9123
G01 X68.3456 Y29.9197
G01 X68.3586 Y29.9294
G01 X68.3684 Y29.9375
G01 X68.3897 Y29.9571
G01 X68.3985 Y29.9663
G01 X68.4135 Y29.9833
G01 X68.4272 Y30.0012
G01 X68.4345 Y30.0117
G01 X68.4496 Y30.0364
G01 X68.4556 Y30.0476
G01 X68.4653 Y30.0680
G01 X68.4701 Y30.0798
G01 X68.4757 Y30.0950
G01 X68.4797 Y30.1072
G01 X68.4831 Y30.1195
G01 X68.4869 Y30.1352
G01 X68.4894 Y30.1477
G01 X68.4934 Y30.1764
G01 X68.4949 Y30.1989
G01 X68.4952 Y30.2117
G01 X68.4951 Y45.1949
G01 X68.4934 Y45.2239
G01 X68.4919 Y45.2365
G01 X68.4883 Y45.2588
G01 X68.4831 Y45.2808
G01 X68.4797 Y45.2931
G01 X68.4701 Y45.3204
G01 X68.4653 Y45.3322
G01 X68.4584 Y45.3469
G01 X68.4527 Y45.3583
G01 X68.4464 Y45.3694
G01 X68.4380 Y45.3832
G01 X68.4309 Y45.3938
G01 X68.4175 Y45.4120
G01 X68.4094 Y45.4218
G01 X68.3897 Y45.4431
G01 X68.3805 Y45.4519
G01 X68.3636 Y45.4668
G01 X68.3456 Y45.4805
G01 X68.3352 Y45.4879
G01 X68.3105 Y45.5030
G01 X68.2992 Y45.5090
G01 X68.2788 Y45.5186
G01 X68.2670 Y45.5235
G01 X68.2518 Y45.5290
G01 X68.2397 Y45.5330
G01 X68.2274 Y45.5365
G01 X68.2117 Y45.5403
G01 X68.1932 Y45.5438
G01 X68.2005 Y45.5743
G01 X68.2072 Y45.6178
G01 X68.2088 Y45.6369
G01 X68.2104 Y45.6746
G01 X68.2104 Y48.2135
G01 X68.2143 Y48.2323
G01 X68.2199 Y48.2696
G01 X68.2215 Y48.2887
G01 X68.2231 Y48.3263
G01 X68.2230 Y58.0711
G01 X68.2211 Y58.1087
G01 X68.2190 Y58.1277
G01 X68.2132 Y58.1650
G01 X68.2043 Y58.2016
G01 X68.1990 Y58.2200
G01 X68.1863 Y58.2555
G01 X68.1788 Y58.2731
G01 X68.1624 Y58.3070
G01 X68.1561 Y58.3181
G01 X68.1364 Y58.3503
G01 X68.1142 Y58.3807
G01 X68.1023 Y58.3957
G01 X68.0725 Y58.4282
G01 X67.9722 Y58.5285
G01 X67.9926 Y58.5190
G01 X68.0102 Y58.5119
G01 X68.0314 Y58.5048
G01 X68.0497 Y58.4999
G01 X68.0715 Y58.4951
G01 X68.0999 Y58.4912
G01 X68.1188 Y58.4899
G01 X68.1411 Y58.4895
G01 X68.1634 Y58.4907
G01 X68.1822 Y58.4926
G01 X68.2105 Y58.4974
G01 X68.2322 Y58.5029
G01 X68.2503 Y58.5084
G01 X68.2712 Y58.5162
G01 X68.2885 Y58.5238
G01 X68.3085 Y58.5339
G01 X68.3277 Y58.5453
G01 X68.3434 Y58.5558
G01 X68.3661 Y58.5733
G01 X68.3828 Y58.5882
G01 X68.3962 Y58.6015
G01 X68.4111 Y58.6182
G01 X68.4228 Y58.6331
G01 X68.4357 Y58.6513
G01 X68.4474 Y58.6704
G01 X68.4564 Y58.6870
G01 X68.4683 Y58.7130
G01 X68.4761 Y58.7340
G01 X68.4817 Y58.7521
G01 X68.4884 Y58.7799
G01 X68.4920 Y58.8020
G01 X68.4940 Y58.8208
G01 X68.4952 Y58.8494
G01 X68.4952 Y64.1173
G01 X68.4941 Y64.1451
G01 X68.4928 Y64.1587
G01 X68.4884 Y64.1867
G01 X68.4834 Y64.2082
G01 X68.4778 Y64.2277
G01 X68.4681 Y64.2542
G01 X68.4590 Y64.2743
G01 X68.4497 Y64.2924
G01 X68.4350 Y64.3166
G01 X68.4222 Y64.3345
G01 X68.4095 Y64.3504
G01 X68.3904 Y64.3712
G01 X68.3743 Y64.3863
G01 X68.3588 Y64.3994
G01 X68.3360 Y64.4161
G01 X68.3172 Y64.4278
G01 X68.2995 Y64.4376
G01 X68.2738 Y64.4496
G01 X68.2532 Y64.4573
G01 X68.2338 Y64.4635
G01 X68.2063 Y64.4702
G01 X68.1846 Y64.4738
G01 X68.1644 Y64.4761
G01 X68.1366 Y64.4773
G01 X64.6063 Y64.4913
G01 X64.5837 Y64.4903
G01 X64.5709 Y64.4891
G01 X64.5485 Y64.4858
G01 X64.5297 Y64.4819
G01 X64.5078 Y64.4762
G01 X64.4864 Y64.4689
G01 X64.4685 Y64.4618
G01 X64.4480 Y64.4522
G01 X64.4312 Y64.4430
G01 X64.4119 Y64.4311
G01 X64.3935 Y64.4179
G01 X64.3834 Y64.4101
G01 X64.3737 Y64.4017
G01 X64.3571 Y64.3863
G01 X64.3374 Y64.3650
G01 X64.3281 Y64.3536
G01 X64.3489 Y64.4368
G01 X64.3529 Y64.4555
G01 X64.3786 Y64.6291
G01 X64.3803 Y64.6482
G01 X64.3883 Y64.8107
G01 X64.3885 Y64.8298
G01 X64.3803 Y64.9987
G01 X64.3794 Y65.0114
G01 X64.3778 Y65.0241
G01 X64.3539 Y65.1850
G01 X64.3517 Y65.1976
G01 X64.3489 Y65.2101
G01 X64.3094 Y65.3679
G01 X64.3041 Y65.3863
G01 X64.2472 Y65.5455
G01 X64.2426 Y65.5574
G01 X64.2374 Y65.5691
G01 X64.1679 Y65.7161
G01 X64.1621 Y65.7275
G01 X64.1558 Y65.7386
G01 X64.0722 Y65.8782
G01 X64.0654 Y65.8890
G01 X64.0580 Y65.8994
G01 X63.9611 Y66.0301
G01 X63.9532 Y66.0402
G01 X63.9449 Y66.0498
G01 X63.8356 Y66.1704
G01 X63.8268 Y66.1796
G01 X63.8176 Y66.1884
G01 X63.6970 Y66.2977
G01 X63.6824 Y66.3100
G01 X63.5466 Y66.4108
G01 X63.5362 Y66.4181
G01 X63.5254 Y66.4250
G01 X63.3859 Y66.5086
G01 X63.3748 Y66.5149
G01 X63.3634 Y66.5206
G01 X63.2163 Y66.5902
G01 X63.2046 Y66.5954
G01 X63.1927 Y66.6000
G01 X63.0395 Y66.6548
G01 X63.0274 Y66.6588
G01 X63.0151 Y66.6622
G01 X62.8573 Y66.7017
G01 X62.8448 Y66.7045
G01 X62.8323 Y66.7067
G01 X62.6713 Y66.7306
G01 X62.6586 Y66.7321
G01 X62.6459 Y66.7331
G01 X62.4834 Y66.7411
G01 X62.4707 Y66.7414
G01 X62.4579 Y66.7411
G01 X62.2954 Y66.7331
G01 X62.2827 Y66.7321
G01 X62.2700 Y66.7306
G01 X62.1028 Y66.7057
G01 X62.0840 Y66.7017
G01 X61.9262 Y66.6622
G01 X61.9139 Y66.6588
G01 X61.9018 Y66.6548
G01 X61.7426 Y66.5977
G01 X61.7250 Y66.5902
G01 X61.5722 Y66.5178
G01 X61.5555 Y66.5086
G01 X61.5133 Y66.4833
G01 X61.5103 Y66.4984
G01 X61.5065 Y66.5142
G01 X61.5031 Y66.5265
G01 X61.4991 Y66.5386
G01 X61.4935 Y66.5538
G01 X61.4886 Y66.5656
G01 X61.4790 Y66.5860
G01 X61.4730 Y66.5973
G01 X61.4579 Y66.6220
G01 X61.4505 Y66.6324
G01 X61.4368 Y66.6503
G01 X61.4219 Y66.6673
G01 X61.4130 Y66.6765
G01 X61.3917 Y66.6961
G01 X61.3819 Y66.7042
G01 X61.3637 Y66.7177
G01 X61.3531 Y66.7247
G01 X61.3392 Y66.7331
G01 X61.3225 Y66.7424
G01 X61.3079 Y66.7493
G01 X61.2962 Y66.7545
G01 X61.2843 Y66.7591
G01 X61.2690 Y66.7645
G01 X61.2568 Y66.7682
G01 X61.2349 Y66.7736
G01 X61.2223 Y66.7761
G01 X61.1937 Y66.7801
G01 X61.1809 Y66.7811
G01 X61.1584 Y66.7818
G01 X50.6434 Y66.7744
G01 X50.6145 Y66.7727
G01 X50.6019 Y66.7711
G01 X50.5796 Y66.7675
G01 X50.5672 Y66.7647
G01 X50.5454 Y66.7589
G01 X50.5180 Y66.7493
G01 X50.5063 Y66.7445
G01 X50.4859 Y66.7348
G01 X50.4746 Y66.7288
G01 X50.4607 Y66.7205
G01 X50.4499 Y66.7137
G01 X50.4395 Y66.7063
G01 X50.4265 Y66.6966
G01 X50.4167 Y66.6885
G01 X50.3954 Y66.6689
G01 X50.3800 Y66.6524
G01 X50.3717 Y66.6427
G01 X50.3639 Y66.6327
G01 X50.3507 Y66.6143
G01 X50.3356 Y66.5896
G01 X50.3296 Y66.5784
G01 X50.3226 Y66.5638
G01 X50.3174 Y66.5521
G01 X50.3129 Y66.5402
G01 X50.3075 Y66.5249
G01 X50.3038 Y66.5127
G01 X50.2983 Y66.4908
G01 X50.2959 Y66.4786
G01 X50.2459 Y66.5086
G01 X50.2291 Y66.5178
G01 X50.0705 Y66.5929
G01 X50.0527 Y66.6000
G01 X49.8935 Y66.6569
G01 X49.8751 Y66.6622
G01 X49.7173 Y66.7017
G01 X49.7048 Y66.7045
G01 X49.6923 Y66.7067
G01 X49.5313 Y66.7306
G01 X49.5123 Y66.7327
G01 X49.3434 Y66.7411
G01 X49.3307 Y66.7414
G01 X49.3179 Y66.7411
G01 X49.1554 Y66.7331
G01 X49.1427 Y66.7321
G01 X49.1300 Y66.7306
G01 X48.9691 Y66.7067
G01 X48.9502 Y66.7032
G01 X48.7862 Y66.6622
G01 X48.7739 Y66.6588
G01 X48.7618 Y66.6548
G01 X48.6026 Y66.5977
G01 X48.5850 Y66.5902
G01 X48.4322 Y66.5178
G01 X48.4155 Y66.5086
G01 X48.3635 Y66.4774
G01 X48.3611 Y66.4892
G01 X48.3572 Y66.5049
G01 X48.3538 Y66.5172
G01 X48.3498 Y66.5293
G01 X48.3443 Y66.5446
G01 X48.3394 Y66.5564
G01 X48.3268 Y66.5824
G01 X48.3121 Y66.6074
G01 X48.3050 Y66.6180
G01 X48.2954 Y66.6311
G01 X48.2834 Y66.6460
G01 X48.2638 Y66.6673
G01 X48.2425 Y66.6869
G01 X48.2326 Y66.6950
G01 X48.2197 Y66.7047
G01 X48.2039 Y66.7155
G01 X48.1789 Y66.7302
G01 X48.1528 Y66.7428
G01 X48.1350 Y66.7499
G01 X48.1198 Y66.7552
G01 X48.1075 Y66.7589
G01 X48.0794 Y66.7657
G01 X48.0668 Y66.7679
G01 X48.0444 Y66.7709
G01 X48.0219 Y66.7723
G01 X48.0091 Y66.7726
G01 X46.9108 Y66.7718
G01 X46.8819 Y66.7706
G01 X46.8692 Y66.7694
G01 X46.8532 Y66.7671
G01 X46.8407 Y66.7649
G01 X46.8282 Y66.7621
G01 X46.8125 Y66.7580
G01 X46.8003 Y66.7543
G01 X46.7732 Y66.7444
G01 X46.7469 Y66.7322
G01 X46.7357 Y66.7262
G01 X46.7217 Y66.7179
G01 X46.7057 Y66.7075
G01 X46.6826 Y66.6900
G01 X46.6610 Y66.6708
G01 X46.6520 Y66.6617
G01 X46.6411 Y66.6498
G01 X46.6328 Y66.6401
G01 X46.6249 Y66.6301
G01 X46.6153 Y66.6170
G01 X46.6083 Y66.6064
G01 X46.5936 Y66.5815
G01 X46.5810 Y66.5554
G01 X46.5739 Y66.5377
G01 X46.5685 Y66.5224
G01 X46.5648 Y66.5102
G01 X46.5580 Y66.4820
G01 X46.5544 Y66.4598
G01 X46.5528 Y66.4471
G01 X46.5519 Y66.4344
G01 X46.5511 Y66.4118
G01 X46.5511 Y64.6751
G01 X46.5519 Y64.6521
G01 X46.5490 Y64.6232
G01 X46.5410 Y64.5969
G01 X46.5280 Y64.5725
G01 X46.5104 Y64.5513
G01 X46.4891 Y64.5338
G01 X46.4647 Y64.5208
G01 X46.4383 Y64.5129
G01 X46.4097 Y64.5101
G01 X46.3867 Y64.5109
G01 X5.8925 Y64.5743
G01 X5.8637 Y64.5732
G01 X5.6145 Y64.5536
G01 X5.6031 Y64.5525
G01 X5.5830 Y64.5497
G01 X5.5632 Y64.5457
G01 X5.5520 Y64.5431
G01 X5.2578 Y64.4664
G01 X5.2304 Y64.4576
G01 X5.2096 Y64.4491
G01 X5.1980 Y64.4438
G01 X4.9344 Y64.3164
G01 X4.9090 Y64.3028
G01 X4.8928 Y64.2926
G01 X4.8744 Y64.2798
G01 X4.6406 Y64.1035
G01 X4.6306 Y64.0956
G01 X4.6136 Y64.0810
G01 X4.5931 Y64.0607
G01 X4.3937 Y63.8377
G01 X4.3854 Y63.8280
G01 X4.3715 Y63.8104
G01 X4.3589 Y63.7918
G01 X4.3522 Y63.7810
G01 X4.2165 Y63.5511
G01 X4.2052 Y63.5284
G01 X4.1947 Y63.5029
G01 X4.1890 Y63.4861
G01 X4.1818 Y63.4595
G01 X4.0213 Y62.7347
G01 X4.0169 Y62.7101
G01 X4.0150 Y62.6961
G01 X4.0138 Y62.6819
G01 X4.0129 Y62.6640
G01 X4.0157 Y34.9323
G01 X4.0169 Y34.9033
G01 X4.0182 Y34.8906
G01 X4.0205 Y34.8746
G01 X4.0226 Y34.8620
G01 X4.0254 Y34.8496
G01 X4.0294 Y34.8339
G01 X4.0332 Y34.8217
G01 X4.0431 Y34.7945
G01 X4.0553 Y34.7682
G01 X4.0613 Y34.7570
G01 X4.0696 Y34.7430
G01 X4.0764 Y34.7323
G01 X4.0837 Y34.7218
G01 X4.0935 Y34.7089
G01 X4.1016 Y34.6990
G01 X4.1212 Y34.6777
G01 X4.1425 Y34.6581
G01 X4.1523 Y34.6500
G01 X4.1653 Y34.6403
G01 X4.1757 Y34.6330
G01 X4.1865 Y34.6261
G01 X4.2004 Y34.6179
G01 X4.2117 Y34.6119
G01 X4.2380 Y34.5997
G01 X4.2633 Y34.5904
G01 X4.2446 Y34.5513
G01 X4.2375 Y34.5335
G01 X4.2251 Y34.4979
G01 X4.2156 Y34.4614
G01 X4.2117 Y34.4427
G01 X4.2061 Y34.4054
G01 X4.2045 Y34.3864
G01 X4.2029 Y34.3487
G01 X4.2029 Y28.1105
G01 X4.2049 Y28.0664
G01 X4.2070 Y28.0474
G01 X4.2128 Y28.0102
G01 X4.2217 Y27.9735
G01 X4.2270 Y27.9552
G01 X4.2397 Y27.9197
G01 X4.2472 Y27.9021
G01 X4.2638 Y27.8679
G00 Z2.0000
G00 X4.1444 Y27.9135
G01 F50.00
G01 Z-0.1500
G01 F120.00
G01 X4.1327 Y27.9064
G01 X4.1184 Y27.8968
G01 X4.0966 Y27.8807
G01 X4.0768 Y27.8640
G01 X4.0632 Y27.8515
G01 X4.0510 Y27.8393
G01 X4.0385 Y27.8257
G01 X4.0273 Y27.8126
G01 X4.0108 Y27.7911
G01 X3.9961 Y27.7698
G01 X3.9822 Y27.7466
G01 X3.9703 Y27.7236
G01 X3.9591 Y27.6989
G01 X3.9529 Y27.6828
G01 X3.9468 Y27.6654
G01 X3.9396 Y27.6405
G01 X3.9334 Y27.6142
G01 X3.9305 Y27.5972
G01 X3.9279 Y27.5789
G01 X3.9256 Y27.5531
G01 X3.9247 Y27.5260
G01 X3.9271 Y5.2064
G01 X3.9280 Y5.1774
G01 X3.9295 Y5.1601
G01 X3.9320 Y5.1398
G01 X3.9766 Y4.8410
G01 X3.9796 Y4.8241
G01 X3.9852 Y4.7977
G01 X3.9927 Y4.7718
G01 X3.9981 Y4.7555
G01 X4.0946 Y4.4856
G01 X4.1008 Y4.4696
G01 X4.1115 Y4.4449
G01 X4.1238 Y4.4209
G01 X4.1323 Y4.4059
G01 X4.2839 Y4.1526
G01 X4.2940 Y4.1373
G01 X4.3039 Y4.1232
G01 X4.3144 Y4.1097
G01 X4.3261 Y4.0955
G01 X4.5239 Y3.8764
G01 X4.5357 Y3.8639
G01 X4.5551 Y3.8451
G01 X4.5756 Y3.8276
G01 X4.5891 Y3.8170
G01 X4.8464 Y3.6252
G01 X4.8739 Y3.6070
G01 X5.7417 Y3.0748
G01 X5.7576 Y3.0656
G01 X5.7832 Y3.0523
G01 X5.7999 Y3.0448
G01 X5.8267 Y3.0342
G01 X5.8441 Y3.0286
G01 X5.8630 Y3.0231
G01 X6.4739 Y2.8755
G01 X6.4943 Y2.8712
G01 X6.5224 Y2.8666
G01 X6.5473 Y2.8642
G01 X6.5695 Y2.8630
G01 X6.5799 Y2.8629
G01 X56.9733 Y2.8629
G01 X57.0003 Y2.8638
G01 X57.0261 Y2.8660
G01 X57.0443 Y2.8686
