(G-CODE GENERATED BY FLATCAM v8.994 - www.flatcam.org - Version Date: 2020/11/7)

(Name: po_midi_adapter-B_Cu.gbr_iso_combined_3_cnc)
(Type: G-code from Geometry)
(Units: MM)

(Created on Friday, 13 August 2021 at 11:49)

(This preprocessor is the default preprocessor used by FlatCAM.)
(It is made to work with MACH3 compatible motion controllers.)

(TOOL DIAMETER: 0.1705 mm)
(Feedrate_XY: 120.0 mm/min)
(Feedrate_Z: 50.0 mm/min)
(Feedrate rapids 1500.0 mm/min)

(Z_Cut: -0.1999 mm)
(Z_Move: 2.0 mm)
(Z Start: None mm)
(Z End: 15.0 mm)
(X,Y End: None mm)
(Steps per circle: 64)
(Preprocessor Geometry: default)

(X range:    3.8806 ...   68.6274  mm)
(Y range:    2.8224 ...   66.9141  mm)

(Spindle Speed: 8000.0 RPM)
G21
G90
G94

G01 F120.00

M5
G00 Z15.0000
G00 X0.0000 Y0.0000
T2
M6    
(MSG, Change to Tool Dia = 0.1705)
M0
G00 Z15.0000

M03 S8000.0
G01 F120.00
G00 X9.7696 Y7.9314
G01 F50.00
G01 Z-0.1999
G01 F120.00
G01 X10.0581 Y7.9314
G01 X10.3410 Y7.9876
G01 X10.6075 Y8.0980
G01 X10.8473 Y8.2583
G01 X11.0513 Y8.4622
G01 X11.2116 Y8.7021
G01 X11.3219 Y8.9686
G01 X11.3782 Y9.2515
G01 X11.3782 Y9.5400
G01 X11.3219 Y9.8229
G01 X11.2116 Y10.0894
G01 X11.0513 Y10.3292
G01 X10.8473 Y10.5332
G01 X10.6075 Y10.6935
G01 X10.3410 Y10.8038
G01 X10.0581 Y10.8601
G01 X9.7696 Y10.8601
G01 X9.4867 Y10.8038
G01 X9.2202 Y10.6935
G01 X8.9803 Y10.5332
G01 X8.7764 Y10.3292
G01 X8.6161 Y10.0894
G01 X8.5057 Y9.8229
G01 X8.4495 Y9.5400
G01 X8.4495 Y9.2515
G01 X8.5057 Y8.9686
G01 X8.6161 Y8.7021
G01 X8.7764 Y8.4622
G01 X8.9803 Y8.2583
G01 X9.2202 Y8.0980
G01 X9.4867 Y7.9876
G01 X9.7696 Y7.9314
G00 Z2.0000
G00 X9.9097 Y10.7306
G01 F50.00
G01 Z-0.1999
G01 F120.00
G01 X9.7830 Y10.7242
G01 X9.6534 Y10.7050
G01 X9.5263 Y10.6732
G01 X9.4030 Y10.6291
G01 X9.2846 Y10.5730
G01 X9.1722 Y10.5057
G01 X9.0670 Y10.4277
G01 X8.9699 Y10.3397
G01 X8.8819 Y10.2426
G01 X8.8039 Y10.1374
G01 X8.7365 Y10.0250
G01 X8.6805 Y9.9066
G01 X8.6364 Y9.7832
G01 X8.6046 Y9.6562
G01 X8.5853 Y9.5266
G01 X8.5789 Y9.3957
G01 X8.5853 Y9.2649
G01 X8.6046 Y9.1353
G01 X8.6364 Y9.0082
G01 X8.6805 Y8.8849
G01 X8.7365 Y8.7665
G01 X8.8039 Y8.6541
G01 X8.8819 Y8.5489
G01 X8.9699 Y8.4518
G01 X9.0670 Y8.3638
G01 X9.1722 Y8.2858
G01 X9.2846 Y8.2184
G01 X9.4030 Y8.1624
G01 X9.5263 Y8.1183
G01 X9.6534 Y8.0865
G01 X9.7830 Y8.0672
G01 X9.9138 Y8.0608
G01 X10.0447 Y8.0672
G01 X10.1743 Y8.0865
G01 X10.3013 Y8.1183
G01 X10.4247 Y8.1624
G01 X10.5431 Y8.2184
G01 X10.6555 Y8.2858
G01 X10.7607 Y8.3638
G01 X10.8578 Y8.4518
G01 X10.9458 Y8.5489
G01 X11.0238 Y8.6541
G01 X11.0911 Y8.7665
G01 X11.1472 Y8.8849
G01 X11.1913 Y9.0082
G01 X11.2231 Y9.1353
G01 X11.2423 Y9.2649
G01 X11.2488 Y9.3957
G01 X11.2423 Y9.5266
G01 X11.2231 Y9.6562
G01 X11.1913 Y9.7832
G01 X11.1472 Y9.9066
G01 X11.0911 Y10.0250
G01 X11.0238 Y10.1374
G01 X10.9458 Y10.2426
G01 X10.8578 Y10.3397
G01 X10.7607 Y10.4277
G01 X10.6555 Y10.5057
G01 X10.5431 Y10.5730
G01 X10.4247 Y10.6291
G01 X10.3013 Y10.6732
G01 X10.1743 Y10.7050
G01 X10.0447 Y10.7242
G01 X9.9180 Y10.7306
G01 X9.9097 Y10.7306
G00 Z2.0000
G00 X9.4864 Y11.5314
G01 F50.00
G01 Z-0.1999
G01 F120.00
G01 X9.6961 Y11.5314
G01 X9.9018 Y11.5724
G01 X10.0956 Y11.6526
G01 X10.2700 Y11.7691
G01 X10.4183 Y11.9174
G01 X10.5348 Y12.0918
G01 X10.6150 Y12.2856
G01 X10.6560 Y12.4913
G01 X10.6560 Y12.7010
G01 X10.6150 Y12.9067
G01 X10.5348 Y13.1005
G01 X10.4183 Y13.2748
G01 X10.2700 Y13.4231
G01 X10.0956 Y13.5397
G01 X9.9018 Y13.6199
G01 X9.6961 Y13.6608
G01 X9.4864 Y13.6608
G01 X9.2807 Y13.6199
G01 X9.0869 Y13.5397
G01 X8.9126 Y13.4231
G01 X8.7643 Y13.2748
G01 X8.6477 Y13.1005
G01 X8.5675 Y12.9067
G01 X8.5266 Y12.7010
G01 X8.5266 Y12.4913
G01 X8.5675 Y12.2856
G01 X8.6477 Y12.0918
G01 X8.7643 Y11.9174
G01 X8.9126 Y11.7691
G01 X9.0869 Y11.6526
G01 X9.2807 Y11.5724
G01 X9.4864 Y11.5314
G00 Z2.0000
G00 X10.5264 Y12.6003
G01 F50.00
G01 Z-0.1999
G01 F120.00
G01 X10.5220 Y12.6878
G01 X10.5085 Y12.7786
G01 X10.4862 Y12.8676
G01 X10.4553 Y12.9540
G01 X10.4161 Y13.0370
G01 X10.3689 Y13.1157
G01 X10.3142 Y13.1895
G01 X10.2526 Y13.2575
G01 X10.1846 Y13.3191
G01 X10.1109 Y13.3738
G01 X10.0321 Y13.4210
G01 X9.9492 Y13.4602
G01 X9.8627 Y13.4911
G01 X9.7737 Y13.5134
G01 X9.6829 Y13.5269
G01 X9.5913 Y13.5314
G01 X9.4996 Y13.5269
G01 X9.4088 Y13.5134
G01 X9.3198 Y13.4911
G01 X9.2334 Y13.4602
G01 X9.1504 Y13.4210
G01 X9.0717 Y13.3738
G01 X8.9979 Y13.3191
G01 X8.9299 Y13.2575
G01 X8.8683 Y13.1895
G01 X8.8136 Y13.1157
G01 X8.7664 Y13.0370
G01 X8.7272 Y12.9540
G01 X8.6963 Y12.8676
G01 X8.6740 Y12.7786
G01 X8.6605 Y12.6878
G01 X8.6560 Y12.5961
G01 X8.6605 Y12.5045
G01 X8.6740 Y12.4137
G01 X8.6963 Y12.3246
G01 X8.7272 Y12.2382
G01 X8.7664 Y12.1553
G01 X8.8136 Y12.0765
G01 X8.8683 Y12.0028
G01 X8.9299 Y11.9348
G01 X8.9979 Y11.8732
G01 X9.0717 Y11.8185
G01 X9.1504 Y11.7713
G01 X9.2334 Y11.7321
G01 X9.3198 Y11.7012
G01 X9.4088 Y11.6789
G01 X9.4996 Y11.6654
G01 X9.5913 Y11.6609
G01 X9.6829 Y11.6654
G01 X9.7737 Y11.6789
G01 X9.8627 Y11.7012
G01 X9.9492 Y11.7321
G01 X10.0321 Y11.7713
G01 X10.1109 Y11.8185
G01 X10.1846 Y11.8732
G01 X10.2526 Y11.9348
G01 X10.3142 Y12.0028
G01 X10.3689 Y12.0765
G01 X10.4161 Y12.1553
G01 X10.4553 Y12.2382
G01 X10.4862 Y12.3246
G01 X10.5085 Y12.4137
G01 X10.5220 Y12.5045
G01 X10.5264 Y12.5920
G01 X10.5264 Y12.6003
G00 Z2.0000
G00 X10.5265 Y14.2861
G01 F50.00
G01 Z-0.1999
G01 F120.00
G01 X10.5265 Y15.9861
G01 X10.5263 Y15.9924
G01 X10.5253 Y16.0007
G01 X10.5222 Y16.0129
G01 X10.5183 Y16.0226
G01 X10.5121 Y16.0335
G01 X10.5044 Y16.0434
G01 X10.4953 Y16.0520
G01 X10.4851 Y16.0593
G01 X10.4739 Y16.0649
G01 X10.4620 Y16.0688
G01 X10.4496 Y16.0710
G01 X10.4413 Y16.0714
G01 X9.9332 Y16.0714
G01 X9.9332 Y22.1177
G01 X11.2619 Y23.4464
G01 X11.2726 Y23.4531
G01 X11.2960 Y23.4704
G01 X11.3223 Y23.4941
G01 X12.1833 Y24.3551
G01 X12.2056 Y24.3798
G01 X12.2231 Y24.4031
G01 X12.2277 Y24.4101
G01 X12.2436 Y24.4370
G01 X12.2551 Y24.4614
G01 X12.2583 Y24.4691
G01 X12.2681 Y24.4966
G01 X12.2752 Y24.5248
G01 X12.2769 Y24.5330
G01 X12.2810 Y24.5618
G01 X12.2826 Y24.5930
G01 X12.2826 Y26.7360
G01 X12.2810 Y26.7672
G01 X12.2762 Y26.8001
G01 X12.2681 Y26.8324
G01 X12.2568 Y26.8638
G01 X12.2426 Y26.8939
G01 X12.2255 Y26.9224
G01 X12.2056 Y26.9492
G01 X12.1847 Y26.9724
G01 X10.0348 Y29.1224
G01 X10.0348 Y32.9053
G01 X10.3113 Y33.1818
G01 X10.3323 Y33.2049
G01 X10.3535 Y33.2332
G01 X10.3706 Y33.2618
G01 X10.3849 Y33.2919
G01 X10.3954 Y33.3212
G01 X10.4033 Y33.3515
G01 X10.4049 Y33.3597
G01 X10.4091 Y33.3885
G01 X10.4107 Y33.4197
G01 X10.4107 Y34.0176
G01 X12.7091 Y36.3160
G01 X12.7287 Y36.3375
G01 X12.7340 Y36.3440
G01 X12.7513 Y36.3674
G01 X12.7663 Y36.3923
G01 X12.7703 Y36.3997
G01 X12.7826 Y36.4261
G01 X12.7944 Y36.4595
G01 X12.8019 Y36.4897
G01 X12.8063 Y36.5185
G01 X12.8071 Y36.5269
G01 X12.8085 Y36.5560
G01 X12.8085 Y39.9574
G01 X12.8289 Y39.9650
G01 X12.9118 Y40.0044
G01 X12.9887 Y40.0506
G01 X13.0624 Y40.1053
G01 X13.1304 Y40.1669
G01 X13.1893 Y40.2318
G01 X13.1946 Y40.2382
G01 X13.2467 Y40.3086
G01 X13.2918 Y40.3837
G01 X13.2958 Y40.3911
G01 X13.3331 Y40.4703
G01 X13.3641 Y40.5567
G01 X13.3864 Y40.6458
G01 X13.3993 Y40.7324
G01 X13.4001 Y40.7407
G01 X13.4042 Y40.8241
G01 X13.4042 Y40.8324
G01 X13.3998 Y40.9199
G01 X13.3864 Y41.0107
G01 X13.3641 Y41.0997
G01 X13.3331 Y41.1861
G01 X13.2939 Y41.2691
G01 X13.2467 Y41.3478
G01 X13.1920 Y41.4216
G01 X13.1333 Y41.4865
G01 X13.1274 Y41.4924
G01 X13.0624 Y41.5512
G01 X12.9921 Y41.6035
G01 X12.9851 Y41.6081
G01 X12.9136 Y41.6510
G01 X12.9062 Y41.6549
G01 X12.8270 Y41.6923
G01 X12.7406 Y41.7232
G01 X12.6515 Y41.7455
G01 X12.5587 Y41.7592
G01 X12.4691 Y41.7635
G01 X12.3774 Y41.7590
G01 X12.2866 Y41.7455
G01 X12.1976 Y41.7232
G01 X12.1112 Y41.6923
G01 X12.0282 Y41.6531
G01 X11.9495 Y41.6059
G01 X11.8758 Y41.5512
G01 X11.8078 Y41.4896
G01 X11.7461 Y41.4216
G01 X11.6914 Y41.3478
G01 X11.6443 Y41.2691
G01 X11.6050 Y41.1861
G01 X11.5741 Y41.0997
G01 X11.5518 Y41.0107
G01 X11.5382 Y40.9178
G01 X11.5338 Y40.8282
G01 X11.5380 Y40.7407
G01 X11.5388 Y40.7324
G01 X11.5511 Y40.6499
G01 X11.5527 Y40.6417
G01 X11.5741 Y40.5567
G01 X11.6050 Y40.4703
G01 X11.6443 Y40.3874
G01 X11.6892 Y40.3122
G01 X11.6939 Y40.3052
G01 X11.7435 Y40.2382
G01 X11.7489 Y40.2318
G01 X11.8078 Y40.1669
G01 X11.8758 Y40.1053
G01 X11.9495 Y40.0506
G01 X12.0264 Y40.0044
G01 X12.1093 Y39.9650
G01 X12.1297 Y39.9574
G01 X12.1297 Y36.6965
G01 X9.8313 Y34.3982
G01 X9.8077 Y34.3719
G01 X9.7891 Y34.3467
G01 X9.7741 Y34.3218
G01 X9.7701 Y34.3144
G01 X9.7578 Y34.2881
G01 X9.7466 Y34.2567
G01 X9.7394 Y34.2285
G01 X9.7377 Y34.2203
G01 X9.7336 Y34.1915
G01 X9.7319 Y34.1582
G01 X9.7319 Y33.5623
G01 X9.4554 Y33.2858
G01 X9.4317 Y33.2595
G01 X9.4132 Y33.2344
G01 X9.3982 Y33.2095
G01 X9.3942 Y33.2021
G01 X9.3819 Y33.1757
G01 X9.3706 Y33.1444
G01 X9.3635 Y33.1161
G01 X9.3618 Y33.1079
G01 X9.3575 Y33.0770
G01 X9.3560 Y33.0458
G01 X9.3560 Y28.9818
G01 X9.3573 Y28.9527
G01 X9.3582 Y28.9444
G01 X9.3625 Y28.9156
G01 X9.3701 Y28.8853
G01 X9.3819 Y28.8519
G01 X9.3942 Y28.8256
G01 X9.3982 Y28.8182
G01 X9.4132 Y28.7933
G01 X9.4305 Y28.7698
G01 X9.4358 Y28.7633
G01 X9.4540 Y28.7433
G01 X11.6039 Y26.5933
G01 X11.6039 Y24.7357
G01 X10.8900 Y24.0218
G01 X10.8793 Y24.0151
G01 X10.8559 Y23.9977
G01 X10.8296 Y23.9741
G01 X9.3538 Y22.4983
G01 X9.3342 Y22.4768
G01 X9.3289 Y22.4703
G01 X9.3116 Y22.4468
G01 X9.2966 Y22.4219
G01 X9.2926 Y22.4145
G01 X9.2803 Y22.3882
G01 X9.2685 Y22.3548
G01 X9.2609 Y22.3245
G01 X9.2566 Y22.2957
G01 X9.2557 Y22.2874
G01 X9.2544 Y22.2583
G01 X9.2544 Y16.0714
G01 X8.7413 Y16.0714
G01 X8.7329 Y16.0710
G01 X8.7205 Y16.0688
G01 X8.7086 Y16.0649
G01 X8.6974 Y16.0593
G01 X8.6872 Y16.0520
G01 X8.6781 Y16.0434
G01 X8.6704 Y16.0335
G01 X8.6642 Y16.0226
G01 X8.6603 Y16.0129
G01 X8.6581 Y16.0048
G01 X8.6569 Y15.9986
G01 X8.6560 Y15.9861
G01 X8.6562 Y14.2799
G01 X8.6573 Y14.2716
G01 X8.6586 Y14.2654
G01 X8.6603 Y14.2594
G01 X8.6633 Y14.2516
G01 X8.6661 Y14.2460
G01 X8.6704 Y14.2388
G01 X8.6754 Y14.2321
G01 X8.6810 Y14.2259
G01 X8.6872 Y14.2202
G01 X8.6922 Y14.2164
G01 X8.6992 Y14.2120
G01 X8.7067 Y14.2082
G01 X8.7145 Y14.2052
G01 X8.7226 Y14.2030
G01 X8.7308 Y14.2015
G01 X8.7371 Y14.2010
G01 X10.4413 Y14.2009
G01 X10.4496 Y14.2013
G01 X10.4579 Y14.2025
G01 X10.4660 Y14.2046
G01 X10.4739 Y14.2074
G01 X10.4814 Y14.2110
G01 X10.4886 Y14.2153
G01 X10.4953 Y14.2202
G01 X10.5015 Y14.2259
G01 X10.5072 Y14.2321
G01 X10.5121 Y14.2388
G01 X10.5164 Y14.2460
G01 X10.5200 Y14.2535
G01 X10.5228 Y14.2614
G01 X10.5249 Y14.2695
G01 X10.5261 Y14.2778
G01 X10.5265 Y14.2861
G00 Z2.0000
G00 X10.0355 Y16.1943
G01 F50.00
G01 Z-0.1999
G01 F120.00
G01 X10.0355 Y16.1737
G01 X10.0563 Y16.1737
G01 X10.0444 Y16.1847
G01 X10.0355 Y16.1943
G00 Z2.0000
G00 X9.1313 Y16.1737
G01 F50.00
G01 Z-0.1999
G01 F120.00
G01 X9.1521 Y16.1737
G01 X9.1521 Y16.1943
G01 X9.1432 Y16.1847
G01 X9.1313 Y16.1737
G00 Z2.0000
G00 X9.1242 Y22.2723
G01 F50.00
G01 Z-0.1999
G01 F120.00
G01 X9.1228 Y22.2583
G01 X9.1244 Y22.2423
G01 X9.1251 Y22.2262
G01 X9.1251 Y16.3881
G01 X9.1244 Y16.3720
G01 X9.1215 Y16.3519
G01 X9.1177 Y16.3363
G01 X9.1158 Y16.3303
G01 X9.1110 Y16.3172
G01 X9.1051 Y16.3045
G01 X9.1022 Y16.2989
G01 X9.0939 Y16.2851
G01 X9.0817 Y16.2689
G01 X9.0723 Y16.2585
G01 X9.0678 Y16.2542
G01 X9.0574 Y16.2448
G01 X9.0462 Y16.2364
G01 X9.0410 Y16.2329
G01 X9.0290 Y16.2257
G01 X9.0107 Y16.2169
G01 X8.9936 Y16.2108
G01 X8.9759 Y16.2063
G01 X8.9580 Y16.2037
G01 X8.9398 Y16.2028
G01 X8.7504 Y16.2028
G01 X8.6992 Y16.1977
G01 X8.6587 Y16.1855
G01 X8.6214 Y16.1655
G01 X8.5887 Y16.1387
G01 X8.5619 Y16.1060
G01 X8.5419 Y16.0687
G01 X8.5297 Y16.0282
G01 X8.5246 Y15.9770
G01 X8.5246 Y14.2952
G01 X8.5297 Y14.2440
G01 X8.5419 Y14.2036
G01 X8.5619 Y14.1663
G01 X8.5887 Y14.1336
G01 X8.6214 Y14.1068
G01 X8.6587 Y14.0868
G01 X8.6992 Y14.0745
G01 X8.7504 Y14.0695
G01 X10.4322 Y14.0695
G01 X10.4833 Y14.0745
G01 X10.5238 Y14.0868
G01 X10.5611 Y14.1068
G01 X10.5938 Y14.1336
G01 X10.6206 Y14.1663
G01 X10.6406 Y14.2036
G01 X10.6529 Y14.2440
G01 X10.6579 Y14.2952
G01 X10.6579 Y15.9770
G01 X10.6529 Y16.0282
G01 X10.6406 Y16.0687
G01 X10.6206 Y16.1060
G01 X10.5938 Y16.1387
G01 X10.5611 Y16.1655
G01 X10.5238 Y16.1855
G01 X10.4833 Y16.1977
G01 X10.4322 Y16.2028
G01 X10.2478 Y16.2028
G01 X10.2276 Y16.2039
G01 X10.2116 Y16.2063
G01 X10.1920 Y16.2114
G01 X10.1750 Y16.2177
G01 X10.1623 Y16.2237
G01 X10.1568 Y16.2267
G01 X10.1449 Y16.2340
G01 X10.1335 Y16.2423
G01 X10.1286 Y16.2462
G01 X10.1183 Y16.2556
G01 X10.1046 Y16.2705
G01 X10.0926 Y16.2869
G01 X10.0854 Y16.2989
G01 X10.0825 Y16.3045
G01 X10.0766 Y16.3172
G01 X10.0718 Y16.3303
G01 X10.0699 Y16.3363
G01 X10.0661 Y16.3519
G01 X10.0632 Y16.3720
G01 X10.0625 Y16.3881
G01 X10.0625 Y21.9874
G01 X10.0634 Y22.0056
G01 X10.0653 Y22.0194
G01 X10.0694 Y22.0372
G01 X10.0718 Y22.0452
G01 X10.0766 Y22.0583
G01 X10.0844 Y22.0748
G01 X10.0937 Y22.0904
G01 X10.1020 Y22.1017
G01 X10.1059 Y22.1066
G01 X10.1168 Y22.1184
G01 X11.3202 Y23.3218
G01 X11.3336 Y23.3340
G01 X11.4153 Y23.4011
G01 X11.4256 Y23.4135
G01 X11.4364 Y23.4254
G01 X12.2520 Y24.2410
G01 X12.2639 Y24.2518
G01 X12.2763 Y24.2621
G01 X12.3349 Y24.3334
G01 X12.3784 Y24.4149
G01 X12.4052 Y24.5032
G01 X12.4143 Y24.5951
G01 X12.4127 Y24.6111
G01 X12.4120 Y24.6272
G01 X12.4120 Y26.7018
G01 X12.4127 Y26.7179
G01 X12.4143 Y26.7339
G01 X12.4052 Y26.8258
G01 X12.3883 Y26.8818
G01 X12.3849 Y26.8953
G01 X12.3837 Y26.9015
G01 X12.3818 Y26.9154
G01 X12.3810 Y26.9294
G01 X12.3809 Y26.9356
G01 X12.3816 Y26.9496
G01 X12.3844 Y26.9697
G01 X12.3888 Y26.9873
G01 X12.3950 Y27.0044
G01 X12.4027 Y27.0209
G01 X12.4121 Y27.0365
G01 X12.4229 Y27.0511
G01 X12.4366 Y27.0660
G01 X12.4470 Y27.0754
G01 X12.4519 Y27.0793
G01 X12.4632 Y27.0876
G01 X12.4752 Y27.0949
G01 X12.4914 Y27.1030
G01 X12.4972 Y27.1055
G01 X12.5104 Y27.1102
G01 X12.5259 Y27.1144
G01 X12.5321 Y27.1157
G01 X12.5459 Y27.1177
G01 X12.5662 Y27.1188
G01 X12.5843 Y27.1179
G01 X12.6023 Y27.1153
G01 X12.6179 Y27.1114
G01 X12.6239 Y27.1095
G01 X12.6371 Y27.1047
G01 X12.6498 Y27.0988
G01 X12.6554 Y27.0959
G01 X12.6691 Y27.0876
G01 X12.6821 Y27.0781
G01 X12.6869 Y27.0740
G01 X12.6972 Y27.0646
G01 X13.0017 Y26.7601
G01 X13.0124 Y26.7481
G01 X13.0221 Y26.7352
G01 X13.0305 Y26.7215
G01 X13.0345 Y26.7141
G01 X13.0404 Y26.7014
G01 X13.0465 Y26.6843
G01 X13.0509 Y26.6667
G01 X13.0531 Y26.6528
G01 X13.0538 Y26.6466
G01 X13.0545 Y26.6305
G01 X13.0545 Y23.6315
G01 X13.0538 Y23.6155
G01 X13.0522 Y23.5994
G01 X13.0613 Y23.5075
G01 X13.0881 Y23.4192
G01 X13.1316 Y23.3378
G01 X13.1902 Y23.2664
G01 X13.2026 Y23.2561
G01 X13.2145 Y23.2453
G01 X20.8564 Y15.6032
G01 X20.8670 Y15.5912
G01 X20.8777 Y15.5764
G01 X20.8859 Y15.5626
G01 X20.8944 Y15.5442
G01 X20.8998 Y15.5290
G01 X20.9046 Y15.5093
G01 X20.9070 Y15.4913
G01 X20.9077 Y15.4773
G01 X20.9076 Y15.4711
G01 X20.9069 Y15.4571
G01 X20.9049 Y15.4432
G01 X20.9038 Y15.4371
G01 X20.9004 Y15.4235
G01 X20.8944 Y15.4063
G01 X20.8772 Y15.3647
G01 X20.8267 Y15.1107
G01 X20.8267 Y14.8517
G01 X20.8772 Y14.5977
G01 X20.9763 Y14.3585
G01 X21.1202 Y14.1431
G01 X21.3033 Y13.9600
G01 X21.5187 Y13.8161
G01 X21.7579 Y13.7170
G01 X21.9916 Y13.6705
G01 X22.0072 Y13.6665
G01 X22.0204 Y13.6619
G01 X22.0263 Y13.6596
G01 X22.0408 Y13.6526
G01 X22.0581 Y13.6421
G01 X22.0694 Y13.6337
G01 X22.0742 Y13.6297
G01 X22.0845 Y13.6202
G01 X22.0939 Y13.6099
G01 X22.0980 Y13.6051
G01 X22.1075 Y13.5921
G01 X22.1158 Y13.5784
G01 X22.1187 Y13.5728
G01 X22.1246 Y13.5601
G01 X22.1294 Y13.5470
G01 X22.1313 Y13.5410
G01 X22.1347 Y13.5274
G01 X22.1378 Y13.5074
G01 X22.1387 Y13.4913
G01 X22.1386 Y13.4850
G01 X22.1378 Y13.4710
G01 X22.1359 Y13.4572
G01 X22.1347 Y13.4510
G01 X22.1313 Y13.4374
G01 X22.1246 Y13.4183
G01 X22.1178 Y13.4037
G01 X22.1148 Y13.3982
G01 X22.1075 Y13.3863
G01 X22.0992 Y13.3749
G01 X22.0953 Y13.3700
G01 X22.0845 Y13.3582
G01 X22.0726 Y13.3473
G01 X22.0677 Y13.3434
G01 X22.0564 Y13.3351
G01 X22.0444 Y13.3278
G01 X22.0389 Y13.3248
G01 X22.0243 Y13.3180
G01 X22.0052 Y13.3113
G01 X21.9916 Y13.3079
G01 X21.9810 Y13.3057
G01 X21.7145 Y13.1954
G01 X21.4746 Y13.0351
G01 X21.3224 Y12.8829
G01 X21.3105 Y12.8720
G01 X21.2943 Y12.8598
G01 X21.2787 Y12.8505
G01 X21.2603 Y12.8419
G01 X21.2472 Y12.8372
G01 X21.2411 Y12.8355
G01 X21.2275 Y12.8322
G01 X21.2137 Y12.8300
G01 X21.2075 Y12.8293
G01 X21.1914 Y12.8286
G01 X19.7915 Y12.8286
G01 X19.7754 Y12.8295
G01 X19.7574 Y12.8322
G01 X19.7398 Y12.8366
G01 X19.7265 Y12.8412
G01 X19.7099 Y12.8486
G01 X19.7026 Y12.8526
G01 X19.6889 Y12.8610
G01 X19.6744 Y12.8720
G01 X19.6625 Y12.8829
G01 X19.0445 Y13.5010
G01 X19.0352 Y13.5115
G01 X19.0244 Y13.5261
G01 X19.0150 Y13.5417
G01 X19.0081 Y13.5562
G01 X19.0017 Y13.5732
G01 X18.9976 Y13.5888
G01 X18.9945 Y13.6067
G01 X18.9937 Y13.6150
G01 X18.9931 Y13.6290
G01 X18.9931 Y14.6201
G01 X18.9940 Y14.6383
G01 X18.9971 Y14.6583
G01 X19.0011 Y14.6739
G01 X19.0057 Y14.6871
G01 X19.0081 Y14.6930
G01 X19.0150 Y14.7075
G01 X19.0244 Y14.7231
G01 X19.0326 Y14.7344
G01 X19.0365 Y14.7393
G01 X19.0474 Y14.7511
G01 X19.0609 Y14.7634
G01 X19.0738 Y14.7730
G01 X19.1713 Y14.8382
G01 X19.3126 Y14.9795
G01 X19.4237 Y15.1457
G01 X19.5001 Y15.3304
G01 X19.5391 Y15.5264
G01 X19.5391 Y15.7263
G01 X19.5001 Y15.9223
G01 X19.4237 Y16.1070
G01 X19.3126 Y16.2732
G01 X19.1713 Y16.4145
G01 X19.0051 Y16.5256
G01 X18.8204 Y16.6021
G01 X18.6244 Y16.6411
G01 X18.4245 Y16.6411
G01 X18.2285 Y16.6021
G01 X18.0438 Y16.5256
G01 X17.8776 Y16.4145
G01 X17.7363 Y16.2732
G01 X17.6252 Y16.1070
G01 X17.5487 Y15.9223
G01 X17.5097 Y15.7263
G01 X17.5097 Y15.5264
G01 X17.5487 Y15.3304
G01 X17.6252 Y15.1457
G01 X17.7363 Y14.9795
G01 X17.8776 Y14.8382
G01 X17.9751 Y14.7730
G01 X17.9880 Y14.7634
G01 X18.0015 Y14.7511
G01 X18.0123 Y14.7393
G01 X18.0163 Y14.7344
G01 X18.0245 Y14.7231
G01 X18.0339 Y14.7075
G01 X18.0408 Y14.6930
G01 X18.0431 Y14.6871
G01 X18.0478 Y14.6739
G01 X18.0517 Y14.6583
G01 X18.0548 Y14.6383
G01 X18.0557 Y14.6201
G01 X18.0557 Y13.3903
G01 X18.0550 Y13.3742
G01 X18.0535 Y13.3581
G01 X18.0625 Y13.2663
G01 X18.0893 Y13.1779
G01 X18.1328 Y13.0965
G01 X18.1914 Y13.0251
G01 X18.2039 Y13.0149
G01 X18.2157 Y13.0040
G01 X19.1685 Y12.0512
G01 X19.1794 Y12.0393
G01 X19.1896 Y12.0269
G01 X19.2610 Y11.9683
G01 X19.3424 Y11.9248
G01 X19.4308 Y11.8980
G01 X19.5227 Y11.8890
G01 X19.5387 Y11.8905
G01 X19.5548 Y11.8912
G01 X20.7663 Y11.8912
G01 X20.7824 Y11.8903
G01 X20.7963 Y11.8884
G01 X20.8024 Y11.8872
G01 X20.8180 Y11.8832
G01 X20.8332 Y11.8779
G01 X20.8390 Y11.8754
G01 X20.8516 Y11.8693
G01 X20.8672 Y11.8600
G01 X20.8802 Y11.8505
G01 X20.8850 Y11.8464
G01 X20.8953 Y11.8369
G01 X20.9075 Y11.8235
G01 X20.9183 Y11.8089
G01 X20.9256 Y11.7969
G01 X20.9295 Y11.7895
G01 X20.9369 Y11.7729
G01 X20.9416 Y11.7597
G01 X20.9460 Y11.7421
G01 X21.0000 Y11.4705
G01 X21.1104 Y11.2040
G01 X21.2706 Y10.9641
G01 X21.4746 Y10.7602
G01 X21.7145 Y10.5999
G01 X21.9810 Y10.4895
G01 X22.2639 Y10.4333
G01 X22.5523 Y10.4333
G01 X22.8352 Y10.4895
G01 X23.1017 Y10.5999
G01 X23.3416 Y10.7602
G01 X23.5456 Y10.9641
G01 X23.7058 Y11.2040
G01 X23.8162 Y11.4705
G01 X23.8725 Y11.7534
G01 X23.8725 Y12.0419
G01 X23.8162 Y12.3248
G01 X23.7058 Y12.5913
G01 X23.5456 Y12.8311
G01 X23.3416 Y13.0351
G01 X23.1017 Y13.1954
G01 X22.8352 Y13.3057
G01 X22.5518 Y13.3621
G01 X22.5363 Y13.3661
G01 X22.5230 Y13.3707
G01 X22.5172 Y13.3731
G01 X22.5027 Y13.3800
G01 X22.4889 Y13.3882
G01 X22.4837 Y13.3918
G01 X22.4725 Y13.4002
G01 X22.4620 Y13.4095
G01 X22.4576 Y13.4139
G01 X22.4482 Y13.4243
G01 X22.4360 Y13.4405
G01 X22.4276 Y13.4543
G01 X22.4247 Y13.4598
G01 X22.4189 Y13.4725
G01 X22.4140 Y13.4857
G01 X22.4121 Y13.4917
G01 X22.4083 Y13.5073
G01 X22.4055 Y13.5274
G01 X22.4048 Y13.5414
G01 X22.4048 Y13.5476
G01 X22.4056 Y13.5616
G01 X22.4076 Y13.5755
G01 X22.4087 Y13.5816
G01 X22.4121 Y13.5952
G01 X22.4189 Y13.6144
G01 X22.4257 Y13.6289
G01 X22.4287 Y13.6344
G01 X22.4360 Y13.6464
G01 X22.4442 Y13.6577
G01 X22.4482 Y13.6626
G01 X22.4576 Y13.6730
G01 X22.4725 Y13.6867
G01 X22.4854 Y13.6963
G01 X22.4906 Y13.6998
G01 X22.5027 Y13.7069
G01 X22.5172 Y13.7138
G01 X22.7641 Y13.8161
G01 X22.9795 Y13.9600
G01 X23.1626 Y14.1431
G01 X23.3065 Y14.3585
G01 X23.4056 Y14.5977
G01 X23.4561 Y14.8517
G01 X23.4561 Y15.1107
G01 X23.4056 Y15.3647
G01 X23.3065 Y15.6039
G01 X23.1626 Y15.8193
G01 X22.9795 Y16.0024
G01 X22.7641 Y16.1463
G01 X22.5249 Y16.2454
G01 X22.2709 Y16.2959
G01 X22.0119 Y16.2959
G01 X21.7579 Y16.2454
G01 X21.7163 Y16.2282
G01 X21.7011 Y16.2228
G01 X21.6814 Y16.2180
G01 X21.6676 Y16.2160
G01 X21.6613 Y16.2154
G01 X21.6453 Y16.2149
G01 X21.6271 Y16.2160
G01 X21.6112 Y16.2184
G01 X21.5916 Y16.2235
G01 X21.5764 Y16.2289
G01 X21.5600 Y16.2367
G01 X21.5444 Y16.2461
G01 X21.5282 Y16.2583
G01 X21.5163 Y16.2691
G01 X14.0462 Y23.7393
G01 X14.0339 Y23.7528
G01 X14.0231 Y23.7674
G01 X14.0138 Y23.7830
G01 X14.0060 Y23.7994
G01 X13.9999 Y23.8165
G01 X13.9954 Y23.8342
G01 X13.9928 Y23.8522
G01 X13.9919 Y23.8703
G01 X13.9919 Y25.0930
G01 X13.9926 Y25.1091
G01 X13.9954 Y25.1292
G01 X13.9993 Y25.1448
G01 X14.0012 Y25.1508
G01 X14.0060 Y25.1640
G01 X14.0119 Y25.1767
G01 X14.0148 Y25.1822
G01 X14.0231 Y25.1960
G01 X14.0353 Y25.2122
G01 X14.0447 Y25.2226
G01 X14.0492 Y25.2270
G01 X14.0596 Y25.2363
G01 X14.0708 Y25.2447
G01 X14.0760 Y25.2483
G01 X14.0898 Y25.2565
G01 X14.1043 Y25.2634
G01 X14.1102 Y25.2657
G01 X14.1234 Y25.2704
G01 X14.1369 Y25.2739
G01 X14.1431 Y25.2752
G01 X14.1590 Y25.2775
G01 X14.1751 Y25.2783
G01 X14.1814 Y25.2782
G01 X14.1953 Y25.2775
G01 X14.2092 Y25.2755
G01 X14.2154 Y25.2744
G01 X14.2310 Y25.2704
G01 X14.2461 Y25.2650
G01 X14.2519 Y25.2625
G01 X14.2645 Y25.2565
G01 X14.2784 Y25.2483
G01 X14.2914 Y25.2389
G01 X14.2979 Y25.2336
G01 X14.3097 Y25.2226
G01 X14.3217 Y25.2090
G01 X14.3312 Y25.1960
G01 X14.4114 Y25.0760
G01 X14.5527 Y24.9347
G01 X14.7189 Y24.8236
G01 X14.9036 Y24.7472
G01 X15.0996 Y24.7082
G01 X15.2995 Y24.7082
G01 X15.4166 Y24.7313
G01 X15.4305 Y24.7333
G01 X15.4445 Y24.7341
G01 X15.4507 Y24.7342
G01 X15.4647 Y24.7335
G01 X15.4868 Y24.7302
G01 X15.5024 Y24.7262
G01 X15.5157 Y24.7216
G01 X15.5215 Y24.7193
G01 X15.5360 Y24.7123
G01 X15.5498 Y24.7041
G01 X15.5550 Y24.7006
G01 X15.5662 Y24.6921
G01 X15.5797 Y24.6799
G01 X17.6725 Y22.5871
G01 X17.6833 Y22.5753
G01 X17.6936 Y22.5628
G01 X17.7649 Y22.5042
G01 X17.7983 Y22.4864
G01 X17.8121 Y22.4780
G01 X17.8267 Y22.4672
G01 X17.8402 Y22.4550
G01 X23.1462 Y17.1490
G01 X23.1570 Y17.1371
G01 X23.1673 Y17.1247
G01 X23.2386 Y17.0661
G01 X23.3201 Y17.0226
G01 X23.4084 Y16.9958
G01 X23.5003 Y16.9867
G01 X23.5163 Y16.9883
G01 X23.5324 Y16.9890
G01 X25.9828 Y16.9890
G01 X25.9988 Y16.9883
G01 X26.0149 Y16.9867
G01 X26.1068 Y16.9958
G01 X26.1951 Y17.0226
G01 X26.2766 Y17.0661
G01 X26.3479 Y17.1247
G01 X26.3582 Y17.1371
G01 X26.3690 Y17.1490
G01 X27.4412 Y18.2212
G01 X27.4531 Y18.2320
G01 X27.4655 Y18.2423
G01 X27.5241 Y18.3136
G01 X27.5676 Y18.3951
G01 X27.5944 Y18.4834
G01 X27.6035 Y18.5753
G01 X27.6019 Y18.5913
G01 X27.6012 Y18.6074
G01 X27.6012 Y26.7982
G01 X27.6019 Y26.8143
G01 X27.6035 Y26.8303
G01 X27.5944 Y26.9222
G01 X27.5676 Y27.0105
G01 X27.5241 Y27.0920
G01 X27.4655 Y27.1633
G01 X27.4531 Y27.1736
G01 X27.4412 Y27.1844
G01 X25.7243 Y28.9013
G01 X25.7121 Y28.9148
G01 X25.7037 Y28.9260
G01 X25.7002 Y28.9311
G01 X25.6919 Y28.9450
G01 X25.6850 Y28.9595
G01 X25.6827 Y28.9653
G01 X25.6780 Y28.9785
G01 X25.6741 Y28.9941
G01 X25.6708 Y29.0162
G01 X25.6701 Y29.0302
G01 X25.6702 Y29.0365
G01 X25.6710 Y29.0505
G01 X25.6729 Y29.0644
G01 X25.6961 Y29.1815
G01 X25.6961 Y29.3813
G01 X25.6571 Y29.5774
G01 X25.5806 Y29.7620
G01 X25.4696 Y29.9282
G01 X25.3282 Y30.0696
G01 X25.1620 Y30.1806
G01 X24.9774 Y30.2571
G01 X24.7813 Y30.2961
G01 X24.5815 Y30.2961
G01 X24.3854 Y30.2571
G01 X24.2008 Y30.1806
G01 X24.0346 Y30.0696
G01 X23.8932 Y29.9282
G01 X23.7822 Y29.7620
G01 X23.7057 Y29.5774
G01 X23.6667 Y29.3813
G01 X23.6667 Y29.1815
G01 X23.7057 Y28.9854
G01 X23.7822 Y28.8008
G01 X23.8932 Y28.6346
G01 X24.0346 Y28.4932
G01 X24.2008 Y28.3822
G01 X24.3854 Y28.3057
G01 X24.5815 Y28.2667
G01 X24.7813 Y28.2667
G01 X24.8964 Y28.2896
G01 X24.9123 Y28.2918
G01 X24.9305 Y28.2927
G01 X24.9507 Y28.2916
G01 X24.9646 Y28.2896
G01 X24.9707 Y28.2883
G01 X24.9843 Y28.2848
G01 X24.9975 Y28.2801
G01 X25.0033 Y28.2778
G01 X25.0178 Y28.2709
G01 X25.0317 Y28.2626
G01 X25.0368 Y28.2591
G01 X25.0480 Y28.2507
G01 X25.0600 Y28.2399
G01 X25.3523 Y27.9477
G01 X25.3631 Y27.9358
G01 X25.3671 Y27.9309
G01 X25.3753 Y27.9196
G01 X25.3826 Y27.9076
G01 X25.3856 Y27.9021
G01 X25.3916 Y27.8895
G01 X25.3986 Y27.8704
G01 X25.4034 Y27.8508
G01 X25.4054 Y27.8369
G01 X25.4060 Y27.8306
G01 X25.4065 Y27.8167
G01 X25.4060 Y27.8027
G01 X25.4054 Y27.7964
G01 X25.4030 Y27.7805
G01 X25.3979 Y27.7609
G01 X25.3924 Y27.7457
G01 X25.3856 Y27.7312
G01 X25.3776 Y27.7172
G01 X25.3729 Y27.7103
G01 X25.3645 Y27.6991
G01 X25.3523 Y27.6856
G01 X25.3388 Y27.6734
G01 X25.3276 Y27.6650
G01 X25.3122 Y27.6553
G01 X25.3049 Y27.6514
G01 X25.2922 Y27.6455
G01 X25.2750 Y27.6393
G01 X25.2594 Y27.6354
G01 X25.2533 Y27.6342
G01 X25.2394 Y27.6322
G01 X25.2212 Y27.6314
G01 X25.2031 Y27.6322
G01 X25.1892 Y27.6342
G01 X25.1810 Y27.6358
G01 X25.1635 Y27.6406
G01 X25.1503 Y27.6455
G01 X24.9774 Y27.7171
G01 X24.7813 Y27.7561
G01 X24.5815 Y27.7561
G01 X24.3854 Y27.7171
G01 X24.2008 Y27.6406
G01 X24.0346 Y27.5296
G01 X23.8932 Y27.3882
G01 X23.7822 Y27.2220
G01 X23.7057 Y27.0374
G01 X23.6667 Y26.8413
G01 X23.6667 Y26.6619
G01 X23.6658 Y26.6459
G01 X23.6639 Y26.6320
G01 X23.6627 Y26.6258
G01 X23.6587 Y26.6103
G01 X23.6526 Y26.5931
G01 X23.6448 Y26.5767
G01 X23.6355 Y26.5611
G01 X23.6246 Y26.5465
G01 X23.6124 Y26.5330
G01 X23.5990 Y26.5208
G01 X23.5843 Y26.5100
G01 X23.5669 Y26.4997
G01 X23.5523 Y26.4928
G01 X23.5392 Y26.4880
G01 X23.5332 Y26.4861
G01 X23.5175 Y26.4823
G01 X23.5016 Y26.4799
G01 X23.4954 Y26.4793
G01 X23.4814 Y26.4787
G01 X23.4674 Y26.4793
G01 X23.4612 Y26.4799
G01 X23.4452 Y26.4823
G01 X23.4296 Y26.4861
G01 X23.4236 Y26.4880
G01 X23.4105 Y26.4928
G01 X23.3959 Y26.4997
G01 X23.3767 Y26.5112
G01 X23.3638 Y26.5208
G01 X23.3504 Y26.5330
G01 X23.3382 Y26.5465
G01 X23.3285 Y26.5594
G01 X23.3170 Y26.5785
G01 X23.3110 Y26.5912
G01 X23.3065 Y26.6021
G01 X23.1626 Y26.8175
G01 X22.9795 Y27.0006
G01 X22.7641 Y27.1445
G01 X22.5249 Y27.2436
G01 X22.2709 Y27.2941
G01 X22.0119 Y27.2941
G01 X21.7579 Y27.2436
G01 X21.7183 Y27.2271
G01 X21.7031 Y27.2217
G01 X21.6835 Y27.2166
G01 X21.6676 Y27.2142
G01 X21.6515 Y27.2131
G01 X21.6432 Y27.2131
G01 X21.6292 Y27.2139
G01 X21.6112 Y27.2166
G01 X21.5936 Y27.2210
G01 X21.5803 Y27.2256
G01 X21.5726 Y27.2288
G01 X21.5564 Y27.2370
G01 X21.5444 Y27.2443
G01 X21.5331 Y27.2525
G01 X21.5282 Y27.2565
G01 X21.5163 Y27.2673
G01 X20.6436 Y28.1401
G01 X20.6329 Y28.1520
G01 X20.6244 Y28.1632
G01 X20.6209 Y28.1684
G01 X20.6127 Y28.1822
G01 X20.6049 Y28.1987
G01 X20.6001 Y28.2118
G01 X20.5977 Y28.2198
G01 X20.5940 Y28.2355
G01 X20.5917 Y28.2514
G01 X20.5908 Y28.2696
G01 X20.5908 Y36.4154
G01 X20.5917 Y36.4335
G01 X20.5944 Y36.4515
G01 X20.5994 Y36.4711
G01 X20.6041 Y36.4843
G01 X20.6066 Y36.4901
G01 X20.6127 Y36.5027
G01 X20.6198 Y36.5148
G01 X20.6303 Y36.5296
G01 X20.6342 Y36.5345
G01 X20.6436 Y36.5449
G01 X20.6585 Y36.5586
G01 X20.6749 Y36.5706
G01 X20.6869 Y36.5778
G01 X20.6925 Y36.5807
G01 X20.7052 Y36.5865
G01 X20.7183 Y36.5914
G01 X20.7359 Y36.5962
G01 X20.7420 Y36.5975
G01 X20.7559 Y36.5995
G01 X20.7761 Y36.6007
G01 X20.7922 Y36.5999
G01 X20.7984 Y36.5993
G01 X20.8122 Y36.5971
G01 X20.8259 Y36.5938
G01 X20.8319 Y36.5920
G01 X20.8451 Y36.5873
G01 X20.8634 Y36.5788
G01 X20.8773 Y36.5706
G01 X20.8825 Y36.5670
G01 X20.8937 Y36.5586
G01 X20.9041 Y36.5493
G01 X20.9086 Y36.5449
G01 X20.9193 Y36.5329
G01 X20.9313 Y36.5165
G01 X20.9395 Y36.5027
G01 X20.9465 Y36.4882
G01 X21.0017 Y36.3549
G01 X21.1456 Y36.1395
G01 X21.3287 Y35.9564
G01 X21.5441 Y35.8125
G01 X21.7833 Y35.7134
G01 X22.0373 Y35.6629
G01 X22.2963 Y35.6629
G01 X22.5503 Y35.7134
G01 X22.7895 Y35.8125
G01 X23.0049 Y35.9564
G01 X23.1880 Y36.1395
G01 X23.3319 Y36.3549
G01 X23.4310 Y36.5941
G01 X23.4815 Y36.8481
G01 X23.4815 Y37.1071
G01 X23.4310 Y37.3611
G01 X23.3319 Y37.6003
G01 X23.1880 Y37.8157
G01 X23.0049 Y37.9988
G01 X22.7895 Y38.1427
G01 X22.7480 Y38.1599
G01 X22.7316 Y38.1679
G01 X22.7179 Y38.1762
G01 X22.7065 Y38.1845
G01 X22.7016 Y38.1884
G01 X22.6913 Y38.1978
G01 X22.6776 Y38.2127
G01 X22.6667 Y38.2273
G01 X22.6574 Y38.2429
G01 X22.6496 Y38.2594
G01 X22.6435 Y38.2765
G01 X22.6391 Y38.2941
G01 X22.6364 Y38.3121
G01 X22.6355 Y38.3303
G01 X22.6355 Y39.5919
G01 X22.6364 Y39.6100
G01 X22.6391 Y39.6280
G01 X22.6441 Y39.6477
G01 X22.6488 Y39.6609
G01 X22.6513 Y39.6666
G01 X22.6574 Y39.6792
G01 X22.6667 Y39.6948
G01 X22.6776 Y39.7094
G01 X22.6883 Y39.7214
G01 X22.7001 Y39.7324
G01 X22.7065 Y39.7377
G01 X22.7196 Y39.7471
G01 X22.7353 Y39.7563
G01 X22.7499 Y39.7631
G01 X22.7630 Y39.7679
G01 X22.7690 Y39.7698
G01 X22.7826 Y39.7732
G01 X22.9396 Y39.8045
G01 X23.1334 Y39.8847
G01 X23.3078 Y40.0012
G01 X23.4561 Y40.1495
G01 X23.5726 Y40.3239
G01 X23.6529 Y40.5177
G01 X23.6938 Y40.7234
G01 X23.6938 Y40.9331
G01 X23.6529 Y41.1388
G01 X23.5726 Y41.3326
G01 X23.4561 Y41.5069
G01 X23.3078 Y41.6552
G01 X23.1334 Y41.7718
G01 X22.9396 Y41.8520
G01 X22.7339 Y41.8929
G01 X22.5242 Y41.8929
G01 X22.3185 Y41.8520
G01 X22.1248 Y41.7718
G01 X22.1220 Y41.7699
G01 X21.9504 Y41.6552
G01 X21.8021 Y41.5069
G01 X21.6856 Y41.3326
G01 X21.6053 Y41.1388
G01 X21.5644 Y40.9331
G01 X21.5644 Y40.7234
G01 X21.6053 Y40.5177
G01 X21.6848 Y40.3257
G01 X21.6901 Y40.3106
G01 X21.6941 Y40.2950
G01 X21.6967 Y40.2791
G01 X21.6975 Y40.2708
G01 X21.6981 Y40.2568
G01 X21.6981 Y38.3303
G01 X21.6972 Y38.3121
G01 X21.6941 Y38.2921
G01 X21.6901 Y38.2765
G01 X21.6840 Y38.2594
G01 X21.6762 Y38.2429
G01 X21.6691 Y38.2309
G01 X21.6645 Y38.2239
G01 X21.6547 Y38.2111
G01 X21.6438 Y38.1993
G01 X21.6320 Y38.1884
G01 X21.6157 Y38.1762
G01 X21.6001 Y38.1669
G01 X21.5856 Y38.1599
G01 X21.5441 Y38.1427
G01 X21.3287 Y37.9988
G01 X21.1456 Y37.8157
G01 X21.0017 Y37.6003
G01 X20.9465 Y37.4670
G01 X20.9405 Y37.4543
G01 X20.9375 Y37.4489
G01 X20.9302 Y37.4369
G01 X20.9219 Y37.4256
G01 X20.9180 Y37.4207
G01 X20.9086 Y37.4103
G01 X20.8953 Y37.3979
G01 X20.8790 Y37.3858
G01 X20.8653 Y37.3774
G01 X20.8470 Y37.3686
G01 X20.8299 Y37.3625
G01 X20.8122 Y37.3581
G01 X20.7963 Y37.3557
G01 X20.7761 Y37.3545
G01 X20.7579 Y37.3554
G01 X20.7399 Y37.3581
G01 X20.7223 Y37.3625
G01 X20.7052 Y37.3686
G01 X20.6887 Y37.3764
G01 X20.6732 Y37.3858
G01 X20.6585 Y37.3966
G01 X20.6451 Y37.4088
G01 X20.6329 Y37.4223
G01 X20.6220 Y37.4369
G01 X20.6127 Y37.4525
G01 X20.6049 Y37.4689
G01 X20.5988 Y37.4861
G01 X20.5944 Y37.5037
G01 X20.5915 Y37.5238
G01 X20.5908 Y37.5398
G01 X20.5908 Y39.7839
G01 X20.5914 Y39.7979
G01 X20.5922 Y39.8062
G01 X20.5953 Y39.8242
G01 X20.5994 Y39.8397
G01 X20.6057 Y39.8568
G01 X20.6127 Y39.8713
G01 X20.6220 Y39.8869
G01 X20.6329 Y39.9015
G01 X20.6422 Y39.9119
G01 X20.6466 Y39.9164
G01 X20.6569 Y39.9258
G01 X20.6714 Y39.9368
G01 X20.7678 Y40.0012
G01 X20.9161 Y40.1495
G01 X21.0326 Y40.3239
G01 X21.1129 Y40.5177
G01 X21.1538 Y40.7234
G01 X21.1538 Y40.9331
G01 X21.1129 Y41.1388
G01 X21.0326 Y41.3326
G01 X20.9161 Y41.5069
G01 X20.7678 Y41.6552
G01 X20.5934 Y41.7718
G01 X20.3996 Y41.8520
G01 X20.1939 Y41.8929
G01 X19.9842 Y41.8929
G01 X19.7785 Y41.8520
G01 X19.5848 Y41.7718
G01 X19.4104 Y41.6552
G01 X19.2621 Y41.5069
G01 X19.1456 Y41.3326
G01 X19.0653 Y41.1388
G01 X19.0244 Y40.9331
G01 X19.0244 Y40.7234
G01 X19.0653 Y40.5177
G01 X19.1456 Y40.3239
G01 X19.2621 Y40.1495
G01 X19.4104 Y40.0012
G01 X19.5728 Y39.8927
G01 X19.5840 Y39.8843
G01 X19.5888 Y39.8803
G01 X19.5991 Y39.8708
G01 X19.6100 Y39.8590
G01 X19.6198 Y39.8462
G01 X19.6244 Y39.8392
G01 X19.6325 Y39.8253
G01 X19.6401 Y39.8088
G01 X19.6454 Y39.7936
G01 X19.6498 Y39.7760
G01 X19.6525 Y39.7580
G01 X19.6533 Y39.7440
G01 X19.6534 Y28.0308
G01 X19.6527 Y28.0147
G01 X19.6511 Y27.9987
G01 X19.6602 Y27.9068
G01 X19.6870 Y27.8185
G01 X19.7305 Y27.7370
G01 X19.7891 Y27.6657
G01 X19.8015 Y27.6554
G01 X19.8134 Y27.6446
G01 X20.8535 Y26.6045
G01 X20.8643 Y26.5926
G01 X20.8683 Y26.5877
G01 X20.8765 Y26.5764
G01 X20.8859 Y26.5608
G01 X20.8936 Y26.5444
G01 X20.8985 Y26.5312
G01 X20.9004 Y26.5252
G01 X20.9042 Y26.5096
G01 X20.9066 Y26.4937
G01 X20.9072 Y26.4874
G01 X20.9078 Y26.4734
G01 X20.9070 Y26.4574
G01 X20.9042 Y26.4373
G01 X20.8998 Y26.4197
G01 X20.8944 Y26.4045
G01 X20.8772 Y26.3629
G01 X20.8267 Y26.1089
G01 X20.8267 Y25.8499
G01 X20.8772 Y25.5959
G01 X20.9763 Y25.3567
G01 X21.1202 Y25.1413
G01 X21.3033 Y24.9582
G01 X21.5187 Y24.8143
G01 X21.7579 Y24.7152
G01 X22.0119 Y24.6647
G01 X22.2709 Y24.6647
G01 X22.5249 Y24.7152
G01 X22.7641 Y24.8143
G01 X22.9795 Y24.9582
G01 X23.1626 Y25.1413
G01 X23.3065 Y25.3567
G01 X23.4056 Y25.5959
G01 X23.4561 Y25.8499
G01 X23.4561 Y26.1092
G01 X23.4539 Y26.1243
G01 X23.4530 Y26.1425
G01 X23.4539 Y26.1607
G01 X23.4570 Y26.1807
G01 X23.4604 Y26.1943
G01 X23.4623 Y26.2003
G01 X23.4671 Y26.2134
G01 X23.4730 Y26.2261
G01 X23.4759 Y26.2317
G01 X23.4831 Y26.2437
G01 X23.4951 Y26.2601
G01 X23.5059 Y26.2720
G01 X23.5103 Y26.2764
G01 X23.5208 Y26.2857
G01 X23.5320 Y26.2942
G01 X23.5371 Y26.2977
G01 X23.5510 Y26.3059
G01 X23.5694 Y26.3145
G01 X23.5826 Y26.3192
G01 X23.5886 Y26.3209
G01 X23.6022 Y26.3242
G01 X23.6160 Y26.3264
G01 X23.6223 Y26.3271
G01 X23.6363 Y26.3278
G01 X23.6565 Y26.3269
G01 X23.6765 Y26.3238
G01 X23.6901 Y26.3204
G01 X23.6961 Y26.3185
G01 X23.7093 Y26.3137
G01 X23.7220 Y26.3078
G01 X23.7275 Y26.3049
G01 X23.7413 Y26.2966
G01 X23.7559 Y26.2857
G01 X23.7663 Y26.2764
G01 X23.7723 Y26.2705
G01 X23.7842 Y26.2568
G01 X23.7924 Y26.2454
G01 X23.8932 Y26.0946
G01 X24.0346 Y25.9532
G01 X24.2008 Y25.8422
G01 X24.3854 Y25.7657
G01 X24.5815 Y25.7267
G01 X24.7813 Y25.7267
G01 X24.9774 Y25.7657
G01 X25.1620 Y25.8422
G01 X25.3282 Y25.9532
G01 X25.4696 Y26.0946
G01 X25.5806 Y26.2608
G01 X25.6571 Y26.4454
G01 X25.6961 Y26.6415
G01 X25.6961 Y26.8413
G01 X25.6571 Y27.0374
G01 X25.5855 Y27.2103
G01 X25.5806 Y27.2235
G01 X25.5758 Y27.2410
G01 X25.5742 Y27.2492
G01 X25.5721 Y27.2652
G01 X25.5714 Y27.2833
G01 X25.5722 Y27.2994
G01 X25.5742 Y27.3133
G01 X25.5754 Y27.3194
G01 X25.5793 Y27.3350
G01 X25.5855 Y27.3522
G01 X25.5914 Y27.3649
G01 X25.5942 Y27.3704
G01 X25.6026 Y27.3842
G01 X25.6134 Y27.3988
G01 X25.6227 Y27.4092
G01 X25.6271 Y27.4137
G01 X25.6391 Y27.4245
G01 X25.6520 Y27.4341
G01 X25.6572 Y27.4376
G01 X25.6693 Y27.4447
G01 X25.6838 Y27.4516
G01 X25.7049 Y27.4591
G01 X25.7205 Y27.4630
G01 X25.7343 Y27.4651
G01 X25.7406 Y27.4658
G01 X25.7567 Y27.4665
G01 X25.7727 Y27.4658
G01 X25.7790 Y27.4651
G01 X25.7928 Y27.4630
G01 X25.8064 Y27.4597
G01 X25.8124 Y27.4579
G01 X25.8276 Y27.4524
G01 X25.8440 Y27.4447
G01 X25.8561 Y27.4376
G01 X25.8613 Y27.4341
G01 X25.8742 Y27.4245
G01 X25.8877 Y27.4123
G01 X26.6095 Y26.6904
G01 X26.6204 Y26.6786
G01 X26.6243 Y26.6737
G01 X26.6326 Y26.6624
G01 X26.6419 Y26.6468
G01 X26.6497 Y26.6303
G01 X26.6545 Y26.6172
G01 X26.6569 Y26.6092
G01 X26.6610 Y26.5914
G01 X26.6629 Y26.5776
G01 X26.6638 Y26.5594
G01 X26.6638 Y18.8462
G01 X26.6629 Y18.8280
G01 X26.6610 Y18.8142
G01 X26.6598 Y18.8080
G01 X26.6558 Y18.7924
G01 X26.6497 Y18.7753
G01 X26.6438 Y18.7626
G01 X26.6348 Y18.7468
G01 X26.6302 Y18.7398
G01 X26.6217 Y18.7286
G01 X26.6095 Y18.7152
G01 X25.8750 Y17.9807
G01 X25.8632 Y17.9698
G01 X25.8583 Y17.9659
G01 X25.8470 Y17.9576
G01 X25.8332 Y17.9493
G01 X25.8149 Y17.9405
G01 X25.7958 Y17.9338
G01 X25.7822 Y17.9304
G01 X25.7760 Y17.9292
G01 X25.7622 Y17.9273
G01 X25.7482 Y17.9265
G01 X25.3302 Y17.9264
G01 X25.3141 Y17.9271
G01 X25.3079 Y17.9278
G01 X25.2941 Y17.9300
G01 X25.2764 Y17.9344
G01 X25.2612 Y17.9397
G01 X25.2555 Y17.9422
G01 X25.2429 Y17.9483
G01 X25.2308 Y17.9554
G01 X25.2160 Y17.9659
G01 X25.2095 Y17.9712
G01 X25.1977 Y17.9822
G01 X25.1883 Y17.9925
G01 X25.1844 Y17.9974
G01 X25.1750 Y18.0105
G01 X25.1658 Y18.0262
G01 X25.1590 Y18.0408
G01 X25.1523 Y18.0599
G01 X25.1485 Y18.0755
G01 X25.1458 Y18.0935
G01 X25.1449 Y18.1117
G01 X25.1458 Y18.1299
G01 X25.1485 Y18.1478
G01 X25.1529 Y18.1655
G01 X25.1590 Y18.1826
G01 X25.1658 Y18.1972
G01 X25.1750 Y18.2129
G01 X25.1844 Y18.2260
G01 X25.1897 Y18.2324
G01 X25.2022 Y18.2456
G01 X25.2127 Y18.2549
G01 X25.2255 Y18.2646
G01 X25.3282 Y18.3332
G01 X25.4696 Y18.4746
G01 X25.5806 Y18.6408
G01 X25.6571 Y18.8254
G01 X25.6961 Y19.0215
G01 X25.6961 Y19.2213
G01 X25.6571 Y19.4174
G01 X25.5806 Y19.6020
G01 X25.4696 Y19.7682
G01 X25.3282 Y19.9096
G01 X25.1620 Y20.0206
G01 X24.9774 Y20.0971
G01 X24.7813 Y20.1361
G01 X24.5815 Y20.1361
G01 X24.3854 Y20.0971
G01 X24.2008 Y20.0206
G01 X24.0346 Y19.9096
G01 X23.8932 Y19.7682
G01 X23.7822 Y19.6020
G01 X23.7057 Y19.4174
G01 X23.6667 Y19.2213
G01 X23.6667 Y19.0215
G01 X23.7057 Y18.8254
G01 X23.7822 Y18.6408
G01 X23.8932 Y18.4746
G01 X24.0346 Y18.3332
G01 X24.1355 Y18.2658
G01 X24.1485 Y18.2562
G01 X24.1651 Y18.2412
G01 X24.1758 Y18.2293
G01 X24.1842 Y18.2181
G01 X24.1878 Y18.2129
G01 X24.1950 Y18.2009
G01 X24.2038 Y18.1826
G01 X24.2105 Y18.1635
G01 X24.2139 Y18.1499
G01 X24.2150 Y18.1437
G01 X24.2170 Y18.1299
G01 X24.2178 Y18.1159
G01 X24.2179 Y18.1096
G01 X24.2172 Y18.0956
G01 X24.2143 Y18.0755
G01 X24.2093 Y18.0559
G01 X24.2038 Y18.0408
G01 X24.1979 Y18.0281
G01 X24.1950 Y18.0225
G01 X24.1866 Y18.0088
G01 X24.1771 Y17.9958
G01 X24.1731 Y17.9910
G01 X24.1636 Y17.9807
G01 X24.1533 Y17.9712
G01 X24.1485 Y17.9672
G01 X24.1355 Y17.9576
G01 X24.1218 Y17.9493
G01 X24.1162 Y17.9464
G01 X24.1035 Y17.9405
G01 X24.0884 Y17.9350
G01 X24.0667 Y17.9296
G01 X24.0507 Y17.9273
G01 X24.0326 Y17.9264
G01 X23.7712 Y17.9264
G01 X23.7551 Y17.9271
G01 X23.7330 Y17.9304
G01 X23.7174 Y17.9344
G01 X23.7042 Y17.9390
G01 X23.6984 Y17.9413
G01 X23.6838 Y17.9483
G01 X23.6665 Y17.9588
G01 X23.6536 Y17.9685
G01 X23.6402 Y17.9807
G01 X18.4163 Y23.2045
G01 X18.4054 Y23.2164
G01 X18.3952 Y23.2289
G01 X18.3238 Y23.2874
G01 X18.2904 Y23.3053
G01 X18.2767 Y23.3136
G01 X18.2621 Y23.3245
G01 X18.2486 Y23.3367
G01 X16.2396 Y25.3458
G01 X16.2303 Y25.3562
G01 X16.2195 Y25.3708
G01 X16.2101 Y25.3864
G01 X16.2040 Y25.3991
G01 X16.1975 Y25.4160
G01 X16.1951 Y25.4240
G01 X16.1918 Y25.4376
G01 X16.1891 Y25.4556
G01 X16.1883 Y25.4717
G01 X16.1883 Y25.4780
G01 X16.1891 Y25.4920
G01 X16.1911 Y25.5058
G01 X16.2143 Y25.6229
G01 X16.2143 Y25.8228
G01 X16.1753 Y26.0188
G01 X16.0988 Y26.2035
G01 X15.9877 Y26.3697
G01 X15.8464 Y26.5110
G01 X15.6802 Y26.6221
G01 X15.4956 Y26.6986
G01 X15.2995 Y26.7376
G01 X15.0996 Y26.7376
G01 X14.9036 Y26.6986
G01 X14.7189 Y26.6221
G01 X14.5527 Y26.5110
G01 X14.4114 Y26.3697
G01 X14.3312 Y26.2497
G01 X14.3217 Y26.2368
G01 X14.3177 Y26.2319
G01 X14.3082 Y26.2216
G01 X14.2947 Y26.2094
G01 X14.2801 Y26.1986
G01 X14.2645 Y26.1893
G01 X14.2500 Y26.1823
G01 X14.2442 Y26.1800
G01 X14.2310 Y26.1754
G01 X14.2174 Y26.1718
G01 X14.2113 Y26.1705
G01 X14.1953 Y26.1683
G01 X14.1793 Y26.1674
G01 X14.1730 Y26.1675
G01 X14.1590 Y26.1683
G01 X14.1452 Y26.1702
G01 X14.1390 Y26.1714
G01 X14.1234 Y26.1754
G01 X14.1082 Y26.1807
G01 X14.1024 Y26.1832
G01 X14.0898 Y26.1893
G01 X14.0760 Y26.1975
G01 X14.0596 Y26.2094
G01 X14.0462 Y26.2216
G01 X14.0339 Y26.2351
G01 X14.0231 Y26.2497
G01 X14.0138 Y26.2653
G01 X14.0060 Y26.2818
G01 X13.9999 Y26.2989
G01 X13.9951 Y26.3186
G01 X13.9928 Y26.3345
G01 X13.9919 Y26.3527
G01 X13.9919 Y26.8693
G01 X13.9926 Y26.8854
G01 X13.9941 Y26.9014
G01 X13.9851 Y26.9933
G01 X13.9583 Y27.0816
G01 X13.9148 Y27.1631
G01 X13.8562 Y27.2344
G01 X13.8438 Y27.2447
G01 X13.8319 Y27.2556
G01 X12.5086 Y28.5788
G01 X12.4964 Y28.5923
G01 X12.4856 Y28.6069
G01 X12.4762 Y28.6225
G01 X12.4677 Y28.6409
G01 X12.4618 Y28.6580
G01 X12.4584 Y28.6716
G01 X12.4572 Y28.6778
G01 X12.4553 Y28.6917
G01 X12.4545 Y28.7056
G01 X12.4544 Y28.7119
G01 X12.4551 Y28.7259
G01 X12.4579 Y28.7460
G01 X12.4623 Y28.7636
G01 X12.4693 Y28.7827
G01 X12.4753 Y28.7953
G01 X12.4783 Y28.8008
G01 X12.4880 Y28.8162
G01 X12.4964 Y28.8274
G01 X12.5058 Y28.8378
G01 X12.5101 Y28.8423
G01 X12.5205 Y28.8517
G01 X12.5367 Y28.8639
G01 X12.5542 Y28.8742
G01 X12.5668 Y28.8802
G01 X12.5727 Y28.8825
G01 X12.5859 Y28.8871
G01 X12.5994 Y28.8906
G01 X12.6174 Y28.8937
G01 X12.6236 Y28.8944
G01 X12.6397 Y28.8951
G01 X14.6030 Y28.8951
G01 X14.6542 Y28.9002
G01 X14.6947 Y28.9124
G01 X14.7320 Y28.9324
G01 X14.7647 Y28.9592
G01 X14.7915 Y28.9919
G01 X14.8114 Y29.0292
G01 X14.8237 Y29.0697
G01 X14.8288 Y29.1209
G01 X14.8288 Y30.4909
G01 X14.8296 Y30.5070
G01 X14.8316 Y30.5208
G01 X14.8327 Y30.5270
G01 X14.8367 Y30.5426
G01 X14.8429 Y30.5597
G01 X14.8488 Y30.5724
G01 X14.8516 Y30.5780
G01 X14.8600 Y30.5917
G01 X14.8708 Y30.6064
G01 X14.8830 Y30.6198
G01 X17.8578 Y33.5946
G01 X17.8697 Y33.6054
G01 X17.8821 Y33.6157
G01 X17.9407 Y33.6871
G01 X17.9842 Y33.7685
G01 X18.0110 Y33.8568
G01 X18.0200 Y33.9487
G01 X18.0185 Y33.9648
G01 X18.0178 Y33.9808
G01 X18.0178 Y39.7619
G01 X18.0187 Y39.7800
G01 X18.0213 Y39.7980
G01 X18.0246 Y39.8116
G01 X18.0264 Y39.8176
G01 X18.0319 Y39.8328
G01 X18.0397 Y39.8492
G01 X18.0468 Y39.8613
G01 X18.0514 Y39.8682
G01 X18.0612 Y39.8810
G01 X18.0721 Y39.8929
G01 X18.0824 Y39.9024
G01 X18.0872 Y39.9064
G01 X18.0984 Y39.9148
G01 X18.2278 Y40.0012
G01 X18.3761 Y40.1495
G01 X18.4926 Y40.3239
G01 X18.5729 Y40.5177
G01 X18.6138 Y40.7234
G01 X18.6138 Y40.9331
G01 X18.5729 Y41.1388
G01 X18.4926 Y41.3326
G01 X18.3761 Y41.5069
G01 X18.2278 Y41.6552
G01 X18.0534 Y41.7718
G01 X17.8596 Y41.8520
G01 X17.6539 Y41.8929
G01 X17.4442 Y41.8929
G01 X17.2385 Y41.8520
G01 X17.0448 Y41.7718
G01 X16.8704 Y41.6552
G01 X16.7221 Y41.5069
G01 X16.6056 Y41.3326
G01 X16.5253 Y41.1388
G01 X16.4844 Y40.9331
G01 X16.4844 Y40.7234
G01 X16.5253 Y40.5177
G01 X16.6056 Y40.3239
G01 X16.7221 Y40.1495
G01 X16.8704 Y40.0012
G01 X16.9998 Y39.9148
G01 X17.0110 Y39.9064
G01 X17.0158 Y39.9024
G01 X17.0261 Y39.8929
G01 X17.0370 Y39.8810
G01 X17.0467 Y39.8682
G01 X17.0514 Y39.8613
G01 X17.0585 Y39.8492
G01 X17.0663 Y39.8328
G01 X17.0724 Y39.8157
G01 X17.0759 Y39.8021
G01 X17.0775 Y39.7939
G01 X17.0797 Y39.7779
G01 X17.0804 Y39.7619
G01 X17.0804 Y34.2196
G01 X17.0795 Y34.2015
G01 X17.0768 Y34.1835
G01 X17.0724 Y34.1658
G01 X17.0654 Y34.1468
G01 X17.0585 Y34.1323
G01 X17.0491 Y34.1167
G01 X17.0383 Y34.1021
G01 X17.0261 Y34.0886
G01 X13.9202 Y30.9827
G01 X13.9067 Y30.9705
G01 X13.8921 Y30.9596
G01 X13.8783 Y30.9513
G01 X13.8728 Y30.9484
G01 X13.8601 Y30.9425
G01 X13.8429 Y30.9364
G01 X13.8274 Y30.9324
G01 X13.8212 Y30.9312
G01 X13.8073 Y30.9293
G01 X13.7913 Y30.9284
G01 X12.4212 Y30.9284
G01 X12.3700 Y30.9234
G01 X12.3296 Y30.9111
G01 X12.2923 Y30.8911
G01 X12.2596 Y30.8643
G01 X12.2327 Y30.8316
G01 X12.2128 Y30.7943
G01 X12.2005 Y30.7538
G01 X12.1955 Y30.7027
G01 X12.1955 Y29.3689
G01 X12.1946 Y29.3508
G01 X12.1915 Y29.3307
G01 X12.1881 Y29.3172
G01 X12.1862 Y29.3112
G01 X12.1814 Y29.2980
G01 X12.1755 Y29.2853
G01 X12.1665 Y29.2695
G01 X12.1631 Y29.2643
G01 X12.1547 Y29.2530
G01 X12.1412 Y29.2379
G01 X12.1261 Y29.2244
G01 X12.1149 Y29.2161
G01 X12.1096 Y29.2126
G01 X12.0975 Y29.2055
G01 X12.0849 Y29.1994
G01 X12.0792 Y29.1970
G01 X12.0640 Y29.1916
G01 X12.0484 Y29.1876
G01 X12.0422 Y29.1865
G01 X12.0283 Y29.1845
G01 X12.0123 Y29.1837
G01 X11.9920 Y29.1845
G01 X11.9761 Y29.1868
G01 X11.9700 Y29.1881
G01 X11.9564 Y29.1916
G01 X11.9412 Y29.1970
G01 X11.9210 Y29.2065
G01 X11.9072 Y29.2149
G01 X11.8959 Y29.2231
G01 X11.8910 Y29.2271
G01 X11.8807 Y29.2365
G01 X11.7811 Y29.3360
G01 X11.7702 Y29.3479
G01 X11.7580 Y29.3641
G01 X11.7497 Y29.3778
G01 X11.7468 Y29.3834
G01 X11.7409 Y29.3961
G01 X11.7354 Y29.4112
G01 X11.7300 Y29.4329
G01 X11.7277 Y29.4489
G01 X11.7268 Y29.4670
G01 X11.7268 Y31.2451
G01 X11.7275 Y31.2611
G01 X11.7282 Y31.2674
G01 X11.7304 Y31.2812
G01 X11.7348 Y31.2988
G01 X11.7409 Y31.3160
G01 X11.7468 Y31.3287
G01 X11.7497 Y31.3342
G01 X11.7580 Y31.3480
G01 X11.7676 Y31.3610
G01 X11.7716 Y31.3658
G01 X11.7811 Y31.3761
G01 X11.7946 Y31.3883
G01 X11.8092 Y31.3991
G01 X11.8211 Y31.4064
G01 X11.8266 Y31.4094
G01 X11.8412 Y31.4162
G01 X11.8563 Y31.4217
G01 X11.8624 Y31.4235
G01 X11.8760 Y31.4268
G01 X11.8940 Y31.4295
G01 X11.9121 Y31.4304
G01 X11.9261 Y31.4298
G01 X11.9344 Y31.4289
G01 X11.9523 Y31.4259
G01 X11.9659 Y31.4224
G01 X11.9811 Y31.4170
G01 X12.0745 Y31.3784
G01 X12.2319 Y31.3471
G01 X12.3924 Y31.3471
G01 X12.5498 Y31.3784
G01 X12.6980 Y31.4398
G01 X12.8315 Y31.5289
G01 X12.9449 Y31.6424
G01 X13.0341 Y31.7759
G01 X13.0955 Y31.9241
G01 X13.1268 Y32.0815
G01 X13.1268 Y32.2420
G01 X13.0955 Y32.3994
G01 X13.0341 Y32.5477
G01 X12.9449 Y32.6811
G01 X12.8315 Y32.7946
G01 X12.6980 Y32.8837
G01 X12.5575 Y32.9419
G01 X12.5393 Y32.9507
G01 X12.5255 Y32.9590
G01 X12.5109 Y32.9699
G01 X12.4974 Y32.9821
G01 X12.4852 Y32.9956
G01 X12.4744 Y33.0102
G01 X12.4671 Y33.0221
G01 X12.4641 Y33.0276
G01 X12.4573 Y33.0422
G01 X12.4518 Y33.0573
G01 X12.4500 Y33.0634
G01 X12.4467 Y33.0770
G01 X12.4446 Y33.0908
G01 X12.4439 Y33.0970
G01 X12.4432 Y33.1131
G01 X12.4439 Y33.1292
G01 X12.4446 Y33.1354
G01 X12.4467 Y33.1493
G01 X12.4505 Y33.1649
G01 X12.4581 Y33.1860
G01 X12.4650 Y33.2005
G01 X12.4744 Y33.2161
G01 X12.4852 Y33.2307
G01 X12.4974 Y33.2441
G01 X14.5761 Y35.3228
G01 X14.5880 Y35.3337
G01 X14.6004 Y35.3439
G01 X14.6590 Y35.4153
G01 X14.7025 Y35.4967
G01 X14.7293 Y35.5851
G01 X14.7384 Y35.6770
G01 X14.7368 Y35.6930
G01 X14.7361 Y35.7091
G01 X14.7361 Y39.5782
G01 X14.7370 Y39.5964
G01 X14.7397 Y39.6144
G01 X14.7435 Y39.6300
G01 X14.7454 Y39.6360
G01 X14.7502 Y39.6491
G01 X14.7561 Y39.6619
G01 X14.7590 Y39.6674
G01 X14.7673 Y39.6812
G01 X14.7769 Y39.6942
G01 X14.7809 Y39.6990
G01 X14.7904 Y39.7093
G01 X14.8007 Y39.7187
G01 X14.8055 Y39.7228
G01 X14.8185 Y39.7323
G01 X14.8322 Y39.7406
G01 X14.8378 Y39.7435
G01 X14.8505 Y39.7494
G01 X14.8636 Y39.7542
G01 X14.8716 Y39.7567
G01 X14.8873 Y39.7604
G01 X14.9032 Y39.7626
G01 X14.9172 Y39.7634
G01 X15.1139 Y39.7635
G01 X15.3196 Y39.8045
G01 X15.5134 Y39.8847
G01 X15.6878 Y40.0012
G01 X15.8361 Y40.1495
G01 X15.9526 Y40.3239
G01 X16.0329 Y40.5177
G01 X16.0738 Y40.7234
G01 X16.0738 Y40.9331
G01 X16.0329 Y41.1388
G01 X15.9526 Y41.3326
G01 X15.8361 Y41.5069
G01 X15.6878 Y41.6552
G01 X15.5134 Y41.7718
G01 X15.3196 Y41.8520
G01 X15.1139 Y41.8929
G01 X14.9042 Y41.8929
G01 X14.6985 Y41.8520
G01 X14.5048 Y41.7718
G01 X14.3304 Y41.6552
G01 X14.1821 Y41.5069
G01 X14.0656 Y41.3326
G01 X13.9853 Y41.1388
G01 X13.9444 Y40.9331
G01 X13.9444 Y40.7234
G01 X13.9740 Y40.5746
G01 X13.9761 Y40.5608
G01 X13.9769 Y40.5525
G01 X13.9775 Y40.5364
G01 X13.9766 Y40.5203
G01 X13.9744 Y40.5044
G01 X13.9701 Y40.4867
G01 X13.9649 Y40.4715
G01 X13.9617 Y40.4637
G01 X13.9536 Y40.4475
G01 X13.9463 Y40.4355
G01 X13.9368 Y40.4225
G01 X13.8758 Y40.3482
G01 X13.8323 Y40.2668
G01 X13.8055 Y40.1784
G01 X13.7964 Y40.0866
G01 X13.7980 Y40.0705
G01 X13.7987 Y40.0544
G01 X13.7987 Y35.9479
G01 X13.7980 Y35.9318
G01 X13.7973 Y35.9255
G01 X13.7951 Y35.9117
G01 X13.7918 Y35.8981
G01 X13.7901 Y35.8921
G01 X13.7846 Y35.8769
G01 X13.7778 Y35.8624
G01 X13.7748 Y35.8569
G01 X13.7675 Y35.8449
G01 X13.7592 Y35.8336
G01 X13.7553 Y35.8287
G01 X13.7444 Y35.8168
G01 X10.9494 Y33.0218
G01 X10.9375 Y33.0110
G01 X10.9251 Y33.0007
G01 X10.8665 Y32.9293
G01 X10.8230 Y32.8479
G01 X10.7962 Y32.7596
G01 X10.7872 Y32.6677
G01 X10.7887 Y32.6516
G01 X10.7894 Y32.6356
G01 X10.7894 Y29.2282
G01 X10.7887 Y29.2122
G01 X10.7872 Y29.1961
G01 X10.7962 Y29.1042
G01 X10.8255 Y29.0077
G01 X10.8290 Y28.9942
G01 X10.8303 Y28.9880
G01 X10.8326 Y28.9721
G01 X10.8334 Y28.9518
G01 X10.8327 Y28.9379
G01 X10.8320 Y28.9316
G01 X10.8299 Y28.9178
G01 X10.8261 Y28.9022
G01 X10.8193 Y28.8830
G01 X10.8125 Y28.8684
G01 X10.8095 Y28.8629
G01 X10.8022 Y28.8510
G01 X10.7940 Y28.8397
G01 X10.7900 Y28.8348
G01 X10.7792 Y28.8229
G01 X10.7673 Y28.8120
G01 X10.7624 Y28.8081
G01 X10.7511 Y28.7999
G01 X10.7373 Y28.7915
G01 X10.7229 Y28.7844
G01 X10.7152 Y28.7812
G01 X10.7019 Y28.7766
G01 X10.6843 Y28.7722
G01 X10.6684 Y28.7698
G01 X10.6621 Y28.7692
G01 X10.6482 Y28.7686
G01 X10.6300 Y28.7695
G01 X10.6141 Y28.7718
G01 X10.6079 Y28.7731
G01 X10.5944 Y28.7766
G01 X10.5772 Y28.7827
G01 X10.5627 Y28.7896
G01 X10.5572 Y28.7926
G01 X10.5452 Y28.7999
G01 X10.5322 Y28.8094
G01 X10.5171 Y28.8229
G01 X10.2184 Y29.1217
G01 X10.2075 Y29.1335
G01 X10.1977 Y29.1463
G01 X10.1931 Y29.1533
G01 X10.1860 Y29.1653
G01 X10.1790 Y29.1799
G01 X10.1715 Y29.2009
G01 X10.1677 Y29.2165
G01 X10.1655 Y29.2304
G01 X10.1648 Y29.2366
G01 X10.1641 Y29.2527
G01 X10.1641 Y32.7749
G01 X10.1650 Y32.7931
G01 X10.1677 Y32.8111
G01 X10.1727 Y32.8307
G01 X10.1774 Y32.8439
G01 X10.1799 Y32.8497
G01 X10.1860 Y32.8623
G01 X10.1931 Y32.8744
G01 X10.1965 Y32.8796
G01 X10.2049 Y32.8909
G01 X10.2184 Y32.9060
G01 X10.3800 Y33.0676
G01 X10.3919 Y33.0785
G01 X10.4043 Y33.0887
G01 X10.4629 Y33.1601
G01 X10.5064 Y33.2415
G01 X10.5332 Y33.3299
G01 X10.5423 Y33.4218
G01 X10.5407 Y33.4378
G01 X10.5400 Y33.4539
G01 X10.5400 Y33.8873
G01 X10.5409 Y33.9055
G01 X10.5432 Y33.9214
G01 X10.5445 Y33.9275
G01 X10.5480 Y33.9411
G01 X10.5541 Y33.9582
G01 X10.5609 Y33.9728
G01 X10.5640 Y33.9783
G01 X10.5712 Y33.9903
G01 X10.5808 Y34.0032
G01 X10.5943 Y34.0183
G01 X12.7778 Y36.2018
G01 X12.7897 Y36.2127
G01 X12.8021 Y36.2229
G01 X12.8607 Y36.2943
G01 X12.9042 Y36.3757
G01 X12.9310 Y36.4641
G01 X12.9400 Y36.5560
G01 X12.9385 Y36.5720
G01 X12.9378 Y36.5881
G01 X12.9378 Y39.7619
G01 X12.9385 Y39.7779
G01 X12.9392 Y39.7842
G01 X12.9413 Y39.7980
G01 X12.9452 Y39.8136
G01 X12.9527 Y39.8347
G01 X12.9597 Y39.8492
G01 X12.9668 Y39.8613
G01 X12.9714 Y39.8682
G01 X12.9812 Y39.8810
G01 X12.9921 Y39.8929
G01 X13.0024 Y39.9024
G01 X13.0072 Y39.9064
G01 X13.0184 Y39.9148
G01 X13.1478 Y40.0012
G01 X13.2961 Y40.1495
G01 X13.4126 Y40.3239
G01 X13.4929 Y40.5177
G01 X13.5338 Y40.7234
G01 X13.5338 Y40.9331
G01 X13.4929 Y41.1388
G01 X13.4126 Y41.3326
G01 X13.2961 Y41.5069
G01 X13.1478 Y41.6552
G01 X12.9734 Y41.7718
G01 X12.7796 Y41.8520
G01 X12.5739 Y41.8929
G01 X12.3642 Y41.8929
G01 X12.1585 Y41.8520
G01 X11.9648 Y41.7718
G01 X11.7904 Y41.6552
G01 X11.6421 Y41.5069
G01 X11.5256 Y41.3326
G01 X11.4453 Y41.1388
G01 X11.4044 Y40.9331
G01 X11.4044 Y40.7234
G01 X11.4453 Y40.5177
G01 X11.5256 Y40.3239
G01 X11.6421 Y40.1495
G01 X11.7904 Y40.0012
G01 X11.9198 Y39.9148
G01 X11.9326 Y39.9051
G01 X11.9476 Y39.8914
G01 X11.9583 Y39.8794
G01 X11.9680 Y39.8665
G01 X11.9764 Y39.8529
G01 X11.9804 Y39.8455
G01 X11.9863 Y39.8328
G01 X11.9924 Y39.8157
G01 X11.9968 Y39.7980
G01 X11.9993 Y39.7821
G01 X12.0004 Y39.7619
G01 X12.0004 Y36.8248
G01 X11.9995 Y36.8087
G01 X11.9968 Y36.7907
G01 X11.9924 Y36.7731
G01 X11.9863 Y36.7559
G01 X11.9785 Y36.7395
G01 X11.9691 Y36.7239
G01 X11.9583 Y36.7093
G01 X11.9476 Y36.6973
G01 X9.9771 Y34.7268
G01 X9.9652 Y34.7159
G01 X9.9603 Y34.7120
G01 X9.9490 Y34.7038
G01 X9.9370 Y34.6965
G01 X9.9315 Y34.6934
G01 X9.9170 Y34.6866
G01 X9.8978 Y34.6799
G01 X9.8822 Y34.6761
G01 X9.8642 Y34.6734
G01 X9.8461 Y34.6725
G01 X9.8321 Y34.6731
G01 X9.8237 Y34.6739
G01 X9.8058 Y34.6770
G01 X9.7923 Y34.6805
G01 X9.7751 Y34.6866
G01 X9.7587 Y34.6944
G01 X9.7466 Y34.7015
G01 X9.7318 Y34.7120
G01 X9.7253 Y34.7173
G01 X9.7150 Y34.7268
G01 X9.7028 Y34.7403
G01 X9.6920 Y34.7549
G01 X9.6836 Y34.7686
G01 X9.6749 Y34.7869
G01 X9.6687 Y34.8040
G01 X9.6639 Y34.8237
G01 X9.6619 Y34.8376
G01 X9.6613 Y34.8438
G01 X9.6608 Y34.8578
G01 X9.6608 Y35.2027
G01 X9.6557 Y35.2538
G01 X9.6434 Y35.2943
G01 X9.6235 Y35.3316
G01 X9.5967 Y35.3643
G01 X9.5640 Y35.3911
G01 X9.5267 Y35.4111
G01 X9.4862 Y35.4234
G01 X9.4350 Y35.4284
G01 X7.2532 Y35.4284
G01 X7.2020 Y35.4234
G01 X7.1616 Y35.4111
G01 X7.1243 Y35.3911
G01 X7.0916 Y35.3643
G01 X7.0647 Y35.3316
G01 X7.0448 Y35.2943
G01 X7.0325 Y35.2538
G01 X7.0275 Y35.2027
G01 X7.0275 Y33.6209
G01 X7.0325 Y33.5697
G01 X7.0448 Y33.5292
G01 X7.0647 Y33.4919
G01 X7.0916 Y33.4592
G01 X7.1243 Y33.4324
G01 X7.1616 Y33.4124
G01 X7.2020 Y33.4002
G01 X7.2532 Y33.3951
G01 X9.0617 Y33.3951
G01 X9.0778 Y33.3944
G01 X9.0979 Y33.3916
G01 X9.1135 Y33.3877
G01 X9.1195 Y33.3858
G01 X9.1326 Y33.3810
G01 X9.1453 Y33.3751
G01 X9.1509 Y33.3722
G01 X9.1647 Y33.3639
G01 X9.1776 Y33.3544
G01 X9.1824 Y33.3503
G01 X9.1927 Y33.3408
G01 X9.2022 Y33.3305
G01 X9.2063 Y33.3257
G01 X9.2158 Y33.3128
G01 X9.2261 Y33.2953
G01 X9.2321 Y33.2827
G01 X9.2344 Y33.2768
G01 X9.2390 Y33.2636
G01 X9.2425 Y33.2501
G01 X9.2438 Y33.2439
G01 X9.2459 Y33.2301
G01 X9.2470 Y33.2098
G01 X9.2461 Y33.1917
G01 X9.2435 Y33.1737
G01 X9.2396 Y33.1580
G01 X9.2335 Y33.1377
G01 X9.2244 Y33.0458
G01 X9.2260 Y33.0298
G01 X9.2267 Y33.0137
G01 X9.2267 Y29.0139
G01 X9.2260 Y28.9978
G01 X9.2244 Y28.9818
G01 X9.2335 Y28.8899
G01 X9.2603 Y28.8016
G01 X9.3038 Y28.7201
G01 X9.3624 Y28.6488
G01 X9.3748 Y28.6385
G01 X9.3867 Y28.6277
G01 X11.4203 Y26.5940
G01 X11.4312 Y26.5822
G01 X11.4351 Y26.5773
G01 X11.4434 Y26.5660
G01 X11.4527 Y26.5504
G01 X11.4605 Y26.5339
G01 X11.4653 Y26.5208
G01 X11.4677 Y26.5128
G01 X11.4718 Y26.4950
G01 X11.4737 Y26.4812
G01 X11.4746 Y26.4630
G01 X11.4746 Y24.8660
G01 X11.4739 Y24.8499
G01 X11.4732 Y24.8437
G01 X11.4710 Y24.8298
G01 X11.4677 Y24.8162
G01 X11.4660 Y24.8102
G01 X11.4605 Y24.7951
G01 X11.4517 Y24.7768
G01 X11.4434 Y24.7630
G01 X11.4351 Y24.7517
G01 X11.4312 Y24.7468
G01 X11.4203 Y24.7350
G01 X10.8317 Y24.1464
G01 X10.8182 Y24.1342
G01 X10.7366 Y24.0671
G01 X10.7263 Y24.0547
G01 X10.7155 Y24.0428
G01 X9.2851 Y22.6124
G01 X9.2732 Y22.6016
G01 X9.2608 Y22.5913
G01 X9.2022 Y22.5200
G01 X9.1587 Y22.4385
G01 X9.1319 Y22.3502
G01 X9.1242 Y22.2723
G00 Z2.0000
G00 X8.5091 Y25.6146
G01 F50.00
G01 Z-0.1999
G01 F120.00
G01 X8.5117 Y25.6060
G01 X8.5496 Y25.5004
G01 X8.5993 Y25.3953
G01 X8.6591 Y25.2955
G01 X8.7284 Y25.2021
G01 X8.8065 Y25.1159
G01 X8.8927 Y25.0378
G01 X8.9861 Y24.9685
G01 X9.0859 Y24.9087
G01 X9.1910 Y24.8590
G01 X9.3005 Y24.8198
G01 X9.4134 Y24.7915
G01 X9.5284 Y24.7745
G01 X9.6446 Y24.7687
G01 X9.7608 Y24.7745
G01 X9.8758 Y24.7915
G01 X9.9887 Y24.8198
G01 X10.0982 Y24.8590
G01 X10.2033 Y24.9087
G01 X10.3031 Y24.9685
G01 X10.3965 Y25.0378
G01 X10.4827 Y25.1159
G01 X10.5608 Y25.2021
G01 X10.6301 Y25.2955
G01 X10.6899 Y25.3953
G01 X10.7396 Y25.5004
G01 X10.7788 Y25.6099
G01 X10.8071 Y25.7228
G01 X10.8241 Y25.8378
G01 X10.8298 Y25.9540
G01 X10.8241 Y26.0702
G01 X10.8071 Y26.1852
G01 X10.7788 Y26.2981
G01 X10.7396 Y26.4076
G01 X10.6918 Y26.5090
G01 X10.6878 Y26.5164
G01 X10.6301 Y26.6125
G01 X10.5608 Y26.7059
G01 X10.4856 Y26.7891
G01 X10.4797 Y26.7950
G01 X10.3997 Y26.8675
G01 X10.3932 Y26.8728
G01 X10.3031 Y26.9395
G01 X10.2033 Y26.9993
G01 X10.0982 Y27.0490
G01 X9.9926 Y27.0869
G01 X9.9846 Y27.0893
G01 X9.8799 Y27.1156
G01 X9.8717 Y27.1172
G01 X9.7608 Y27.1335
G01 X9.6446 Y27.1392
G01 X9.5284 Y27.1335
G01 X9.4175 Y27.1172
G01 X9.4093 Y27.1156
G01 X9.3046 Y27.0893
G01 X9.2966 Y27.0869
G01 X9.1910 Y27.0490
G01 X9.0859 Y26.9993
G01 X8.9861 Y26.9395
G01 X8.8960 Y26.8728
G01 X8.8895 Y26.8675
G01 X8.8095 Y26.7950
G01 X8.8036 Y26.7891
G01 X8.7284 Y26.7059
G01 X8.6591 Y26.6125
G01 X8.5993 Y26.5127
G01 X8.5513 Y26.4114
G01 X8.5481 Y26.4037
G01 X8.5117 Y26.3020
G01 X8.5091 Y26.2934
G01 X7.0140 Y26.2934
G01 X5.0564 Y28.2510
G01 X5.0564 Y34.2081
G01 X7.6305 Y36.7823
G01 X7.6514 Y36.8055
G01 X7.6689 Y36.8288
G01 X7.6735 Y36.8358
G01 X7.6884 Y36.8608
G01 X7.7026 Y36.8909
G01 X7.7125 Y36.9183
G01 X7.7150 Y36.9263
G01 X7.7223 Y36.9566
G01 X7.7268 Y36.9875
G01 X7.7285 Y37.0208
G01 X7.7285 Y39.9574
G01 X7.7489 Y39.9650
G01 X7.8318 Y40.0044
G01 X7.9087 Y40.0506
G01 X7.9824 Y40.1053
G01 X8.0504 Y40.1669
G01 X8.1093 Y40.2318
G01 X8.1146 Y40.2382
G01 X8.1643 Y40.3052
G01 X8.1689 Y40.3122
G01 X8.2139 Y40.3874
G01 X8.2531 Y40.4703
G01 X8.2841 Y40.5567
G01 X8.3054 Y40.6417
G01 X8.3071 Y40.6499
G01 X8.3193 Y40.7324
G01 X8.3201 Y40.7407
G01 X8.3243 Y40.8282
G01 X8.3198 Y40.9199
G01 X8.3064 Y41.0107
G01 X8.2841 Y41.0997
G01 X8.2531 Y41.1861
G01 X8.2139 Y41.2691
G01 X8.1667 Y41.3478
G01 X8.1120 Y41.4216
G01 X8.0504 Y41.4896
G01 X7.9824 Y41.5512
G01 X7.9087 Y41.6059
G01 X7.8300 Y41.6531
G01 X7.7470 Y41.6923
G01 X7.6606 Y41.7232
G01 X7.5715 Y41.7455
G01 X7.4807 Y41.7590
G01 X7.3891 Y41.7635
G01 X7.2995 Y41.7592
G01 X7.2066 Y41.7455
G01 X7.1216 Y41.7243
G01 X7.1136 Y41.7219
G01 X7.0351 Y41.6938
G01 X7.0273 Y41.6906
G01 X6.9482 Y41.6531
G01 X6.8695 Y41.6059
G01 X6.7958 Y41.5512
G01 X6.7278 Y41.4896
G01 X6.6661 Y41.4216
G01 X6.6114 Y41.3478
G01 X6.5643 Y41.2691
G01 X6.5267 Y41.1900
G01 X6.5235 Y41.1822
G01 X6.4954 Y41.1037
G01 X6.4930 Y41.0957
G01 X6.4718 Y41.0107
G01 X6.4588 Y40.9241
G01 X6.4580 Y40.9157
G01 X6.4538 Y40.8282
G01 X6.4583 Y40.7366
G01 X6.4718 Y40.6458
G01 X6.4930 Y40.5608
G01 X6.4954 Y40.5528
G01 X6.5235 Y40.4742
G01 X6.5267 Y40.4665
G01 X6.5643 Y40.3874
G01 X6.6103 Y40.3104
G01 X6.6635 Y40.2382
G01 X6.6689 Y40.2318
G01 X6.7278 Y40.1669
G01 X6.7958 Y40.1053
G01 X6.8695 Y40.0506
G01 X6.9464 Y40.0044
G01 X7.0293 Y39.9650
G01 X7.0497 Y39.9574
G01 X7.0497 Y37.1614
G01 X4.4756 Y34.5872
G01 X4.4547 Y34.5640
G01 X4.4372 Y34.5407
G01 X4.4326 Y34.5337
G01 X4.4177 Y34.5087
G01 X4.4052 Y34.4824
G01 X4.4019 Y34.4747
G01 X4.3922 Y34.4472
G01 X4.3846 Y34.4170
G01 X4.3793 Y34.3820
G01 X4.3776 Y34.3487
G01 X4.3776 Y28.1105
G01 X4.3791 Y28.0793
G01 X4.3841 Y28.0442
G01 X4.3911 Y28.0160
G01 X4.3929 Y28.0099
G01 X4.4019 Y27.9845
G01 X4.4052 Y27.9768
G01 X4.4177 Y27.9505
G01 X4.4348 Y27.9219
G01 X4.4547 Y27.8952
G01 X4.4756 Y27.8720
G01 X6.6335 Y25.7140
G01 X6.6550 Y25.6944
G01 X6.6615 Y25.6891
G01 X6.6849 Y25.6718
G01 X6.7098 Y25.6568
G01 X6.7172 Y25.6528
G01 X6.7436 Y25.6405
G01 X6.7710 Y25.6305
G01 X6.7790 Y25.6281
G01 X6.8072 Y25.6211
G01 X6.8360 Y25.6168
G01 X6.8444 Y25.6159
G01 X6.8714 Y25.6146
G01 X8.5091 Y25.6146
G00 Z2.0000
G00 X7.6244 Y29.1118
G01 F50.00
G01 Z-0.1999
G01 F120.00
G01 X7.6243 Y30.7139
G01 X7.6234 Y30.7243
G01 X7.6218 Y30.7325
G01 X7.6187 Y30.7424
G01 X7.6143 Y30.7519
G01 X7.6088 Y30.7608
G01 X7.6023 Y30.7690
G01 X7.5964 Y30.7749
G01 X7.5882 Y30.7815
G01 X7.5829 Y30.7849
G01 X7.5756 Y30.7888
G01 X7.5639 Y30.7933
G01 X7.5516 Y30.7961
G01 X7.5391 Y30.7970
G01 X5.3391 Y30.7970
G01 X5.3287 Y30.7964
G01 X5.3184 Y30.7945
G01 X5.3084 Y30.7913
G01 X5.2989 Y30.7869
G01 X5.2900 Y30.7815
G01 X5.2819 Y30.7749
G01 X5.2746 Y30.7674
G01 X5.2694 Y30.7608
G01 X5.2630 Y30.7501
G01 X5.2582 Y30.7385
G01 X5.2559 Y30.7304
G01 X5.2548 Y30.7243
G01 X5.2539 Y30.7118
G01 X5.2539 Y29.1118
G01 X5.2545 Y29.1013
G01 X5.2564 Y29.0910
G01 X5.2596 Y29.0811
G01 X5.2639 Y29.0716
G01 X5.2682 Y29.0644
G01 X5.2746 Y29.0561
G01 X5.2819 Y29.0486
G01 X5.2900 Y29.0421
G01 X5.2971 Y29.0376
G01 X5.3027 Y29.0347
G01 X5.3144 Y29.0302
G01 X5.3266 Y29.0274
G01 X5.3391 Y29.0265
G01 X7.5412 Y29.0265
G01 X7.5496 Y29.0271
G01 X7.5578 Y29.0286
G01 X7.5659 Y29.0308
G01 X7.5737 Y29.0338
G01 X7.5793 Y29.0366
G01 X7.5865 Y29.0409
G01 X7.5932 Y29.0459
G01 X7.5994 Y29.0515
G01 X7.6050 Y29.0577
G01 X7.6100 Y29.0644
G01 X7.6143 Y29.0716
G01 X7.6179 Y29.0791
G01 X7.6207 Y29.0870
G01 X7.6227 Y29.0951
G01 X7.6240 Y29.1034
G01 X7.6244 Y29.1118
G00 Z2.0000
G00 X5.2291 Y28.9599
G01 F50.00
G01 Z-0.1999
G01 F120.00
G01 X5.2166 Y28.9697
G01 X5.2065 Y28.9791
G01 X5.1941 Y28.9928
G01 X5.1858 Y29.0038
G01 X5.1759 Y29.0193
G01 X5.1696 Y29.0316
G01 X5.1641 Y29.0443
G01 X5.1587 Y29.0607
G01 X5.1587 Y28.9036
G01 X5.1709 Y28.9164
G01 X5.1850 Y28.9292
G01 X5.1921 Y28.9350
G01 X5.2112 Y28.9490
G01 X5.2291 Y28.9599
G00 Z2.0000
G00 X4.3907 Y27.8132
G01 F50.00
G01 Z-0.1999
G01 F120.00
G01 X4.3719 Y27.8136
G01 X4.3529 Y27.8127
G01 X4.3437 Y27.8118
G01 X4.3249 Y27.8090
G01 X4.3158 Y27.8072
G01 X4.2974 Y27.8026
G01 X4.2886 Y27.7999
G01 X4.2707 Y27.7935
G01 X4.2622 Y27.7900
G01 X4.2450 Y27.7818
G01 X4.2368 Y27.7775
G01 X4.2205 Y27.7677
G01 X4.2129 Y27.7626
G01 X4.1976 Y27.7513
G01 X4.1905 Y27.7454
G01 X4.1764 Y27.7327
G01 X4.1699 Y27.7261
G01 X4.1571 Y27.7121
G01 X4.1513 Y27.7049
G01 X4.1399 Y27.6897
G01 X4.1348 Y27.6820
G01 X4.1250 Y27.6657
G01 X4.1207 Y27.6576
G01 X4.1126 Y27.6404
G01 X4.1090 Y27.6319
G01 X4.1026 Y27.6139
G01 X4.1000 Y27.6051
G01 X4.0953 Y27.5867
G01 X4.0935 Y27.5776
G01 X4.0908 Y27.5588
G01 X4.0899 Y27.5497
G01 X4.0889 Y27.5307
G01 X4.0912 Y5.2064
G01 X4.0918 Y5.1875
G01 X4.0943 Y5.1640
G01 X4.1389 Y4.8652
G01 X4.1444 Y4.8377
G01 X4.1526 Y4.8108
G01 X4.2491 Y4.5409
G01 X4.2599 Y4.5150
G01 X4.2731 Y4.4902
G01 X4.4226 Y4.2403
G01 X4.4358 Y4.2208
G01 X4.4536 Y4.1991
G01 X4.6457 Y3.9864
G01 X4.6656 Y3.9665
G01 X4.6872 Y3.9486
G01 X4.9415 Y3.7590
G01 X4.9597 Y3.7469
G01 X5.8275 Y3.2147
G01 X5.8360 Y3.2098
G01 X5.8539 Y3.2004
G01 X5.8628 Y3.1964
G01 X5.8816 Y3.1889
G01 X5.9009 Y3.1829
G01 X5.9104 Y3.1803
G01 X6.5124 Y3.0350
G01 X6.5233 Y3.0327
G01 X6.5437 Y3.0293
G01 X6.5570 Y3.0280
G01 X6.5799 Y3.0270
G01 X56.9733 Y3.0270
G01 X56.9969 Y3.0280
G01 X57.0060 Y3.0289
G01 X57.0203 Y3.0309
G01 X57.0338 Y3.0335
G01 X57.0567 Y3.0394
G01 X57.0790 Y3.0472
G01 X57.0917 Y3.0526
G01 X57.1088 Y3.0609
G01 X57.1291 Y3.0729
G01 X57.1405 Y3.0807
G01 X57.1556 Y3.0922
G01 X57.1732 Y3.1079
G01 X57.1829 Y3.1178
G01 X57.1955 Y3.1320
G01 X57.2097 Y3.1509
G01 X57.2172 Y3.1624
G01 X57.2268 Y3.1789
G01 X57.2352 Y3.1959
G01 X57.2406 Y3.2086
G01 X57.2484 Y3.2309
G01 X57.2533 Y3.2493
G01 X57.2561 Y3.2628
G01 X57.2589 Y3.2816
G01 X57.2601 Y3.2953
G01 X57.2609 Y3.3143
G01 X57.2858 Y29.6886
G01 X57.2847 Y29.7130
G01 X57.2889 Y29.7549
G01 X57.3010 Y29.7949
G01 X57.3208 Y29.8318
G01 X57.3473 Y29.8641
G01 X57.3797 Y29.8907
G01 X57.4166 Y29.9104
G01 X57.4566 Y29.9225
G01 X57.4878 Y29.9256
G01 X57.4986 Y29.9258
G01 X68.1398 Y29.9241
G01 X68.1634 Y29.9255
G01 X68.1913 Y29.9296
G01 X68.2187 Y29.9364
G01 X68.2452 Y29.9459
G01 X68.2708 Y29.9580
G01 X68.2911 Y29.9700
G01 X68.2988 Y29.9751
G01 X68.3140 Y29.9865
G01 X68.3212 Y29.9923
G01 X68.3319 Y30.0019
G01 X68.3449 Y30.0150
G01 X68.3545 Y30.0257
G01 X68.3632 Y30.0365
G01 X68.3717 Y30.0481
G01 X68.3768 Y30.0557
G01 X68.3866 Y30.0721
G01 X68.3910 Y30.0802
G01 X68.4009 Y30.1016
G01 X68.4104 Y30.1282
G01 X68.4173 Y30.1556
G01 X68.4214 Y30.1835
G01 X68.4228 Y30.2117
G01 X68.4227 Y45.1932
G01 X68.4218 Y45.2122
G01 X68.4209 Y45.2213
G01 X68.4181 Y45.2402
G01 X68.4153 Y45.2537
G01 X68.4117 Y45.2676
G01 X68.4075 Y45.2808
G01 X68.4009 Y45.2986
G01 X68.3930 Y45.3159
G01 X68.3866 Y45.3282
G01 X68.3768 Y45.3445
G01 X68.3717 Y45.3521
G01 X68.3604 Y45.3674
G01 X68.3515 Y45.3780
G01 X68.3386 Y45.3919
G01 X68.3177 Y45.4109
G01 X68.2950 Y45.4277
G01 X68.2708 Y45.4422
G01 X68.2453 Y45.4543
G01 X68.2274 Y45.4609
G01 X68.2143 Y45.4651
G01 X68.1958 Y45.4697
G01 X68.1868 Y45.4715
G01 X68.1680 Y45.4743
G01 X68.1542 Y45.4755
G01 X68.1398 Y45.4761
G01 X68.1260 Y45.4759
G01 X68.1070 Y45.4748
G01 X68.0889 Y45.4723
G01 X68.1025 Y45.5013
G01 X68.1077 Y45.5141
G01 X68.1190 Y45.5463
G01 X68.1275 Y45.5794
G01 X68.1303 Y45.5929
G01 X68.1353 Y45.6267
G01 X68.1365 Y45.6404
G01 X68.1379 Y45.6700
G01 X68.1380 Y48.2224
G01 X68.1430 Y48.2447
G01 X68.1480 Y48.2785
G01 X68.1492 Y48.2922
G01 X68.1507 Y48.3263
G01 X68.1507 Y58.0647
G01 X68.1492 Y58.0988
G01 X68.1480 Y58.1125
G01 X68.1422 Y58.1508
G01 X68.1317 Y58.1929
G01 X68.1171 Y58.2337
G01 X68.1027 Y58.2647
G01 X68.0940 Y58.2809
G01 X68.0787 Y58.3062
G01 X68.0736 Y58.3139
G01 X68.0504 Y58.3449
G01 X68.0245 Y58.3737
G01 X63.9726 Y62.4258
G01 X63.9474 Y62.4488
G01 X63.9368 Y62.4577
G01 X63.9056 Y62.4807
G01 X63.8765 Y62.4984
G01 X63.8644 Y62.5051
G01 X63.8293 Y62.5215
G01 X63.7885 Y62.5361
G01 X63.7554 Y62.5446
G01 X63.7373 Y62.5482
G01 X63.7081 Y62.5525
G01 X63.6989 Y62.5534
G01 X63.6602 Y62.5551
G01 X62.4517 Y62.5551
G01 X62.4645 Y62.5674
G01 X62.4773 Y62.5815
G01 X62.4831 Y62.5886
G01 X62.4944 Y62.6039
G01 X62.4995 Y62.6115
G01 X62.5093 Y62.6278
G01 X62.5137 Y62.6360
G01 X62.5218 Y62.6531
G01 X62.5269 Y62.6660
G01 X62.5331 Y62.6840
G01 X62.5400 Y62.7113
G01 X62.5441 Y62.7392
G01 X62.5455 Y62.7674
G01 X62.5441 Y62.7956
G01 X62.5400 Y62.8235
G01 X62.5331 Y62.8509
G01 X62.5269 Y62.8689
G01 X62.5218 Y62.8817
G01 X62.5137 Y62.8989
G01 X62.5093 Y62.9070
G01 X62.4995 Y62.9234
G01 X62.4944 Y62.9310
G01 X62.4831 Y62.9463
G01 X62.4773 Y62.9534
G01 X62.4645 Y62.9675
G01 X62.4531 Y62.9785
G01 X62.4661 Y62.9779
G01 X62.4799 Y62.9781
G01 X62.6516 Y62.9868
G01 X62.8216 Y63.0118
G01 X62.8397 Y63.0154
G01 X63.0064 Y63.0574
G01 X63.1683 Y63.1151
G01 X63.1853 Y63.1221
G01 X63.3324 Y63.1917
G01 X63.3487 Y63.2003
G01 X63.4960 Y63.2889
G01 X63.6342 Y63.3911
G01 X63.6484 Y63.4028
G01 X63.7757 Y63.5184
G01 X63.8973 Y63.6526
G01 X63.9999 Y63.7906
G01 X64.0101 Y63.8059
G01 X64.0938 Y63.9454
G01 X64.1024 Y63.9617
G01 X64.1757 Y64.1172
G01 X64.2339 Y64.2790
G01 X64.2392 Y64.2966
G01 X64.2807 Y64.4634
G01 X64.3062 Y64.6334
G01 X64.3080 Y64.6517
G01 X64.3162 Y64.8234
G01 X64.3080 Y64.9952
G01 X64.3062 Y65.0135
G01 X64.2807 Y65.1835
G01 X64.2392 Y65.3503
G01 X64.2339 Y65.3679
G01 X64.1757 Y65.5297
G01 X64.1024 Y65.6852
G01 X64.0938 Y65.7014
G01 X64.0077 Y65.8449
G01 X63.9999 Y65.8563
G01 X63.8973 Y65.9942
G01 X63.7820 Y66.1218
G01 X63.7690 Y66.1348
G01 X63.6484 Y66.2441
G01 X63.6342 Y66.2557
G01 X63.4960 Y66.3580
G01 X63.3487 Y66.4465
G01 X63.3324 Y66.4552
G01 X63.1769 Y66.5285
G01 X63.0064 Y66.5895
G01 X62.8307 Y66.6335
G01 X62.6607 Y66.6590
G01 X62.6424 Y66.6608
G01 X62.4707 Y66.6690
G01 X62.2898 Y66.6601
G01 X62.1106 Y66.6335
G01 X61.9438 Y66.5920
G01 X61.9262 Y66.5866
G01 X61.7644 Y66.5285
G01 X61.6089 Y66.4552
G01 X61.5927 Y66.4465
G01 X61.4531 Y66.3629
G01 X61.4376 Y66.3525
G01 X61.4415 Y66.3703
G01 X61.4443 Y66.3891
G01 X61.4452 Y66.3983
G01 X61.4462 Y66.4173
G01 X61.4460 Y66.4311
G01 X61.4448 Y66.4501
G01 X61.4423 Y66.4690
G01 X61.4397 Y66.4825
G01 X61.4351 Y66.5010
G01 X61.4309 Y66.5142
G01 X61.4243 Y66.5320
G01 X61.4164 Y66.5493
G01 X61.4100 Y66.5616
G01 X61.4002 Y66.5779
G01 X61.3951 Y66.5855
G01 X61.3837 Y66.6008
G01 X61.3748 Y66.6114
G01 X61.3619 Y66.6253
G01 X61.3410 Y66.6443
G01 X61.3183 Y66.6611
G01 X61.3021 Y66.6710
G01 X61.2900 Y66.6777
G01 X61.2728 Y66.6858
G01 X61.2643 Y66.6893
G01 X61.2463 Y66.6957
G01 X61.2331 Y66.6996
G01 X61.2145 Y66.7040
G01 X61.1958 Y66.7070
G01 X61.1820 Y66.7085
G01 X61.1630 Y66.7094
G01 X50.6453 Y66.7020
G01 X50.6263 Y66.7011
G01 X50.6171 Y66.7002
G01 X50.5983 Y66.6974
G01 X50.5848 Y66.6945
G01 X50.5664 Y66.6896
G01 X50.5484 Y66.6834
G01 X50.5356 Y66.6783
G01 X50.5184 Y66.6702
G01 X50.5064 Y66.6635
G01 X50.4902 Y66.6535
G01 X50.4675 Y66.6367
G01 X50.4466 Y66.6177
G01 X50.4337 Y66.6038
G01 X50.4248 Y66.5932
G01 X50.4135 Y66.5780
G01 X50.4084 Y66.5703
G01 X50.3986 Y66.5540
G01 X50.3922 Y66.5417
G01 X50.3843 Y66.5244
G01 X50.3777 Y66.5066
G01 X50.3735 Y66.4935
G01 X50.3689 Y66.4750
G01 X50.3664 Y66.4614
G01 X50.3639 Y66.4426
G01 X50.3625 Y66.4144
G01 X50.3632 Y66.3954
G01 X50.3644 Y66.3817
G01 X50.3672 Y66.3628
G01 X50.3705 Y66.3475
G01 X50.3598 Y66.3554
G01 X50.3482 Y66.3629
G01 X50.2087 Y66.4465
G01 X50.1924 Y66.4552
G01 X50.0369 Y66.5285
G01 X49.8664 Y66.5895
G01 X49.6997 Y66.6315
G01 X49.6816 Y66.6351
G01 X49.5116 Y66.6601
G01 X49.3307 Y66.6690
G01 X49.1498 Y66.6601
G01 X48.9797 Y66.6351
G01 X48.9616 Y66.6315
G01 X48.7949 Y66.5895
G01 X48.6244 Y66.5285
G01 X48.4689 Y66.4552
G01 X48.4527 Y66.4465
G01 X48.3131 Y66.3629
G01 X48.3015 Y66.3554
G01 X48.2891 Y66.3462
G01 X48.2915 Y66.3566
G01 X48.2930 Y66.3656
G01 X48.2951 Y66.3799
G01 X48.2963 Y66.3937
G01 X48.2969 Y66.4081
G01 X48.2969 Y66.4173
G01 X48.2960 Y66.4363
G01 X48.2945 Y66.4500
G01 X48.2923 Y66.4643
G01 X48.2905 Y66.4733
G01 X48.2859 Y66.4918
G01 X48.2832 Y66.5006
G01 X48.2768 Y66.5185
G01 X48.2732 Y66.5270
G01 X48.2651 Y66.5442
G01 X48.2584 Y66.5563
G01 X48.2510 Y66.5686
G01 X48.2458 Y66.5763
G01 X48.2345 Y66.5916
G01 X48.2287 Y66.5987
G01 X48.2159 Y66.6128
G01 X48.2094 Y66.6193
G01 X48.1953 Y66.6321
G01 X48.1881 Y66.6379
G01 X48.1728 Y66.6492
G01 X48.1652 Y66.6543
G01 X48.1489 Y66.6641
G01 X48.1407 Y66.6685
G01 X48.1235 Y66.6766
G01 X48.1150 Y66.6801
G01 X48.0971 Y66.6865
G01 X48.0838 Y66.6903
G01 X48.0653 Y66.6947
G01 X48.0420 Y66.6983
G01 X48.0282 Y66.6995
G01 X48.0092 Y66.7002
G01 X46.9063 Y66.6994
G01 X46.8827 Y66.6980
G01 X46.8548 Y66.6939
G01 X46.8319 Y66.6883
G01 X46.8231 Y66.6856
G01 X46.8095 Y66.6808
G01 X46.7925 Y66.6738
G01 X46.7795 Y66.6675
G01 X46.7714 Y66.6632
G01 X46.7512 Y66.6509
G01 X46.7286 Y66.6341
G01 X46.7077 Y66.6151
G01 X46.6917 Y66.5978
G01 X46.6859 Y66.5906
G01 X46.6772 Y66.5791
G01 X46.6670 Y66.5638
G01 X46.6596 Y66.5514
G01 X46.6553 Y66.5433
G01 X46.6454 Y66.5219
G01 X46.6359 Y66.4953
G01 X46.6300 Y66.4724
G01 X46.6274 Y66.4589
G01 X46.6249 Y66.4400
G01 X46.6235 Y66.4118
G01 X46.6235 Y64.6751
G01 X46.6245 Y64.6508
G01 X46.6204 Y64.6089
G01 X46.6082 Y64.5689
G01 X46.5986 Y64.5511
G01 X46.5884 Y64.5320
G01 X46.5618 Y64.4997
G01 X46.5294 Y64.4733
G01 X46.4925 Y64.4536
G01 X46.4524 Y64.4415
G01 X46.4109 Y64.4374
G01 X46.3866 Y64.4385
G01 X5.8924 Y64.5020
G01 X5.8694 Y64.5011
G01 X5.6202 Y64.4815
G01 X5.5951 Y64.4784
G01 X5.5703 Y64.4731
G01 X5.2778 Y64.3968
G01 X5.2554 Y64.3896
G01 X5.2295 Y64.3786
G01 X4.9659 Y64.2512
G01 X4.9492 Y64.2423
G01 X4.9374 Y64.2353
G01 X4.9180 Y64.2220
G01 X4.6841 Y64.0457
G01 X4.6625 Y64.0277
G01 X4.6428 Y64.0077
G01 X4.4476 Y63.7894
G01 X4.4300 Y63.7676
G01 X4.4145 Y63.7441
G01 X4.2803 Y63.5168
G01 X4.2711 Y63.4986
G01 X4.2625 Y63.4776
G01 X4.2582 Y63.4649
G01 X4.2523 Y63.4431
G01 X4.0920 Y62.7191
G01 X4.0883 Y62.6983
G01 X4.0869 Y62.6882
G01 X4.0853 Y62.6620
G01 X4.0881 Y34.9323
G01 X4.0895 Y34.9041
G01 X4.0936 Y34.8762
G01 X4.1005 Y34.8488
G01 X4.1100 Y34.8222
G01 X4.1221 Y34.7967
G01 X4.1366 Y34.7725
G01 X4.1534 Y34.7498
G01 X4.1660 Y34.7356
G01 X4.1756 Y34.7257
G01 X4.1897 Y34.7129
G01 X4.1969 Y34.7071
G01 X4.2121 Y34.6958
G01 X4.2198 Y34.6906
G01 X4.2361 Y34.6809
G01 X4.2442 Y34.6765
G01 X4.2614 Y34.6684
G01 X4.2699 Y34.6649
G01 X4.2878 Y34.6585
G01 X4.2966 Y34.6558
G01 X4.3151 Y34.6512
G01 X4.3241 Y34.6494
G01 X4.3429 Y34.6466
G01 X4.3521 Y34.6457
G01 X4.3711 Y34.6447
G01 X4.3900 Y34.6452
G01 X4.3785 Y34.6324
G01 X4.3727 Y34.6253
G01 X4.3551 Y34.6016
G01 X4.3472 Y34.5902
G01 X4.3275 Y34.5569
G01 X4.3127 Y34.5261
G01 X4.3072 Y34.5134
G01 X4.2943 Y34.4769
G01 X4.2838 Y34.4349
G01 X4.2774 Y34.3920
G01 X4.2754 Y34.3533
G01 X4.2753 Y28.1105
G01 X4.2774 Y28.0672
G01 X4.2838 Y28.0243
G01 X4.2943 Y27.9822
G01 X4.3072 Y27.9457
G01 X4.3127 Y27.9330
G01 X4.3275 Y27.9023
G01 X4.3472 Y27.8689
G01 X4.3551 Y27.8575
G01 X4.3727 Y27.8339
G01 X4.3785 Y27.8267
G01 X4.3907 Y27.8132
G00 Z2.0000
G00 X4.2226 Y27.8843
G01 F50.00
G01 Z-0.1999
G01 F120.00
G01 X4.2054 Y27.8763
G01 X4.1926 Y27.8699
G01 X4.1718 Y27.8579
G01 X4.1540 Y27.8462
G01 X4.1291 Y27.8275
G01 X4.1058 Y27.8067
G01 X4.0958 Y27.7967
G01 X4.0843 Y27.7842
G01 X4.0706 Y27.7679
G01 X4.0523 Y27.7427
G01 X4.0360 Y27.7161
G01 X4.0293 Y27.7035
G01 X4.0220 Y27.6883
G01 X4.0136 Y27.6687
G01 X4.0033 Y27.6392
G01 X3.9955 Y27.6091
G01 X3.9928 Y27.5951
G01 X3.9902 Y27.5784
G01 X3.9878 Y27.5572
G01 X3.9866 Y27.5261
G01 X3.9889 Y5.2064
G01 X3.9897 Y5.1812
G01 X3.9910 Y5.1669
G01 X3.9932 Y5.1489
G01 X4.0377 Y4.8501
G01 X4.0402 Y4.8362
G01 X4.0452 Y4.8128
G01 X4.0518 Y4.7898
G01 X4.0563 Y4.7763
G01 X4.1528 Y4.5065
G01 X4.1579 Y4.4933
G01 X4.1674 Y4.4713
G01 X4.1783 Y4.4500
G01 X4.1853 Y4.4377
G01 X4.3362 Y4.1857
G01 X4.3536 Y4.1600
G01 X4.3730 Y4.1358
G01 X4.5698 Y3.9178
G01 X4.5795 Y3.9075
G01 X4.5967 Y3.8908
G01 X4.6149 Y3.8753
G01 X4.6261 Y3.8666
G01 X4.8822 Y3.6756
G01 X4.9062 Y3.6597
G01 X5.7740 Y3.1275
G01 X5.7871 Y3.1200
G01 X5.8098 Y3.1081
G01 X5.8236 Y3.1019
G01 X5.8474 Y3.0925
G01 X5.8718 Y3.0848
G01 X5.8864 Y3.0809
G01 X6.4884 Y2.9356
G01 X6.5052 Y2.9321
G01 X6.5304 Y2.9279
G01 X6.5509 Y2.9259
G01 X6.5799 Y2.9247
G01 X56.9733 Y2.9247
G01 X56.9973 Y2.9255
G01 X57.0185 Y2.9274
G01 X57.0493 Y2.9322
G01 X57.0727 Y2.9377
G01 X57.0932 Y2.9436
G01 X57.1224 Y2.9543
G01 X57.1443 Y2.9643
G01 X57.1632 Y2.9741
G01 X57.1898 Y2.9903
G01 X57.2093 Y3.0044
G01 X57.2259 Y3.0177
G01 X57.2488 Y3.0388
G01 X57.2652 Y3.0563
G01 X57.2790 Y3.0726
G01 X57.2973 Y3.0978
G01 X57.3100 Y3.1182
G01 X57.3203 Y3.1369
G01 X57.3334 Y3.1651
G01 X57.3418 Y3.1876
G01 X57.3483 Y3.2080
G01 X57.3556 Y3.2382
G01 X57.3595 Y3.2619
G01 X57.3619 Y3.2831
G01 X57.3632 Y3.3142
G01 X57.3881 Y29.6885
G01 X57.3873 Y29.7109
G01 X57.3897 Y29.7348
G01 X57.3960 Y29.7555
G01 X57.4062 Y29.7747
G01 X57.4200 Y29.7914
G01 X57.4367 Y29.8052
G01 X57.4559 Y29.8154
G01 X57.4766 Y29.8217
G01 X57.4932 Y29.8233
G01 X57.4985 Y29.8234
G01 X68.1423 Y29.8219
G01 X68.1734 Y29.8236
G01 X68.1972 Y29.8268
G01 X68.2112 Y29.8293
G01 X68.2346 Y29.8348
G01 X68.2483 Y29.8385
G01 X68.2778 Y29.8488
G01 X68.2909 Y29.8542
G01 X68.3127 Y29.8645
G01 X68.3252 Y29.8712
G01 X68.3398 Y29.8798
G01 X68.3518 Y29.8875
G01 X68.3634 Y29.8957
G01 X68.3770 Y29.9058
G01 X68.3880 Y29.9148
G01 X68.4109 Y29.9359
G01 X68.4207 Y29.9463
G01 X68.4366 Y29.9643
G01 X68.4512 Y29.9834
G01 X68.4594 Y29.9950
G01 X68.4756 Y30.0216
G01 X68.4823 Y30.0342
G01 X68.4926 Y30.0559
G01 X68.4981 Y30.0691
G01 X68.5038 Y30.0850
G01 X68.5083 Y30.0985
G01 X68.5121 Y30.1122
G01 X68.5161 Y30.1286
G01 X68.5189 Y30.1426
G01 X68.5232 Y30.1734
G01 X68.5248 Y30.1974
G01 X68.5251 Y30.2117
G01 X68.5250 Y45.1957
G01 X68.5232 Y45.2268
G01 X68.5189 Y45.2576
G01 X68.5161 Y45.2716
G01 X68.5121 Y45.2880
G01 X68.5083 Y45.3018
G01 X68.5039 Y45.3153
G01 X68.4981 Y45.3312
G01 X68.4926 Y45.3443
G01 X68.4791 Y45.3724
G01 X68.4721 Y45.3847
G01 X68.4594 Y45.4052
G01 X68.4410 Y45.4304
G01 X68.4320 Y45.4414
G01 X68.4207 Y45.4540
G01 X68.4109 Y45.4643
G01 X68.4006 Y45.4741
G01 X68.3880 Y45.4854
G01 X68.3770 Y45.4944
G01 X68.3577 Y45.5087
G01 X68.3459 Y45.5166
G01 X68.3190 Y45.5324
G01 X68.2909 Y45.5460
G01 X68.2778 Y45.5514
G01 X68.2552 Y45.5595
G01 X68.2416 Y45.5637
G01 X68.2295 Y45.5668
G01 X68.2323 Y45.5825
G01 X68.2377 Y45.6212
G01 X68.2387 Y45.6354
G01 X68.2403 Y45.6746
G01 X68.2403 Y48.2100
G01 X68.2425 Y48.2202
G01 X68.2450 Y48.2342
G01 X68.2504 Y48.2730
G01 X68.2514 Y48.2872
G01 X68.2530 Y48.3263
G01 X68.2530 Y58.0647
G01 X68.2514 Y58.1038
G01 X68.2504 Y58.1180
G01 X68.2486 Y58.1321
G01 X68.2425 Y58.1708
G01 X68.2394 Y58.1847
G01 X68.2296 Y58.2226
G01 X68.2167 Y58.2596
G01 X68.2088 Y58.2794
G01 X68.1920 Y58.3148
G01 X68.1853 Y58.3273
G01 X68.1652 Y58.3609
G01 X68.1573 Y58.3728
G01 X68.1339 Y58.4042
G01 X68.1249 Y58.4152
G01 X68.0986 Y58.4442
G01 X68.0793 Y58.4637
G01 X68.0967 Y58.4615
G01 X68.1108 Y58.4603
G01 X68.1345 Y58.4596
G01 X68.1557 Y58.4602
G01 X68.1724 Y58.4613
G01 X68.1933 Y58.4640
G01 X68.2167 Y58.4682
G01 X68.2398 Y58.4739
G01 X68.2600 Y58.4801
G01 X68.2823 Y58.4884
G01 X68.2953 Y58.4939
G01 X68.3166 Y58.5044
G01 X68.3290 Y58.5111
G01 X68.3493 Y58.5236
G01 X68.3609 Y58.5315
G01 X68.3799 Y58.5459
G01 X68.3959 Y58.5596
G01 X68.4132 Y58.5760
G01 X68.4292 Y58.5935
G01 X68.4384 Y58.6043
G01 X68.4469 Y58.6154
G01 X68.4607 Y58.6348
G01 X68.4731 Y58.6551
G01 X68.4800 Y58.6674
G01 X68.4863 Y58.6800
G01 X68.4960 Y58.7017
G01 X68.5043 Y58.7240
G01 X68.5087 Y58.7374
G01 X68.5124 Y58.7510
G01 X68.5178 Y58.7742
G01 X68.5216 Y58.7976
G01 X68.5239 Y58.8186
G01 X68.5251 Y58.8494
G01 X68.5251 Y64.1173
G01 X68.5239 Y64.1472
G01 X68.5215 Y64.1697
G01 X68.5177 Y64.1928
G01 X68.5106 Y64.2225
G01 X68.5039 Y64.2440
G01 X68.4958 Y64.2656
G01 X68.4861 Y64.2870
G01 X68.4758 Y64.3071
G01 X68.4640 Y64.3269
G01 X68.4512 Y64.3456
G01 X68.4370 Y64.3642
G01 X68.4167 Y64.3870
G01 X68.4006 Y64.4028
G01 X68.3830 Y64.4184
G01 X68.3587 Y64.4368
G01 X68.3398 Y64.4491
G01 X68.3195 Y64.4609
G01 X68.2921 Y64.4743
G01 X68.2711 Y64.4827
G01 X68.2489 Y64.4903
G01 X68.2195 Y64.4980
G01 X68.1973 Y64.5022
G01 X68.1740 Y64.5053
G01 X68.1439 Y64.5071
G01 X64.6057 Y64.5212
G01 X64.5745 Y64.5196
G01 X64.5435 Y64.5153
G01 X64.5295 Y64.5126
G01 X64.5130 Y64.5086
G01 X64.4924 Y64.5027
G01 X64.4630 Y64.4920
G01 X64.4346 Y64.4790
G01 X64.4220 Y64.4723
G01 X64.4013 Y64.4599
G01 X64.3816 Y64.4464
G01 X64.4074 Y64.6184
G01 X64.4091 Y64.6325
G01 X64.4102 Y64.6467
G01 X64.4182 Y64.8092
G01 X64.4185 Y64.8234
G01 X64.4182 Y64.8377
G01 X64.4102 Y65.0002
G01 X64.4091 Y65.0144
G01 X64.4074 Y65.0285
G01 X64.3835 Y65.1894
G01 X64.3811 Y65.2034
G01 X64.3780 Y65.2173
G01 X64.3384 Y65.3752
G01 X64.3346 Y65.3889
G01 X64.3302 Y65.4024
G01 X64.2754 Y65.5556
G01 X64.2702 Y65.5688
G01 X64.2645 Y65.5819
G01 X64.1949 Y65.7289
G01 X64.1885 Y65.7416
G01 X64.1815 Y65.7540
G01 X64.0978 Y65.8936
G01 X64.0902 Y65.9056
G01 X64.0820 Y65.9172
G01 X63.9851 Y66.0479
G01 X63.9764 Y66.0591
G01 X63.9671 Y66.0699
G01 X63.8578 Y66.1905
G01 X63.8480 Y66.2008
G01 X63.8377 Y66.2106
G01 X63.7171 Y66.3199
G01 X63.7064 Y66.3291
G01 X63.6951 Y66.3379
G01 X63.5645 Y66.4348
G01 X63.5528 Y66.4430
G01 X63.5408 Y66.4506
G01 X63.4012 Y66.5343
G01 X63.3889 Y66.5413
G01 X63.3762 Y66.5477
G01 X63.2291 Y66.6173
G01 X63.2161 Y66.6230
G01 X63.2028 Y66.6281
G01 X63.0496 Y66.6830
G01 X63.0361 Y66.6874
G01 X63.0224 Y66.6912
G01 X62.8645 Y66.7307
G01 X62.8507 Y66.7339
G01 X62.8366 Y66.7363
G01 X62.6757 Y66.7602
G01 X62.6616 Y66.7619
G01 X62.6474 Y66.7630
G01 X62.4849 Y66.7709
G01 X62.4707 Y66.7713
G01 X62.4564 Y66.7709
G01 X62.2939 Y66.7630
G01 X62.2797 Y66.7619
G01 X62.2656 Y66.7602
G01 X62.1047 Y66.7363
G01 X62.0907 Y66.7339
G01 X62.0768 Y66.7307
G01 X61.9189 Y66.6912
G01 X61.9052 Y66.6874
G01 X61.8917 Y66.6830
G01 X61.7385 Y66.6281
G01 X61.7252 Y66.6230
G01 X61.7122 Y66.6173
G01 X61.5652 Y66.5477
G01 X61.5524 Y66.5413
G01 X61.5332 Y66.5301
G01 X61.5295 Y66.5419
G01 X61.5214 Y66.5646
G01 X61.5130 Y66.5842
G01 X61.5057 Y66.5995
G01 X61.4990 Y66.6120
G01 X61.4827 Y66.6386
G01 X61.4745 Y66.6502
G01 X61.4599 Y66.6693
G01 X61.4392 Y66.6926
G01 X61.4291 Y66.7027
G01 X61.4166 Y66.7141
G01 X61.4058 Y66.7234
G01 X61.3946 Y66.7321
G01 X61.3809 Y66.7421
G01 X61.3691 Y66.7500
G01 X61.3422 Y66.7658
G01 X61.3206 Y66.7764
G01 X61.3076 Y66.7822
G01 X61.2784 Y66.7929
G01 X61.2647 Y66.7970
G01 X61.2483 Y66.8012
G01 X61.2344 Y66.8043
G01 X61.2204 Y66.8067
G01 X61.2037 Y66.8091
G01 X61.1895 Y66.8105
G01 X61.1583 Y66.8118
G01 X50.6427 Y66.8043
G01 X50.6116 Y66.8025
G01 X50.5808 Y66.7981
G01 X50.5668 Y66.7954
G01 X50.5504 Y66.7913
G01 X50.5367 Y66.7875
G01 X50.5232 Y66.7830
G01 X50.5073 Y66.7773
G01 X50.4941 Y66.7718
G01 X50.4661 Y66.7582
G01 X50.4392 Y66.7424
G01 X50.4274 Y66.7345
G01 X50.4138 Y66.7245
G01 X50.4026 Y66.7157
G01 X50.3918 Y66.7065
G01 X50.3793 Y66.6950
G01 X50.3693 Y66.6850
G01 X50.3486 Y66.6617
G01 X50.3298 Y66.6368
G01 X50.3219 Y66.6250
G01 X50.3131 Y66.6105
G01 X50.3061 Y66.5981
G01 X50.2998 Y66.5854
G01 X50.2926 Y66.5701
G01 X50.2872 Y66.5570
G01 X50.2814 Y66.5410
G01 X50.2763 Y66.5253
G01 X50.2551 Y66.5379
G01 X50.2426 Y66.5446
G01 X50.0891 Y66.6173
G01 X50.0761 Y66.6230
G01 X50.0628 Y66.6281
G01 X49.9096 Y66.6830
G01 X49.8961 Y66.6874
G01 X49.8824 Y66.6912
G01 X49.7245 Y66.7307
G01 X49.7107 Y66.7339
G01 X49.6966 Y66.7363
G01 X49.5357 Y66.7602
G01 X49.5145 Y66.7625
G01 X49.3449 Y66.7709
G01 X49.3307 Y66.7713
G01 X49.3164 Y66.7709
G01 X49.1539 Y66.7630
G01 X49.1397 Y66.7619
G01 X49.1256 Y66.7602
G01 X48.9647 Y66.7363
G01 X48.9507 Y66.7339
G01 X48.9368 Y66.7307
G01 X48.7789 Y66.6912
G01 X48.7652 Y66.6874
G01 X48.7517 Y66.6830
G01 X48.5985 Y66.6281
G01 X48.5852 Y66.6230
G01 X48.5722 Y66.6173
G01 X48.4252 Y66.5477
G01 X48.4062 Y66.5379
G01 X48.3830 Y66.5240
G01 X48.3780 Y66.5394
G01 X48.3722 Y66.5553
G01 X48.3638 Y66.5750
G01 X48.3532 Y66.5965
G01 X48.3374 Y66.6234
G01 X48.3295 Y66.6352
G01 X48.3194 Y66.6489
G01 X48.3061 Y66.6655
G01 X48.2850 Y66.6884
G01 X48.2674 Y66.7048
G01 X48.2510 Y66.7186
G01 X48.2258 Y66.7369
G01 X48.1992 Y66.7532
G01 X48.1803 Y66.7630
G01 X48.1584 Y66.7729
G01 X48.1291 Y66.7837
G01 X48.1155 Y66.7878
G01 X48.0991 Y66.7920
G01 X48.0782 Y66.7964
G01 X48.0473 Y66.8007
G01 X48.0233 Y66.8022
G01 X48.0091 Y66.8025
G01 X46.9108 Y66.8017
G01 X46.8797 Y66.8005
G01 X46.8656 Y66.7991
G01 X46.8488 Y66.7967
G01 X46.8348 Y66.7942
G01 X46.8209 Y66.7911
G01 X46.8045 Y66.7869
G01 X46.7909 Y66.7827
G01 X46.7617 Y66.7720
G01 X46.7334 Y66.7589
G01 X46.7209 Y66.7522
G01 X46.7063 Y66.7436
G01 X46.6885 Y66.7319
G01 X46.6636 Y66.7131
G01 X46.6404 Y66.6924
G01 X46.6303 Y66.6824
G01 X46.6189 Y66.6699
G01 X46.6096 Y66.6591
G01 X46.6009 Y66.6479
G01 X46.5909 Y66.6342
G01 X46.5830 Y66.6224
G01 X46.5672 Y66.5956
G01 X46.5537 Y66.5675
G01 X46.5457 Y66.5477
G01 X46.5401 Y66.5318
G01 X46.5360 Y66.5182
G01 X46.5287 Y66.4879
G01 X46.5248 Y66.4642
G01 X46.5231 Y66.4500
G01 X46.5220 Y66.4359
G01 X46.5212 Y66.4118
G01 X46.5212 Y64.6751
G01 X46.5219 Y64.6528
G01 X46.5196 Y64.6291
G01 X46.5132 Y64.6084
G01 X46.5030 Y64.5893
G01 X46.4892 Y64.5725
G01 X46.4724 Y64.5588
G01 X46.4533 Y64.5486
G01 X46.4325 Y64.5424
G01 X46.4090 Y64.5401
G01 X46.3867 Y64.5408
G01 X5.8926 Y64.6043
G01 X5.8614 Y64.6031
G01 X5.6122 Y64.5834
G01 X5.5995 Y64.5822
G01 X5.5781 Y64.5792
G01 X5.5569 Y64.5750
G01 X5.5445 Y64.5721
G01 X5.2496 Y64.4952
G01 X5.2201 Y64.4856
G01 X5.1914 Y64.4738
G01 X4.9214 Y64.3433
G01 X4.8940 Y64.3287
G01 X4.8760 Y64.3174
G01 X4.8564 Y64.3037
G01 X4.6226 Y64.1274
G01 X4.6115 Y64.1186
G01 X4.5933 Y64.1030
G01 X4.5713 Y64.0811
G01 X4.3714 Y63.8576
G01 X4.3622 Y63.8468
G01 X4.3474 Y63.8280
G01 X4.3339 Y63.8082
G01 X4.3264 Y63.7962
G01 X4.1970 Y63.5774
G01 X4.1902 Y63.5653
G01 X4.1779 Y63.5407
G01 X4.1735 Y63.5308
G01 X4.1667 Y63.5134
G01 X4.1604 Y63.4949
G01 X4.1553 Y63.4768
G01 X4.1527 Y63.4663
G01 X3.9921 Y62.7412
G01 X3.9874 Y62.7150
G01 X3.9852 Y62.6993
G01 X3.9839 Y62.6836
G01 X3.9830 Y62.6648
G01 X3.9858 Y34.9322
G01 X3.9871 Y34.9011
G01 X3.9885 Y34.8870
G01 X3.9909 Y34.8702
G01 X3.9948 Y34.8492
G01 X4.0026 Y34.8191
G01 X4.0128 Y34.7897
G01 X4.0183 Y34.7765
G01 X4.0255 Y34.7612
G01 X4.0353 Y34.7422
G01 X4.0515 Y34.7156
G01 X4.0699 Y34.6905
G01 X4.0836 Y34.6741
G01 X4.0950 Y34.6617
G01 X4.1051 Y34.6516
G01 X4.1284 Y34.6309
G01 X4.1532 Y34.6121
G01 X4.1711 Y34.6005
G01 X4.1919 Y34.5884
G01 X4.2046 Y34.5820
G01 X4.2221 Y34.5739
G01 X4.2172 Y34.5634
G01 X4.2118 Y34.5503
G01 X4.1986 Y34.5134
G01 X4.1945 Y34.4998
G01 X4.1849 Y34.4618
G01 X4.1810 Y34.4408
G01 X4.1756 Y34.4020
G01 X4.1746 Y34.3878
G01 X4.1730 Y34.3487
G01 X4.1730 Y28.1105
G01 X4.1746 Y28.0713
G01 X4.1756 Y28.0571
G01 X4.1810 Y28.0184
G01 X4.1849 Y27.9974
G01 X4.1945 Y27.9594
G01 X4.1986 Y27.9458
G01 X4.2118 Y27.9089
G01 X4.2172 Y27.8957
G01 X4.2226 Y27.8843
G00 Z2.0000
G00 X4.0963 Y27.9307
G01 F50.00
G01 Z-0.1999
G01 F120.00
G01 X4.0717 Y27.9126
G01 X4.0496 Y27.8940
G01 X4.0284 Y27.8741
G01 X4.0085 Y27.8529
G01 X3.9900 Y27.8308
G01 X3.9726 Y27.8074
G01 X3.9569 Y27.7832
G01 X3.9424 Y27.7581
G01 X3.9295 Y27.7320
G01 X3.9181 Y27.7055
G01 X3.9084 Y27.6781
G01 X3.9003 Y27.6504
G01 X3.8937 Y27.6221
G01 X3.8904 Y27.6031
G01 X3.8877 Y27.5839
G01 X3.8852 Y27.5551
G01 X3.8843 Y27.5260
G01 X3.8866 Y5.2064
G01 X3.8876 Y5.1749
G01 X3.8893 Y5.1556
G01 X3.8920 Y5.1338
G01 X3.9366 Y4.8350
G01 X3.9399 Y4.8162
G01 X3.9460 Y4.7879
G01 X3.9539 Y4.7601
G01 X3.9599 Y4.7419
G01 X4.0565 Y4.4720
G01 X4.0634 Y4.4541
G01 X4.0749 Y4.4276
G01 X4.0881 Y4.4018
G01 X4.0975 Y4.3851
G01 X4.2497 Y4.1310
G01 X4.2603 Y4.1148
G01 X4.2713 Y4.0992
G01 X4.2831 Y4.0840
G01 X4.2954 Y4.0691
G01 X4.4939 Y3.8492
G01 X4.5071 Y3.8353
G01 X4.5278 Y3.8152
G01 X4.5498 Y3.7964
G01 X4.5649 Y3.7846
G01 X4.8230 Y3.5923
G01 X4.8378 Y3.5821
G01 X4.8527 Y3.5725
G01 X5.7206 Y3.0403
G01 X5.7383 Y3.0301
G01 X5.7657 Y3.0158
G01 X5.7844 Y3.0074
G01 X5.8131 Y2.9961
G01 X5.8326 Y2.9898
G01 X5.8525 Y2.9840
G01 X6.4644 Y2.8361
G01 X6.4871 Y2.8314
G01 X6.5171 Y2.8264
G01 X6.5449 Y2.8238
G01 X6.5683 Y2.8226
G01 X6.5799 Y2.8224
G01 X56.9733 Y2.8224
G01 X57.0023 Y2.8234
G01 X57.0310 Y2.8258
G01 X57.0503 Y2.8286
G01 X57.0692 Y2.8318
G01 X57.0975 Y2.8384
G01 X57.1252 Y2.8465
G01 X57.1436 Y2.8529
G01 X57.1615 Y2.8598
G01 X57.1880 Y2.8718
G01 X57.2136 Y2.8851
G01 X57.2303 Y2.8950
G01 X57.2466 Y2.9053
G01 X57.2702 Y2.9222
G01 X57.2927 Y2.9402
G01 X57.3072 Y2.9531
G01 X57.3211 Y2.9664
G01 X57.3410 Y2.9876
G01 X57.3596 Y3.0097
G01 X57.3713 Y3.0252
G01 X57.3824 Y3.0409
G01 X57.3977 Y3.0656
G01 X57.4116 Y3.0908
G01 X57.4201 Y3.1083
G01 X57.4279 Y3.1259
G01 X57.4381 Y3.1531
G01 X57.4469 Y3.1806
G01 X57.4517 Y3.1994
G01 X57.4559 Y3.2182
G01 X57.4607 Y3.2468
G01 X57.4639 Y3.2755
G01 X57.4650 Y3.2949
G01 X57.4655 Y3.3141
G01 X57.4904 Y29.6884
G01 X57.4899 Y29.7084
G01 X57.4910 Y29.7162
G01 X57.4927 Y29.7187
G01 X57.4938 Y29.7197
G01 X57.4967 Y29.7209
G01 X57.4988 Y29.7211
G01 X68.1351 Y29.7195
G01 X68.1544 Y29.7199
G01 X68.1738 Y29.7210
G01 X68.1929 Y29.7229
G01 X68.2122 Y29.7256
G01 X68.2312 Y29.7289
G01 X68.2595 Y29.7355
G01 X68.2780 Y29.7406
G01 X68.2963 Y29.7467
G01 X68.3146 Y29.7533
G01 X68.3324 Y29.7607
G01 X68.3586 Y29.7731
G01 X68.3756 Y29.7822
G01 X68.3924 Y29.7921
G01 X68.4086 Y29.8024
G01 X68.4244 Y29.8135
G01 X68.4399 Y29.8252
G01 X68.4548 Y29.8374
G01 X68.4693 Y29.8503
G01 X68.4832 Y29.8636
G01 X68.4965 Y29.8775
G01 X68.5157 Y29.8994
G01 X68.5334 Y29.9225
G01 X68.5444 Y29.9382
G01 X68.5547 Y29.9545
G01 X68.5646 Y29.9712
G01 X68.5737 Y29.9882
G01 X68.5861 Y30.0144
G01 X68.5935 Y30.0322
G01 X68.6002 Y30.0505
G01 X68.6062 Y30.0688
G01 X68.6113 Y30.0873
G01 X68.6159 Y30.1062
G01 X68.6197 Y30.1251
G01 X68.6227 Y30.1443
G01 X68.6250 Y30.1634
G01 X68.6269 Y30.1924
G01 X68.6274 Y30.2117
G01 X68.6274 Y45.1886
G01 X68.6269 Y45.2078
G01 X68.6259 Y45.2272
G01 X68.6227 Y45.2559
G01 X68.6197 Y45.2751
G01 X68.6160 Y45.2940
G01 X68.6113 Y45.3129
G01 X68.6062 Y45.3314
G01 X68.6002 Y45.3497
G01 X68.5935 Y45.3680
G01 X68.5821 Y45.3945
G01 X68.5693 Y45.4206
G01 X68.5598 Y45.4373
G01 X68.5497 Y45.4540
G01 X68.5390 Y45.4700
G01 X68.5275 Y45.4856
G01 X68.5095 Y45.5082
G01 X68.4965 Y45.5227
G01 X68.4832 Y45.5366
G01 X68.4693 Y45.5499
G01 X68.4548 Y45.5628
G01 X68.4399 Y45.5751
G01 X68.4244 Y45.5867
G01 X68.4006 Y45.6031
G01 X68.3840 Y45.6132
G01 X68.3672 Y45.6226
G01 X68.3411 Y45.6355
G01 X68.3426 Y45.6746
G01 X68.3426 Y48.1989
G01 X68.3461 Y48.2192
G01 X68.3498 Y48.2439
G01 X68.3522 Y48.2630
G01 X68.3536 Y48.2822
G01 X68.3548 Y48.3071
G01 X68.3553 Y48.3263
G01 X68.3553 Y58.0647
G01 X68.3548 Y58.0839
G01 X68.3536 Y58.1088
G01 X68.3511 Y58.1376
G01 X68.3461 Y58.1718
G01 X68.3429 Y58.1908
G01 X68.3386 Y58.2095
G01 X68.3326 Y58.2337
G01 X68.3245 Y58.2615
G01 X68.3130 Y58.2940
G01 X68.3061 Y58.3120
G01 X68.2983 Y58.3296
G01 X68.2876 Y58.3521
G01 X68.2745 Y58.3774
G01 X68.2934 Y58.3834
G01 X68.3114 Y58.3900
G01 X68.3291 Y58.3971
G01 X68.3464 Y58.4050
G01 X68.3637 Y58.4135
G01 X68.3804 Y58.4227
G01 X68.3968 Y58.4327
G01 X68.4128 Y58.4430
G01 X68.4283 Y58.4541
G01 X68.4436 Y58.4658
G01 X68.4582 Y58.4781
G01 X68.4724 Y58.4910
G01 X68.4861 Y58.5043
G01 X68.4991 Y58.5182
G01 X68.5118 Y58.5326
G01 X68.5238 Y58.5474
G01 X68.5353 Y58.5629
G01 X68.5461 Y58.5785
G01 X68.5562 Y58.5947
G01 X68.5659 Y58.6113
G01 X68.5748 Y58.6281
G01 X68.5831 Y58.6455
G01 X68.5907 Y58.6629
G01 X68.5975 Y58.6807
G01 X68.6038 Y58.6989
G01 X68.6093 Y58.7172
G01 X68.6140 Y58.7358
G01 X68.6181 Y58.7544
G01 X68.6214 Y58.7732
G01 X68.6240 Y58.7922
G01 X68.6259 Y58.8112
G01 X68.6269 Y58.8304
G01 X68.6274 Y58.8494
G01 X68.6274 Y64.1173
G01 X68.6269 Y64.1366
G01 X68.6260 Y64.1544
G01 X68.6251 Y64.1648
G01 X68.6227 Y64.1847
G01 X68.6181 Y64.2126
G01 X68.6137 Y64.2321
G01 X68.6093 Y64.2495
G01 X68.6034 Y64.2690
G01 X68.5975 Y64.2859
G01 X68.5904 Y64.3046
G01 X68.5788 Y64.3304
G01 X68.5698 Y64.3483
G01 X68.5648 Y64.3575
G01 X68.5505 Y64.3814
G01 X68.5449 Y64.3901
G01 X68.5334 Y64.4065
G01 X68.5162 Y64.4290
G01 X68.5031 Y64.4442
G01 X68.4911 Y64.4574
G01 X68.4838 Y64.4648
G01 X68.4693 Y64.4786
G01 X68.4481 Y64.4973
G01 X68.4323 Y64.5097
G01 X68.4179 Y64.5202
G01 X68.4009 Y64.5316
G01 X68.3857 Y64.5409
G01 X68.3683 Y64.5509
G01 X68.3429 Y64.5634
G01 X68.3246 Y64.5716
G01 X68.3150 Y64.5755
G01 X68.2888 Y64.5850
G01 X68.2692 Y64.5909
G01 X68.2519 Y64.5954
G01 X68.2324 Y64.5998
G01 X68.2045 Y64.6045
G01 X68.1846 Y64.6071
G01 X68.1742 Y64.6080
G01 X68.1564 Y64.6090
G01 X68.1372 Y64.6095
G01 X64.6132 Y64.6236
G01 X64.5939 Y64.6232
G01 X64.5648 Y64.6214
G01 X64.5359 Y64.6177
G01 X64.5099 Y64.6130
G01 X64.5124 Y64.6417
G01 X64.5203 Y64.8042
G01 X64.5208 Y64.8234
G01 X64.5203 Y64.8427
G01 X64.5124 Y65.0052
G01 X64.5109 Y65.0244
G01 X64.5086 Y65.0435
G01 X64.4847 Y65.2044
G01 X64.4814 Y65.2234
G01 X64.4772 Y65.2422
G01 X64.4377 Y65.4000
G01 X64.4325 Y65.4186
G01 X64.4265 Y65.4368
G01 X64.3717 Y65.5900
G01 X64.3647 Y65.6080
G01 X64.3569 Y65.6256
G01 X64.2874 Y65.7727
G01 X64.2787 Y65.7899
G01 X64.2692 Y65.8066
G01 X64.1856 Y65.9462
G01 X64.1753 Y65.9624
G01 X64.1642 Y65.9782
G01 X64.0673 Y66.1089
G01 X64.0554 Y66.1240
G01 X64.0429 Y66.1386
G01 X63.9336 Y66.2592
G01 X63.9203 Y66.2731
G01 X63.9064 Y66.2864
G01 X63.7858 Y66.3957
G01 X63.7713 Y66.4082
G01 X63.7561 Y66.4201
G01 X63.6176 Y66.5226
G01 X63.5934 Y66.5384
G01 X63.4538 Y66.6220
G01 X63.4371 Y66.6315
G01 X63.4199 Y66.6402
G01 X63.2728 Y66.7097
G01 X63.2552 Y66.7175
G01 X63.2373 Y66.7245
G01 X63.0841 Y66.7793
G01 X63.0658 Y66.7853
G01 X63.0472 Y66.7904
G01 X62.8894 Y66.8300
G01 X62.8706 Y66.8342
G01 X62.8517 Y66.8375
G01 X62.6907 Y66.8614
G01 X62.6716 Y66.8637
G01 X62.6524 Y66.8651
G01 X62.4899 Y66.8731
G01 X62.4707 Y66.8736
G01 X62.4514 Y66.8731
G01 X62.2889 Y66.8651
G01 X62.2601 Y66.8627
G01 X62.0897 Y66.8375
G01 X62.0707 Y66.8342
G01 X62.0519 Y66.8300
G01 X61.8848 Y66.7880
G01 X61.8573 Y66.7793
G01 X61.6950 Y66.7211
G01 X61.6685 Y66.7097
G01 X61.5838 Y66.6697
G01 X61.5678 Y66.6955
G01 X61.5567 Y66.7112
G01 X61.5450 Y66.7268
G01 X61.5264 Y66.7488
G01 X61.5065 Y66.7701
G01 X61.4925 Y66.7833
G01 X61.4781 Y66.7963
G01 X61.4555 Y66.8143
G01 X61.4319 Y66.8312
G01 X61.4156 Y66.8415
G01 X61.3988 Y66.8514
G01 X61.3732 Y66.8647
G01 X61.3467 Y66.8767
G01 X61.3287 Y66.8836
G01 X61.3104 Y66.8900
G01 X61.2827 Y66.8981
G01 X61.2543 Y66.9047
G01 X61.2354 Y66.9079
G01 X61.2161 Y66.9107
G01 X61.1873 Y66.9131
G01 X61.1583 Y66.9141
G01 X50.6401 Y66.9065
G01 X50.6111 Y66.9051
G01 X50.5824 Y66.9019
G01 X50.5537 Y66.8972
G01 X50.5350 Y66.8929
G01 X50.5161 Y66.8881
G01 X50.4886 Y66.8793
G01 X50.4615 Y66.8691
G01 X50.4439 Y66.8613
G01 X50.4263 Y66.8529
G01 X50.4011 Y66.8389
G01 X50.3764 Y66.8236
G01 X50.3607 Y66.8125
G01 X50.3451 Y66.8008
G01 X50.3231 Y66.7822
G01 X50.3019 Y66.7623
G01 X50.2820 Y66.7411
G01 X50.2635 Y66.7190
G01 X50.2518 Y66.7035
G01 X50.2407 Y66.6878
G01 X50.2267 Y66.6653
G01 X50.1328 Y66.7097
G01 X50.1063 Y66.7211
G01 X49.9441 Y66.7793
G01 X49.9165 Y66.7880
G01 X49.7494 Y66.8300
G01 X49.7306 Y66.8342
G01 X49.7117 Y66.8375
G01 X49.5507 Y66.8614
G01 X49.5220 Y66.8645
G01 X49.3499 Y66.8731
G01 X49.3307 Y66.8736
G01 X49.3114 Y66.8731
G01 X49.1489 Y66.8651
G01 X49.1297 Y66.8637
G01 X49.1106 Y66.8614
G01 X48.9402 Y66.8360
G01 X48.9119 Y66.8300
G01 X48.7541 Y66.7904
G01 X48.7264 Y66.7824
G01 X48.5641 Y66.7245
G01 X48.5461 Y66.7175
G01 X48.5285 Y66.7097
G01 X48.4323 Y66.6642
G01 X48.4185 Y66.6862
G01 X48.4016 Y66.7099
G01 X48.3835 Y66.7324
G01 X48.3640 Y66.7539
G01 X48.3433 Y66.7741
G01 X48.3214 Y66.7933
G01 X48.2984 Y66.8109
G01 X48.2826 Y66.8220
G01 X48.2664 Y66.8323
G01 X48.2412 Y66.8468
G01 X48.2151 Y66.8597
G01 X48.1885 Y66.8710
G01 X48.1612 Y66.8808
G01 X48.1334 Y66.8888
G01 X48.1051 Y66.8954
G01 X48.0764 Y66.9001
G01 X48.0477 Y66.9033
G01 X48.0283 Y66.9044
G01 X48.0090 Y66.9048
G01 X46.9108 Y66.9040
G01 X46.8915 Y66.9036
G01 X46.8721 Y66.9025
G01 X46.8530 Y66.9006
G01 X46.8337 Y66.8978
G01 X46.8148 Y66.8945
G01 X46.7960 Y66.8903
G01 X46.7772 Y66.8855
G01 X46.7588 Y66.8799
G01 X46.7404 Y66.8734
G01 X46.7225 Y66.8665
G01 X46.7049 Y66.8587
G01 X46.6874 Y66.8503
G01 X46.6704 Y66.8412
G01 X46.6537 Y66.8313
G01 X46.6295 Y66.8155
G01 X46.6139 Y66.8040
G01 X46.5987 Y66.7922
G01 X46.5841 Y66.7796
G01 X46.5698 Y66.7665
G01 X46.5562 Y66.7529
G01 X46.5431 Y66.7386
G01 X46.5305 Y66.7240
G01 X46.5187 Y66.7088
G01 X46.5072 Y66.6931
G01 X46.4965 Y66.6771
G01 X46.4864 Y66.6605
G01 X46.4770 Y66.6438
G01 X46.4683 Y66.6266
G01 X46.4601 Y66.6090
G01 X46.4494 Y66.5822
G01 X46.4430 Y66.5638
G01 X46.4374 Y66.5454
G01 X46.4326 Y66.5266
G01 X46.4283 Y66.5078
G01 X46.4236 Y66.4792
G01 X46.4213 Y66.4601
G01 X46.4199 Y66.4409
G01 X46.4189 Y66.4118
G01 X46.4189 Y64.6751
G01 X46.4194 Y64.6554
G01 X46.4188 Y64.6494
G01 X46.4176 Y64.6465
G01 X46.4166 Y64.6453
G01 X46.4141 Y64.6437
G01 X46.4126 Y64.6432
G01 X46.4066 Y64.6426
G01 X46.3869 Y64.6431
G01 X5.8927 Y64.7066
G01 X5.8770 Y64.7063
G01 X5.8533 Y64.7050
G01 X5.6041 Y64.6854
G01 X5.5870 Y64.6837
G01 X5.5611 Y64.6801
G01 X5.5355 Y64.6750
G01 X5.5187 Y64.6711
G01 X5.2214 Y64.5935
G01 X5.2029 Y64.5878
G01 X5.1848 Y64.5816
G01 X5.1669 Y64.5746
G01 X5.1492 Y64.5669
G01 X4.8769 Y64.4354
G01 X4.8598 Y64.4266
G01 X4.8429 Y64.4173
G01 X4.8185 Y64.4020
G01 X4.7949 Y64.3854
G01 X4.5610 Y64.2091
G01 X4.5460 Y64.1972
G01 X4.5241 Y64.1783
G01 X4.5103 Y64.1650
G01 X4.4968 Y64.1512
G01 X4.2951 Y63.9258
G01 X4.2827 Y63.9112
G01 X4.2648 Y63.8884
G01 X4.2485 Y63.8645
G01 X4.2384 Y63.8483
G01 X4.1090 Y63.6295
G01 X4.1011 Y63.6156
G01 X4.0931 Y63.6003
G01 X4.0847 Y63.5829
G01 X4.0735 Y63.5561
G01 X4.0669 Y63.5380
G01 X4.0632 Y63.5268
G01 X4.0583 Y63.5102
G01 X4.0530 Y63.4895
G01 X3.8922 Y62.7633
G01 X3.8864 Y62.7316
G01 X3.8835 Y62.7104
G01 X3.8818 Y62.6891
G01 X3.8807 Y62.6676
G01 X3.8835 Y34.9322
G01 X3.8845 Y34.9032
G01 X3.8869 Y34.8744
G01 X3.8912 Y34.8457
G01 X3.8972 Y34.8174
G01 X3.9047 Y34.7894
G01 X3.9107 Y34.7711
G01 X3.9174 Y34.7528
G01 X3.9288 Y34.7263
G01 X3.9416 Y34.7002
G01 X3.9562 Y34.6751
G01 X3.9719 Y34.6509
G01 X3.9892 Y34.6275
G01 X4.0078 Y34.6054
G01 X4.0277 Y34.5842
G01 X4.0489 Y34.5644
G01 X4.0710 Y34.5458
G01 X4.0960 Y34.5274
G01 X4.0874 Y34.4936
G01 X4.0831 Y34.4748
G01 X4.0798 Y34.4558
G01 X4.0762 Y34.4311
G01 X4.0730 Y34.4025
G01 X4.0712 Y34.3679
G01 X4.0707 Y34.3487
G01 X4.0707 Y28.1105
G01 X4.0712 Y28.0912
G01 X4.0730 Y28.0567
G01 X4.0762 Y28.0280
G01 X4.0798 Y28.0033
G01 X4.0831 Y27.9844
G01 X4.0874 Y27.9656
G01 X4.0963 Y27.9307
G00 Z2.0000
G00 X5.1587 Y30.7629
G01 F50.00
G01 Z-0.1999
G01 F120.00
G01 X5.1641 Y30.7793
G01 X5.1696 Y30.7919
G01 X5.1759 Y30.8042
G01 X5.1858 Y30.8198
G01 X5.1971 Y30.8343
G01 X5.2065 Y30.8444
G01 X5.2166 Y30.8538
G01 X5.2291 Y30.8636
G01 X5.2112 Y30.8746
G01 X5.1921 Y30.8885
G01 X5.1850 Y30.8943
G01 X5.1709 Y30.9071
G01 X5.1587 Y30.9199
G01 X5.1587 Y30.7629
G00 Z2.0000
G00 X5.5319 Y32.0590
G01 F50.00
G01 Z-0.1999
G01 F120.00
G01 X5.5289 Y32.0800
G01 X5.5280 Y32.0892
G01 X5.5246 Y32.1618
G01 X5.5280 Y32.2344
G01 X5.5289 Y32.2435
G01 X5.5319 Y32.2645
G01 X5.5230 Y32.2588
G01 X5.5066 Y32.2492
G01 X5.4853 Y32.2389
G01 X5.4768 Y32.2354
G01 X5.4589 Y32.2290
G01 X5.4501 Y32.2263
G01 X5.4361 Y32.2228
G01 X5.4180 Y32.2192
G01 X5.4038 Y32.2171
G01 X5.3900 Y32.2159
G01 X5.3756 Y32.2153
G01 X5.3664 Y32.2153
G01 X5.3474 Y32.2162
G01 X5.3382 Y32.2171
G01 X5.3149 Y32.2207
G01 X5.2875 Y32.2276
G01 X5.2609 Y32.2371
G01 X5.2395 Y32.2471
G01 X5.2314 Y32.2514
G01 X5.2151 Y32.2612
G01 X5.2074 Y32.2663
G01 X5.1921 Y32.2776
G01 X5.1850 Y32.2835
G01 X5.1709 Y32.2962
G01 X5.1587 Y32.3090
G01 X5.1587 Y32.0145
G01 X5.1709 Y32.0273
G01 X5.1850 Y32.0401
G01 X5.1921 Y32.0459
G01 X5.2074 Y32.0572
G01 X5.2151 Y32.0623
G01 X5.2314 Y32.0721
G01 X5.2395 Y32.0765
G01 X5.2609 Y32.0864
G01 X5.2875 Y32.0959
G01 X5.3149 Y32.1028
G01 X5.3382 Y32.1064
G01 X5.3474 Y32.1073
G01 X5.3664 Y32.1082
G01 X5.3756 Y32.1082
G01 X5.3900 Y32.1076
G01 X5.4038 Y32.1064
G01 X5.4180 Y32.1043
G01 X5.4361 Y32.1008
G01 X5.4501 Y32.0972
G01 X5.4589 Y32.0945
G01 X5.4768 Y32.0881
G01 X5.4853 Y32.0846
G01 X5.5066 Y32.0743
G01 X5.5230 Y32.0648
G01 X5.5319 Y32.0590
G00 Z2.0000
G00 X6.3079 Y32.8469
G01 F50.00
G01 Z-0.1999
G01 F120.00
G01 X6.2450 Y32.8437
G01 X6.1784 Y32.8338
G01 X6.1132 Y32.8175
G01 X6.0499 Y32.7948
G01 X5.9891 Y32.7661
G01 X5.9314 Y32.7315
G01 X5.8774 Y32.6915
G01 X5.8276 Y32.6463
G01 X5.7824 Y32.5965
G01 X5.7424 Y32.5425
G01 X5.7078 Y32.4848
G01 X5.6790 Y32.4240
G01 X5.6564 Y32.3607
G01 X5.6400 Y32.2954
G01 X5.6302 Y32.2289
G01 X5.6269 Y32.1618
G01 X5.6302 Y32.0946
G01 X5.6400 Y32.0281
G01 X5.6564 Y31.9628
G01 X5.6790 Y31.8995
G01 X5.7078 Y31.8387
G01 X5.7424 Y31.7811
G01 X5.7824 Y31.7270
G01 X5.8276 Y31.6772
G01 X5.8774 Y31.6321
G01 X5.9314 Y31.5920
G01 X5.9891 Y31.5574
G01 X6.0499 Y31.5287
G01 X6.1132 Y31.5060
G01 X6.1784 Y31.4897
G01 X6.2450 Y31.4798
G01 X6.3121 Y31.4765
G01 X6.3793 Y31.4798
G01 X6.4458 Y31.4897
G01 X6.5110 Y31.5060
G01 X6.5744 Y31.5287
G01 X6.6351 Y31.5574
G01 X6.6928 Y31.5920
G01 X6.7468 Y31.6321
G01 X6.7967 Y31.6772
G01 X6.8418 Y31.7270
G01 X6.8819 Y31.7811
G01 X6.9165 Y31.8387
G01 X6.9452 Y31.8995
G01 X6.9679 Y31.9628
G01 X6.9842 Y32.0281
G01 X6.9941 Y32.0946
G01 X6.9974 Y32.1618
G01 X6.9941 Y32.2289
G01 X6.9842 Y32.2954
G01 X6.9679 Y32.3607
G01 X6.9452 Y32.4240
G01 X6.9165 Y32.4848
G01 X6.8819 Y32.5425
G01 X6.8418 Y32.5965
G01 X6.7967 Y32.6463
G01 X6.7468 Y32.6915
G01 X6.6928 Y32.7315
G01 X6.6351 Y32.7661
G01 X6.5744 Y32.7948
G01 X6.5110 Y32.8175
G01 X6.4458 Y32.8338
G01 X6.3793 Y32.8437
G01 X6.3163 Y32.8469
G01 X6.3079 Y32.8469
G00 Z2.0000
G00 X9.3346 Y33.3003
G01 F50.00
G01 Z-0.1999
G01 F120.00
G01 X9.3540 Y33.3260
G01 X9.3767 Y33.3515
G01 X9.4492 Y33.4243
G01 X9.2533 Y33.4242
G01 X9.2651 Y33.4132
G01 X9.2811 Y33.3958
G01 X9.2897 Y33.3850
G01 X9.3008 Y33.3696
G01 X9.3131 Y33.3494
G01 X9.3195 Y33.3372
G01 X9.3274 Y33.3199
G01 X9.3346 Y33.3003
G00 Z2.0000
G00 X9.5294 Y33.6118
G01 F50.00
G01 Z-0.1999
G01 F120.00
G01 X9.5293 Y35.2139
G01 X9.5284 Y35.2243
G01 X9.5263 Y35.2345
G01 X9.5237 Y35.2424
G01 X9.5193 Y35.2519
G01 X9.5138 Y35.2608
G01 X9.5073 Y35.2690
G01 X9.5014 Y35.2749
G01 X9.4932 Y35.2815
G01 X9.4879 Y35.2849
G01 X9.4806 Y35.2888
G01 X9.4689 Y35.2933
G01 X9.4566 Y35.2961
G01 X9.4441 Y35.2970
G01 X7.2441 Y35.2970
G01 X7.2337 Y35.2964
G01 X7.2234 Y35.2945
G01 X7.2154 Y35.2920
G01 X7.2058 Y35.2879
G01 X7.1968 Y35.2826
G01 X7.1884 Y35.2763
G01 X7.1810 Y35.2690
G01 X7.1744 Y35.2608
G01 X7.1680 Y35.2501
G01 X7.1632 Y35.2385
G01 X7.1614 Y35.2325
G01 X7.1598 Y35.2243
G01 X7.1589 Y35.2118
G01 X7.1589 Y33.6118
G01 X7.1595 Y33.6013
G01 X7.1614 Y33.5910
G01 X7.1646 Y33.5811
G01 X7.1689 Y33.5716
G01 X7.1744 Y33.5627
G01 X7.1810 Y33.5545
G01 X7.1884 Y33.5472
G01 X7.1950 Y33.5421
G01 X7.2058 Y33.5356
G01 X7.2134 Y33.5322
G01 X7.2194 Y33.5302
G01 X7.2316 Y33.5274
G01 X7.2441 Y33.5265
G01 X9.4462 Y33.5265
G01 X9.4546 Y33.5271
G01 X9.4628 Y33.5286
G01 X9.4709 Y33.5308
G01 X9.4787 Y33.5338
G01 X9.4861 Y33.5376
G01 X9.4932 Y33.5421
G01 X9.4998 Y33.5472
G01 X9.5059 Y33.5530
G01 X9.5113 Y33.5593
G01 X9.5161 Y33.5661
G01 X9.5203 Y33.5734
G01 X9.5237 Y33.5811
G01 X9.5263 Y33.5890
G01 X9.5281 Y33.5972
G01 X9.5291 Y33.6055
G01 X9.5294 Y33.6118
G00 Z2.0000
G00 X9.6317 Y34.2003
G01 F50.00
G01 Z-0.1999
G01 F120.00
G01 X9.6329 Y34.2106
G01 X9.6381 Y34.2444
G01 X9.6474 Y34.2820
G01 X9.6515 Y34.2952
G01 X9.6616 Y34.3229
G01 X9.6670 Y34.3356
G01 X9.6818 Y34.3664
G01 X9.6992 Y34.3958
G01 X9.7067 Y34.4074
G01 X9.7270 Y34.4348
G01 X9.7329 Y34.4419
G01 X9.7527 Y34.4638
G01 X9.8591 Y34.5706
G01 X9.8415 Y34.5703
G01 X9.8224 Y34.5712
G01 X9.8133 Y34.5721
G01 X9.7945 Y34.5749
G01 X9.7810 Y34.5778
G01 X9.7626 Y34.5826
G01 X9.7360 Y34.5921
G01 X9.7105 Y34.6042
G01 X9.6940 Y34.6138
G01 X9.6825 Y34.6213
G01 X9.6672 Y34.6326
G01 X9.6566 Y34.6415
G01 X9.6427 Y34.6545
G01 X9.6317 Y34.6663
G01 X9.6317 Y34.2003
G00 Z2.0000
G00 X9.5913 Y35.7899
G01 F50.00
G01 Z-0.1999
G01 F120.00
G01 X9.8503 Y35.7899
G01 X10.1043 Y35.8404
G01 X10.3435 Y35.9395
G01 X10.5589 Y36.0834
G01 X10.7420 Y36.2665
G01 X10.8859 Y36.4819
G01 X10.9850 Y36.7211
G01 X11.0355 Y36.9751
G01 X11.0355 Y37.2341
G01 X10.9850 Y37.4881
G01 X10.8859 Y37.7273
G01 X10.7420 Y37.9427
G01 X10.5589 Y38.1258
G01 X10.3435 Y38.2697
G01 X10.3020 Y38.2869
G01 X10.2856 Y38.2949
G01 X10.2719 Y38.3032
G01 X10.2605 Y38.3115
G01 X10.2541 Y38.3168
G01 X10.2423 Y38.3278
G01 X10.2316 Y38.3397
G01 X10.2207 Y38.3543
G01 X10.2114 Y38.3699
G01 X10.2036 Y38.3864
G01 X10.1975 Y38.4035
G01 X10.1931 Y38.4211
G01 X10.1904 Y38.4391
G01 X10.1895 Y38.4552
G01 X10.1895 Y39.6599
G01 X10.1902 Y39.6760
G01 X10.1909 Y39.6822
G01 X10.1931 Y39.6960
G01 X10.1969 Y39.7117
G01 X10.2028 Y39.7288
G01 X10.2095 Y39.7435
G01 X10.2134 Y39.7509
G01 X10.2231 Y39.7662
G01 X10.2316 Y39.7774
G01 X10.2438 Y39.7909
G01 X10.2572 Y39.8031
G01 X10.2701 Y39.8128
G01 X10.2874 Y39.8233
G01 X10.3020 Y39.8302
G01 X10.4334 Y39.8847
G01 X10.6078 Y40.0012
G01 X10.7561 Y40.1495
G01 X10.8726 Y40.3239
G01 X10.9529 Y40.5177
G01 X10.9938 Y40.7234
G01 X10.9938 Y40.9331
G01 X10.9529 Y41.1388
G01 X10.8726 Y41.3326
G01 X10.7561 Y41.5069
G01 X10.6078 Y41.6552
G01 X10.4334 Y41.7718
G01 X10.2396 Y41.8520
G01 X10.0339 Y41.8929
G01 X9.8242 Y41.8929
G01 X9.6185 Y41.8520
G01 X9.4248 Y41.7718
G01 X9.2504 Y41.6552
G01 X9.1021 Y41.5069
G01 X8.9856 Y41.3326
G01 X8.9053 Y41.1388
G01 X8.8644 Y40.9331
G01 X8.8644 Y40.7234
G01 X8.9053 Y40.5177
G01 X8.9856 Y40.3239
G01 X9.1021 Y40.1495
G01 X9.1993 Y40.0523
G01 X9.2100 Y40.0403
G01 X9.2197 Y40.0274
