(G-CODE GENERATED BY FLATCAM v8.994 - www.flatcam.org - Version Date: 2020/11/7)

(Name: po_midi_adapter-PTH.drl_cnc)
(Type: G-code from Geometry)
(Units: MM)

(Created on Friday, 13 August 2021 at 18:19)

(This preprocessor is the default preprocessor used by FlatCAM.)
(It is made to work with MACH3 compatible motion controllers.)


(TOOLS DIAMETER: )
(Tool: 1 -> Dia: 0.8000999999999999)
(Tool: 2 -> Dia: 0.89916)
(Tool: 3 -> Dia: 1.0007599999999999)
(Tool: 4 -> Dia: 1.0998199999999998)
(Tool: 5 -> Dia: 1.39954)
(Tool: 6 -> Dia: 2.4003)

(FEEDRATE Z: )
(Tool: 1 -> Feedrate: 300)
(Tool: 2 -> Feedrate: 300)
(Tool: 3 -> Feedrate: 300)
(Tool: 4 -> Feedrate: 300)
(Tool: 5 -> Feedrate: 300)
(Tool: 6 -> Feedrate: 300)

(FEEDRATE RAPIDS: )
(Tool: 1 -> Feedrate Rapids: 1500)
(Tool: 2 -> Feedrate Rapids: 1500)
(Tool: 3 -> Feedrate Rapids: 1500)
(Tool: 4 -> Feedrate Rapids: 1500)
(Tool: 5 -> Feedrate Rapids: 1500)
(Tool: 6 -> Feedrate Rapids: 1500)

(Z_CUT: )
(Tool: 1 -> Z_Cut: -1.7)
(Tool: 2 -> Z_Cut: -1.7)
(Tool: 3 -> Z_Cut: -1.7)
(Tool: 4 -> Z_Cut: -1.7)
(Tool: 5 -> Z_Cut: -1.7)
(Tool: 6 -> Z_Cut: -1.7)

(Tools Offset: )
(Tool: 1 -> Offset Z: 0.0)
(Tool: 3 -> Offset Z: 0.0)
(Tool: 4 -> Offset Z: 0.0)
(Tool: 5 -> Offset Z: 0.0)

(Z_MOVE: )
(Tool: 1 -> Z_Move: 2)
(Tool: 2 -> Z_Move: 2)
(Tool: 3 -> Z_Move: 2)
(Tool: 4 -> Z_Move: 2)
(Tool: 5 -> Z_Move: 2)
(Tool: 6 -> Z_Move: 2)

(Z Toolchange: 25.0 mm)
(X,Y Toolchange: 0.0000, 0.0000 mm)
(Z Start: None mm)
(Z End: 0.5 mm)
(X,Y End: 0.0000, 0.0000 mm)
(Steps per circle: 64)
(Preprocessor Excellon: default)

(X range:    5.5908 ...   66.3590  mm)
(Y range:    8.6960 ...   66.0238  mm)

(Spindle Speed: 0 RPM)
G21
G90
G94

G01 F300.00

M5
G00 Z25.0000
T1
G00 X0.0000 Y0.0000                
M6
(MSG, Change to Tool Dia = 0.8001 ||| Total drills for tool T1 = 40)
M0
G00 Z25.0000

G01 F300.00
M03
G00 X43.2412 Y15.1361
G01 Z-1.7000
G01 Z0
G00 Z2.0000
G00 X40.2872 Y17.5237
G01 Z-1.7000
G01 Z0
G00 Z2.0000
G00 X40.2872 Y25.1437
G01 Z-1.7000
G01 Z0
G00 Z2.0000
G00 X43.2412 Y25.2961
G01 Z-1.7000
G01 Z0
G00 Z2.0000
G00 X45.7583 Y29.1747
G01 Z-1.7000
G01 Z0
G00 Z2.0000
G00 X48.7123 Y29.0096
G01 Z-1.7000
G01 Z0
G00 Z2.0000
G00 X47.9986 Y31.6385
G01 Z-1.7000
G01 Z0
G00 Z2.0000
G00 X45.7583 Y31.7147
G01 Z-1.7000
G01 Z0
G00 Z2.0000
G00 X45.7583 Y34.2547
G01 Z-1.7000
G01 Z0
G00 Z2.0000
G00 X47.9986 Y34.1379
G01 Z-1.7000
G01 Z0
G00 Z2.0000
G00 X57.5109 Y34.0896
G01 Z-1.7000
G01 Z0
G00 Z2.0000
G00 X59.4007 Y62.1134
G01 Z-1.7000
G01 Z0
G00 Z2.0000
G00 X56.9013 Y62.1134
G01 Z-1.7000
G01 Z0
G00 Z2.0000
G00 X54.8998 Y62.1134
G01 Z-1.7000
G01 Z0
G00 Z2.0000
G00 X52.4004 Y62.1134
G01 Z-1.7000
G01 Z0
G00 Z2.0000
G00 X45.2046 Y62.3344
G01 Z-1.7000
G01 Z0
G00 Z2.0000
G00 X35.0446 Y62.3344
G01 Z-1.7000
G01 Z0
G00 Z2.0000
G00 X38.1383 Y34.2547
G01 Z-1.7000
G01 Z0
G00 Z2.0000
G00 X38.1383 Y31.7147
G01 Z-1.7000
G01 Z0
G00 Z2.0000
G00 X38.1383 Y29.1747
G01 Z-1.7000
G01 Z0
G00 Z2.0000
G00 X32.3014 Y29.2814
G01 Z-1.7000
G01 Z0
G00 Z2.0000
G00 X32.3014 Y31.8214
G01 Z-1.7000
G01 Z0
G00 Z2.0000
G00 X32.3014 Y34.3614
G01 Z-1.7000
G01 Z0
G00 Z2.0000
G00 X31.9636 Y36.9878
G01 Z-1.7000
G01 Z0
G00 Z2.0000
G00 X29.4642 Y36.9878
G01 Z-1.7000
G01 Z0
G00 Z2.0000
G00 X24.6814 Y34.3614
G01 Z-1.7000
G01 Z0
G00 Z2.0000
G00 X24.6814 Y31.8214
G01 Z-1.7000
G01 Z0
G00 Z2.0000
G00 X24.6814 Y29.2814
G01 Z-1.7000
G01 Z0
G00 Z2.0000
G00 X24.6814 Y26.7414
G01 Z-1.7000
G01 Z0
G00 Z2.0000
G00 X18.5244 Y25.7864
G01 Z-1.7000
G01 Z0
G00 Z2.0000
G00 X15.1996 Y25.7229
G01 Z-1.7000
G01 Z0
G00 Z2.0000
G00 X15.1996 Y15.5629
G01 Z-1.7000
G01 Z0
G00 Z2.0000
G00 X18.5244 Y15.6264
G01 Z-1.7000
G01 Z0
G00 Z2.0000
G00 X24.6814 Y19.1214
G01 Z-1.7000
G01 Z0
G00 Z2.0000
G00 X24.6814 Y21.6614
G01 Z-1.7000
G01 Z0
G00 Z2.0000
G00 X24.6814 Y24.2014
G01 Z-1.7000
G01 Z0
G00 Z2.0000
G00 X32.3014 Y26.7414
G01 Z-1.7000
G01 Z0
G00 Z2.0000
G00 X32.3014 Y24.2014
G01 Z-1.7000
G01 Z0
G00 Z2.0000
G00 X32.3014 Y21.6614
G01 Z-1.7000
G01 Z0
G00 Z2.0000
G00 X32.3014 Y19.1214
G01 Z-1.7000
G01 Z0
G00 Z2.0000
G01 F300.00

M5
G00 Z25.0000
T3
G00 X0.0000 Y0.0000                
M6
(MSG, Change to Tool Dia = 1.0008 ||| Total drills for tool T3 = 60)
M0
G00 Z25.0000

G01 F300.00
M03
G00 X9.5913 Y12.5961
G01 Z-1.7000
G01 Z0
G00 Z2.0000
G00 X9.5913 Y15.1361
G01 Z-1.7000
G01 Z0
G00 Z2.0000
G00 X6.3121 Y32.1618
G01 Z-1.7000
G01 Z0
G00 Z2.0000
G00 X7.3891 Y40.8282
G01 Z-1.7000
G01 Z0
G00 Z2.0000
G00 X9.9291 Y40.8282
G01 Z-1.7000
G01 Z0
G00 Z2.0000
G00 X7.3891 Y56.0682
G01 Z-1.7000
G01 Z0
G00 Z2.0000
G00 X9.9291 Y56.0682
G01 Z-1.7000
G01 Z0
G00 Z2.0000
G00 X12.4691 Y56.0682
G01 Z-1.7000
G01 Z0
G00 Z2.0000
G00 X15.0091 Y56.0682
G01 Z-1.7000
G01 Z0
G00 Z2.0000
G00 X17.5491 Y56.0682
G01 Z-1.7000
G01 Z0
G00 Z2.0000
G00 X15.0167 Y62.2100
G01 Z-1.7000
G01 Z0
G00 Z2.0000
G00 X17.5567 Y62.2100
G01 Z-1.7000
G01 Z0
G00 Z2.0000
G00 X20.0967 Y62.2100
G01 Z-1.7000
G01 Z0
G00 Z2.0000
G00 X22.6367 Y62.2100
G01 Z-1.7000
G01 Z0
G00 Z2.0000
G00 X20.0891 Y56.0682
G01 Z-1.7000
G01 Z0
G00 Z2.0000
G00 X22.6291 Y56.0682
G01 Z-1.7000
G01 Z0
G00 Z2.0000
G00 X25.1691 Y56.0682
G01 Z-1.7000
G01 Z0
G00 Z2.0000
G00 X27.7091 Y56.0682
G01 Z-1.7000
G01 Z0
G00 Z2.0000
G00 X30.2491 Y56.0682
G01 Z-1.7000
G01 Z0
G00 Z2.0000
G00 X32.7891 Y56.0682
G01 Z-1.7000
G01 Z0
G00 Z2.0000
G00 X35.3291 Y56.0682
G01 Z-1.7000
G01 Z0
G00 Z2.0000
G00 X37.8691 Y56.0682
G01 Z-1.7000
G01 Z0
G00 Z2.0000
G00 X40.4091 Y56.0682
G01 Z-1.7000
G01 Z0
G00 Z2.0000
G00 X42.9491 Y56.0682
G01 Z-1.7000
G01 Z0
G00 Z2.0000
G00 X45.4891 Y56.0682
G01 Z-1.7000
G01 Z0
G00 Z2.0000
G00 X48.0291 Y56.0682
G01 Z-1.7000
G01 Z0
G00 Z2.0000
G00 X50.5691 Y56.0682
G01 Z-1.7000
G01 Z0
G00 Z2.0000
G00 X49.3499 Y53.0177
G01 Z-1.7000
G01 Z0
G00 Z2.0000
G00 X51.8899 Y53.0177
G01 Z-1.7000
G01 Z0
G00 Z2.0000
G00 X54.4299 Y53.0177
G01 Z-1.7000
G01 Z0
G00 Z2.0000
G00 X56.9699 Y53.0177
G01 Z-1.7000
G01 Z0
G00 Z2.0000
G00 X53.1091 Y56.0682
G01 Z-1.7000
G01 Z0
G00 Z2.0000
G00 X55.6491 Y56.0682
G01 Z-1.7000
G01 Z0
G00 Z2.0000
G00 X58.1891 Y56.0682
G01 Z-1.7000
G01 Z0
G00 Z2.0000
G00 X60.7291 Y56.0682
G01 Z-1.7000
G01 Z0
G00 Z2.0000
G00 X63.2691 Y56.0682
G01 Z-1.7000
G01 Z0
G00 Z2.0000
G00 X63.2691 Y43.3682
G01 Z-1.7000
G01 Z0
G00 Z2.0000
G00 X65.8091 Y40.8282
G01 Z-1.7000
G01 Z0
G00 Z2.0000
G00 X63.2691 Y40.8282
G01 Z-1.7000
G01 Z0
G00 Z2.0000
G00 X60.7291 Y40.8282
G01 Z-1.7000
G01 Z0
G00 Z2.0000
G00 X58.1891 Y40.8282
G01 Z-1.7000
G01 Z0
G00 Z2.0000
G00 X55.6491 Y40.8282
G01 Z-1.7000
G01 Z0
G00 Z2.0000
G00 X53.1091 Y40.8282
G01 Z-1.7000
G01 Z0
G00 Z2.0000
G00 X50.5691 Y40.8282
G01 Z-1.7000
G01 Z0
G00 Z2.0000
G00 X48.0291 Y40.8282
G01 Z-1.7000
G01 Z0
G00 Z2.0000
G00 X45.4891 Y40.8282
G01 Z-1.7000
G01 Z0
G00 Z2.0000
G00 X42.9491 Y40.8282
G01 Z-1.7000
G01 Z0
G00 Z2.0000
G00 X40.4091 Y40.8282
G01 Z-1.7000
G01 Z0
G00 Z2.0000
G00 X37.8691 Y40.8282
G01 Z-1.7000
G01 Z0
G00 Z2.0000
G00 X35.3291 Y40.8282
G01 Z-1.7000
G01 Z0
G00 Z2.0000
G00 X32.7891 Y40.8282
G01 Z-1.7000
G01 Z0
G00 Z2.0000
G00 X30.2491 Y40.8282
G01 Z-1.7000
G01 Z0
G00 Z2.0000
G00 X27.7091 Y40.8282
G01 Z-1.7000
G01 Z0
G00 Z2.0000
G00 X25.1691 Y40.8282
G01 Z-1.7000
G01 Z0
G00 Z2.0000
G00 X22.6291 Y40.8282
G01 Z-1.7000
G01 Z0
G00 Z2.0000
G00 X20.0891 Y40.8282
G01 Z-1.7000
G01 Z0
G00 Z2.0000
G00 X17.5491 Y40.8282
G01 Z-1.7000
G01 Z0
G00 Z2.0000
G00 X15.0091 Y40.8282
G01 Z-1.7000
G01 Z0
G00 Z2.0000
G00 X12.4691 Y40.8282
G01 Z-1.7000
G01 Z0
G00 Z2.0000
G00 X12.3116 Y32.1618
G01 Z-1.7000
G01 Z0
G00 Z2.0000
G01 F300.00

M5
G00 Z25.0000
T4
G00 X0.0000 Y0.0000                
M6
(MSG, Change to Tool Dia = 1.0998 ||| Total drills for tool T4 = 24)
M0
G00 Z25.0000

G01 F300.00
M03
G00 X34.6636 Y14.9558
G01 Z-1.7000
G01 Z0
G00 Z2.0000
G00 X34.6636 Y25.9540
G01 Z-1.7000
G01 Z0
G00 Z2.0000
G00 X47.1858 Y15.1336
G01 Z-1.7000
G01 Z0
G00 Z2.0000
G00 X47.1604 Y25.9540
G01 Z-1.7000
G01 Z0
G00 Z2.0000
G00 X47.1858 Y37.2316
G01 Z-1.7000
G01 Z0
G00 Z2.0000
G00 X59.6318 Y36.9776
G01 Z-1.7000
G01 Z0
G00 Z2.0000
G00 X59.6572 Y47.9504
G01 Z-1.7000
G01 Z0
G00 Z2.0000
G00 X59.5099 Y53.0177
G01 Z-1.7000
G01 Z0
G00 Z2.0000
G00 X65.8091 Y56.0682
G01 Z-1.7000
G01 Z0
G00 Z2.0000
G00 X59.6572 Y58.9740
G01 Z-1.7000
G01 Z0
G00 Z2.0000
G00 X47.1604 Y47.9758
G01 Z-1.7000
G01 Z0
G00 Z2.0000
G00 X47.1350 Y58.9740
G01 Z-1.7000
G01 Z0
G00 Z2.0000
G00 X34.6763 Y58.9486
G01 Z-1.7000
G01 Z0
G00 Z2.0000
G00 X34.6636 Y47.9758
G01 Z-1.7000
G01 Z0
G00 Z2.0000
G00 X34.6128 Y36.9776
G01 Z-1.7000
G01 Z0
G00 Z2.0000
G00 X22.1668 Y36.9776
G01 Z-1.7000
G01 Z0
G00 Z2.0000
G00 X22.1668 Y47.9707
G01 Z-1.7000
G01 Z0
G00 Z2.0000
G00 X22.1668 Y58.9486
G01 Z-1.7000
G01 Z0
G00 Z2.0000
G00 X9.6446 Y58.9740
G01 Z-1.7000
G01 Z0
G00 Z2.0000
G00 X9.6192 Y47.9504
G01 Z-1.7000
G01 Z0
G00 Z2.0000
G00 X9.7208 Y37.1046
G01 Z-1.7000
G01 Z0
G00 Z2.0000
G00 X9.6446 Y25.9540
G01 Z-1.7000
G01 Z0
G00 Z2.0000
G00 X22.1414 Y25.9794
G01 Z-1.7000
G01 Z0
G00 Z2.0000
G00 X22.1414 Y14.9812
G01 Z-1.7000
G01 Z0
G00 Z2.0000
G01 F300.00

M5
G00 Z25.0000
T5
G00 X0.0000 Y0.0000                
M6
(MSG, Change to Tool Dia = 1.3995 ||| Total drills for tool T5 = 10)
M0
G00 Z25.0000

G01 F300.00
M03
G00 X9.9138 Y9.3957
G01 Z-1.7000
G01 Z0
G00 Z2.0000
G00 X12.4157 Y11.8976
G01 Z-1.7000
G01 Z0
G00 Z2.0000
G00 X22.4081 Y11.8976
G01 Z-1.7000
G01 Z0
G00 Z2.0000
G00 X38.7581 Y12.2786
G01 Z-1.7000
G01 Z0
G00 Z2.0000
G00 X48.7504 Y12.2786
G01 Z-1.7000
G01 Z0
G00 Z2.0000
G00 X51.2523 Y9.7767
G01 Z-1.7000
G01 Z0
G00 Z2.0000
G00 X43.7543 Y9.7793
G01 Z-1.7000
G01 Z0
G00 Z2.0000
G00 X36.2562 Y9.7767
G01 Z-1.7000
G01 Z0
G00 Z2.0000
G00 X24.9100 Y9.3957
G01 Z-1.7000
G01 Z0
G00 Z2.0000
G00 X17.4119 Y9.3983
G01 Z-1.7000
G01 Z0
G00 Z2.0000
M05
G00 Z0.50
G00 X0.0 Y0.0


