(G-CODE GENERATED BY FLATCAM v8.994 - www.flatcam.org - Version Date: 2020/11/7)

(Name: po_midi_adapter-B_Cu.gbr_iso_combined_1_cnc)
(Type: G-code from Geometry)
(Units: MM)

(Created on Thursday, 12 August 2021 at 17:22)

(This preprocessor is used with a motion controller loaded with GRBL firmware.)
(It is configured to be compatible with almost any version of GRBL firmware.)

(TOOL DIAMETER: 0.1353 mm)
(Feedrate_XY: 80.0 mm/min)
(Feedrate_Z: 50.0 mm/min)
(Feedrate rapids 1500.0 mm/min)

(Z_Cut: -0.1001 mm)
(Z_Move: 2.0 mm)
(Z Start: None mm)
(Z End: 15.0 mm)
(X,Y End: None mm)
(Steps per circle: 64)
(Steps per circle: 64)
(Preprocessor Geometry: GRBL_11_no_M6)

(X range:    3.9616 ...   68.5464  mm)
(Y range:    2.9034 ...   66.8331  mm)

(Spindle Speed: 8000.0 RPM)
G21
G90
G17
G94


G01 F80.00

M5             
G00 Z15.0000
G00 X0.0000 Y0.0000                
T2
(MSG, Change to Tool Dia = 0.1353)
M0
G00 Z15.0000
        
M03 S8000.0
G01 F80.00
G00 X6.5799 Y3.0657
G01 F50.00
G01 Z-0.1001
G01 F80.00
G01 X56.9733 Y3.0657 F80.00
G01 X56.9977 Y3.0669 F80.00
G01 X57.0146 Y3.0692 F80.00
G01 X57.0254 Y3.0713 F80.00
G01 X57.0420 Y3.0754 F80.00
G01 X57.0490 Y3.0775 F80.00
G01 X57.0651 Y3.0833 F80.00
G01 X57.0751 Y3.0876 F80.00
G01 X57.0905 Y3.0951 F80.00
G01 X57.1053 Y3.1037 F80.00
G01 X57.1145 Y3.1097 F80.00
G01 X57.1253 Y3.1177 F80.00
G01 X57.1339 Y3.1245 F80.00
G01 X57.1466 Y3.1360 F80.00
G01 X57.1517 Y3.1411 F80.00
G01 X57.1632 Y3.1538 F80.00
G01 X57.1679 Y3.1595 F80.00
G01 X57.1781 Y3.1732 F80.00
G01 X57.1891 Y3.1908 F80.00
G01 X57.1960 Y3.2037 F80.00
G01 X57.2017 Y3.2158 F80.00
G01 X57.2058 Y3.2260 F80.00
G01 X57.2124 Y3.2457 F80.00
G01 X57.2166 Y3.2623 F80.00
G01 X57.2180 Y3.2694 F80.00
G01 X57.2209 Y3.2900 F80.00
G01 X57.2222 Y3.3144 F80.00
G01 X57.2471 Y29.6887 F80.00
G01 X57.2459 Y29.7132 F80.00
G01 X57.2507 Y29.7625 F80.00
G01 X57.2651 Y29.8098 F80.00
G01 X57.2884 Y29.8534 F80.00
G01 X57.3198 Y29.8917 F80.00
G01 X57.3580 Y29.9230 F80.00
G01 X57.4017 Y29.9463 F80.00
G01 X57.4490 Y29.9607 F80.00
G01 X57.4859 Y29.9643 F80.00
G01 X57.4986 Y29.9645 F80.00
G01 X68.1388 Y29.9628 F80.00
G01 X68.1596 Y29.9640 F80.00
G01 X68.1837 Y29.9676 F80.00
G01 X68.2074 Y29.9735 F80.00
G01 X68.2304 Y29.9817 F80.00
G01 X68.2525 Y29.9922 F80.00
G01 X68.2735 Y30.0047 F80.00
G01 X68.2931 Y30.0193 F80.00
G01 X68.3086 Y30.0331 F80.00
G01 X68.3137 Y30.0383 F80.00
G01 X68.3252 Y30.0510 F80.00
G01 X68.3379 Y30.0674 F80.00
G01 X68.3460 Y30.0796 F80.00
G01 X68.3529 Y30.0911 F80.00
G01 X68.3580 Y30.1009 F80.00
G01 X68.3665 Y30.1198 F80.00
G01 X68.3723 Y30.1359 F80.00
G01 X68.3744 Y30.1429 F80.00
G01 X68.3785 Y30.1595 F80.00
G01 X68.3800 Y30.1667 F80.00
G01 X68.3825 Y30.1836 F80.00
G01 X68.3832 Y30.1909 F80.00
G01 X68.3841 Y30.2117 F80.00
G01 X68.3841 Y45.1886 F80.00
G01 X68.3829 Y45.2130 F80.00
G01 X68.3800 Y45.2335 F80.00
G01 X68.3753 Y45.2538 F80.00
G01 X68.3711 Y45.2678 F80.00
G01 X68.3637 Y45.2872 F80.00
G01 X68.3547 Y45.3059 F80.00
G01 X68.3421 Y45.3268 F80.00
G01 X68.3299 Y45.3436 F80.00
G01 X68.3162 Y45.3593 F80.00
G01 X68.3059 Y45.3696 F80.00
G01 X68.2902 Y45.3832 F80.00
G01 X68.2735 Y45.3955 F80.00
G01 X68.2525 Y45.4081 F80.00
G01 X68.2338 Y45.4171 F80.00
G01 X68.2144 Y45.4244 F80.00
G01 X68.2004 Y45.4287 F80.00
G01 X68.1802 Y45.4333 F80.00
G01 X68.1596 Y45.4362 F80.00
G01 X68.1352 Y45.4374 F80.00
G01 X68.1144 Y45.4366 F80.00
G01 X68.0938 Y45.4339 F80.00
G01 X68.0795 Y45.4311 F80.00
G01 X68.0595 Y45.4256 F80.00
G01 X68.0434 Y45.4199 F80.00
G01 X68.0366 Y45.4171 F80.00
G01 X68.0179 Y45.4081 F80.00
G01 X67.9969 Y45.3955 F80.00
G01 X67.9773 Y45.3810 F80.00
G01 X67.9618 Y45.3671 F80.00
G01 X67.6372 Y45.0425 F80.00
G01 X67.6255 Y45.0299 F80.00
G01 X67.6158 Y45.0184 F80.00
G01 X67.5542 Y44.9678 F80.00
G01 X67.4838 Y44.9302 F80.00
G01 X67.4074 Y44.9070 F80.00
G01 X67.3280 Y44.8992 F80.00
G01 X67.3130 Y44.9005 F80.00
G01 X67.2959 Y44.9011 F80.00
G01 X57.4998 Y44.9011 F80.00
G01 X57.4827 Y44.9005 F80.00
G01 X57.4677 Y44.8992 F80.00
G01 X57.3883 Y44.9070 F80.00
G01 X57.3119 Y44.9302 F80.00
G01 X57.2416 Y44.9678 F80.00
G01 X57.1799 Y45.0184 F80.00
G01 X57.1702 Y45.0299 F80.00
G01 X57.1585 Y45.0425 F80.00
G01 X56.4140 Y45.7870 F80.00
G01 X56.4015 Y45.7986 F80.00
G01 X56.3899 Y45.8083 F80.00
G01 X56.3393 Y45.8700 F80.00
G01 X56.3017 Y45.9404 F80.00
G01 X56.2785 Y46.0168 F80.00
G01 X56.2707 Y46.0962 F80.00
G01 X56.2720 Y46.1112 F80.00
G01 X56.2727 Y46.1283 F80.00
G01 X56.2727 Y48.7285 F80.00
G01 X56.2720 Y48.7456 F80.00
G01 X56.2707 Y48.7607 F80.00
G01 X56.2785 Y48.8401 F80.00
G01 X56.3017 Y48.9164 F80.00
G01 X56.3393 Y48.9868 F80.00
G01 X56.3899 Y49.0485 F80.00
G01 X56.4015 Y49.0582 F80.00
G01 X56.4140 Y49.0698 F80.00
G01 X58.9837 Y51.6395 F80.00
G01 X58.9953 Y51.6521 F80.00
G01 X59.0024 Y51.6605 F80.00
G01 X59.0126 Y51.6742 F80.00
G01 X59.0186 Y51.6834 F80.00
G01 X59.0272 Y51.6982 F80.00
G01 X59.0362 Y51.7169 F80.00
G01 X59.0403 Y51.7271 F80.00
G01 X59.0459 Y51.7433 F80.00
G01 X59.0511 Y51.7634 F80.00
G01 X59.0531 Y51.7741 F80.00
G01 X59.0557 Y51.7947 F80.00
G01 X59.0566 Y51.8155 F80.00
G01 X59.0557 Y51.8363 F80.00
G01 X59.0545 Y51.8471 F80.00
G01 X59.0518 Y51.8641 F80.00
G01 X59.0469 Y51.8842 F80.00
G01 X59.0436 Y51.8947 F80.00
G01 X59.0362 Y51.9141 F80.00
G01 X59.0272 Y51.9328 F80.00
G01 X59.0186 Y51.9476 F80.00
G01 X59.0126 Y51.9568 F80.00
G01 X59.0001 Y51.9734 F80.00
G01 X58.9863 Y51.9889 F80.00
G01 X58.9784 Y51.9965 F80.00
G01 X58.9656 Y52.0079 F80.00
G01 X58.9490 Y52.0204 F80.00
G01 X58.9398 Y52.0263 F80.00
G01 X58.9250 Y52.0350 F80.00
G01 X58.9096 Y52.0425 F80.00
G01 X58.8996 Y52.0468 F80.00
G01 X58.8800 Y52.0537 F80.00
G01 X58.8634 Y52.0580 F80.00
G01 X58.8527 Y52.0603 F80.00
G01 X58.8358 Y52.0628 F80.00
G01 X58.8150 Y52.0642 F80.00
G01 X58.7221 Y52.0644 F80.00
G01 X58.6803 Y52.0685 F80.00
G01 X58.6518 Y52.0771 F80.00
G01 X58.6255 Y52.0912 F80.00
G01 X58.6025 Y52.1101 F80.00
G01 X58.5836 Y52.1331 F80.00
G01 X58.5696 Y52.1593 F80.00
G01 X58.5609 Y52.1878 F80.00
G01 X58.5568 Y52.2297 F80.00
G01 X58.5568 Y53.8052 F80.00
G01 X58.5609 Y53.8471 F80.00
G01 X58.5696 Y53.8755 F80.00
G01 X58.5836 Y53.9018 F80.00
G01 X58.6025 Y53.9248 F80.00
G01 X58.6255 Y53.9437 F80.00
G01 X58.6518 Y53.9577 F80.00
G01 X58.6803 Y53.9664 F80.00
G01 X58.7221 Y53.9705 F80.00
G01 X60.2977 Y53.9705 F80.00
G01 X60.3395 Y53.9664 F80.00
G01 X60.3680 Y53.9577 F80.00
G01 X60.3942 Y53.9437 F80.00
G01 X60.4173 Y53.9248 F80.00
G01 X60.4361 Y53.9018 F80.00
G01 X60.4502 Y53.8755 F80.00
G01 X60.4588 Y53.8471 F80.00
G01 X60.4629 Y53.8052 F80.00
G01 X60.4629 Y52.2297 F80.00
G01 X60.4588 Y52.1878 F80.00
G01 X60.4502 Y52.1593 F80.00
G01 X60.4361 Y52.1331 F80.00
G01 X60.4173 Y52.1101 F80.00
G01 X60.3942 Y52.0912 F80.00
G01 X60.3680 Y52.0771 F80.00
G01 X60.3395 Y52.0685 F80.00
G01 X60.2977 Y52.0644 F80.00
G01 X60.1602 Y52.0643 F80.00
G01 X60.1431 Y52.0635 F80.00
G01 X60.1359 Y52.0628 F80.00
G01 X60.1189 Y52.0603 F80.00
G01 X60.1118 Y52.0588 F80.00
G01 X60.0916 Y52.0537 F80.00
G01 X60.0720 Y52.0468 F80.00
G01 X60.0531 Y52.0383 F80.00
G01 X60.0434 Y52.0332 F80.00
G01 X60.0256 Y52.0224 F80.00
G01 X60.0088 Y52.0102 F80.00
G01 X60.0005 Y52.0031 F80.00
G01 X59.9853 Y51.9889 F80.00
G01 X59.9715 Y51.9734 F80.00
G01 X59.9590 Y51.9568 F80.00
G01 X59.9480 Y51.9392 F80.00
G01 X59.9427 Y51.9296 F80.00
G01 X59.9339 Y51.9107 F80.00
G01 X59.9268 Y51.8912 F80.00
G01 X59.9214 Y51.8712 F80.00
G01 X59.9185 Y51.8569 F80.00
G01 X59.9159 Y51.8363 F80.00
G01 X59.9150 Y51.8155 F80.00
G01 X59.9150 Y51.6249 F80.00
G01 X59.9157 Y51.6078 F80.00
G01 X59.9170 Y51.5928 F80.00
G01 X59.9091 Y51.5133 F80.00
G01 X59.8860 Y51.4370 F80.00
G01 X59.8484 Y51.3666 F80.00
G01 X59.7977 Y51.3049 F80.00
G01 X59.7862 Y51.2952 F80.00
G01 X59.7736 Y51.2836 F80.00
G01 X57.1558 Y48.6657 F80.00
G01 X57.1394 Y48.6477 F80.00
G01 X57.1248 Y48.6280 F80.00
G01 X57.1123 Y48.6071 F80.00
G01 X57.1018 Y48.5850 F80.00
G01 X57.0936 Y48.5620 F80.00
G01 X57.0877 Y48.5383 F80.00
G01 X57.0841 Y48.5142 F80.00
G01 X57.0829 Y48.4898 F80.00
G01 X57.0829 Y46.3634 F80.00
G01 X57.0841 Y46.3427 F80.00
G01 X57.0877 Y46.3185 F80.00
G01 X57.0936 Y46.2948 F80.00
G01 X57.1005 Y46.2752 F80.00
G01 X57.1090 Y46.2563 F80.00
G01 X57.1159 Y46.2434 F80.00
G01 X57.1269 Y46.2258 F80.00
G01 X57.1371 Y46.2121 F80.00
G01 X57.1417 Y46.2064 F80.00
G01 X57.1558 Y46.1911 F80.00
G01 X57.5626 Y45.7843 F80.00
G01 X57.5807 Y45.7679 F80.00
G01 X57.6003 Y45.7533 F80.00
G01 X57.6181 Y45.7425 F80.00
G01 X57.6367 Y45.7333 F80.00
G01 X57.6502 Y45.7277 F80.00
G01 X57.6699 Y45.7211 F80.00
G01 X57.6901 Y45.7162 F80.00
G01 X57.7142 Y45.7126 F80.00
G01 X57.7350 Y45.7114 F80.00
G01 X67.0460 Y45.7114 F80.00
G01 X67.0667 Y45.7126 F80.00
G01 X67.0909 Y45.7162 F80.00
G01 X67.1110 Y45.7211 F80.00
G01 X67.1307 Y45.7277 F80.00
G01 X67.1442 Y45.7333 F80.00
G01 X67.1628 Y45.7425 F80.00
G01 X67.1806 Y45.7533 F80.00
G01 X67.2002 Y45.7679 F80.00
G01 X67.2157 Y45.7817 F80.00
G01 X67.2299 Y45.7968 F80.00
G01 X67.2392 Y45.8081 F80.00
G01 X67.2512 Y45.8250 F80.00
G01 X67.2618 Y45.8429 F80.00
G01 X67.2722 Y45.8650 F80.00
G01 X67.2794 Y45.8845 F80.00
G01 X67.2848 Y45.9046 F80.00
G01 X67.2871 Y45.9153 F80.00
G01 X67.2896 Y45.9322 F80.00
G01 X67.2905 Y45.9431 F80.00
G01 X67.2912 Y45.9603 F80.00
G01 X67.2912 Y48.2815 F80.00
G01 X67.2905 Y48.2986 F80.00
G01 X67.2892 Y48.3136 F80.00
G01 X67.2977 Y48.3978 F80.00
G01 X67.2998 Y48.4075 F80.00
G01 X67.3027 Y48.4281 F80.00
G01 X67.3039 Y48.4525 F80.00
G01 X67.3039 Y57.7938 F80.00
G01 X67.3032 Y57.8109 F80.00
G01 X67.3023 Y57.8218 F80.00
G01 X67.2991 Y57.8423 F80.00
G01 X67.2951 Y57.8590 F80.00
G01 X67.2921 Y57.8695 F80.00
G01 X67.2849 Y57.8890 F80.00
G01 X67.2778 Y57.9046 F80.00
G01 X67.2727 Y57.9143 F80.00
G01 X67.2619 Y57.9321 F80.00
G01 X67.2519 Y57.9459 F80.00
G01 X67.2450 Y57.9545 F80.00
G01 X67.2310 Y57.9698 F80.00
G01 X63.5653 Y61.6354 F80.00
G01 X63.5472 Y61.6518 F80.00
G01 X63.5276 Y61.6664 F80.00
G01 X63.5067 Y61.6789 F80.00
G01 X63.4913 Y61.6864 F80.00
G01 X63.4812 Y61.6907 F80.00
G01 X63.4616 Y61.6976 F80.00
G01 X63.4379 Y61.7035 F80.00
G01 X63.4137 Y61.7071 F80.00
G01 X63.3893 Y61.7083 F80.00
G01 X60.5166 Y61.7083 F80.00
G01 X60.4995 Y61.7077 F80.00
G01 X60.4886 Y61.7067 F80.00
G01 X60.4680 Y61.7035 F80.00
G01 X60.4443 Y61.6976 F80.00
G01 X60.4214 Y61.6894 F80.00
G01 X60.3993 Y61.6789 F80.00
G01 X60.3783 Y61.6664 F80.00
G01 X60.3587 Y61.6518 F80.00
G01 X60.3406 Y61.6354 F80.00
G01 X60.3242 Y61.6173 F80.00
G01 X60.3097 Y61.5977 F80.00
G01 X60.2971 Y61.5768 F80.00
G01 X60.2867 Y61.5547 F80.00
G01 X60.2807 Y61.5386 F80.00
G01 X60.2774 Y61.5282 F80.00
G01 X60.2725 Y61.5080 F80.00
G01 X60.2689 Y61.4838 F80.00
G01 X60.2678 Y61.4631 F80.00
G01 X60.2677 Y61.4117 F80.00
G01 X60.2636 Y61.3698 F80.00
G01 X60.2550 Y61.3413 F80.00
G01 X60.2409 Y61.3151 F80.00
G01 X60.2220 Y61.2921 F80.00
G01 X60.1990 Y61.2732 F80.00
G01 X60.1728 Y61.2591 F80.00
G01 X60.1443 Y61.2505 F80.00
G01 X60.1024 Y61.2464 F80.00
G01 X58.6989 Y61.2464 F80.00
G01 X58.6570 Y61.2505 F80.00
G01 X58.6285 Y61.2591 F80.00
G01 X58.6023 Y61.2732 F80.00
G01 X58.5793 Y61.2921 F80.00
G01 X58.5604 Y61.3151 F80.00
G01 X58.5464 Y61.3413 F80.00
G01 X58.5377 Y61.3698 F80.00
G01 X58.5336 Y61.4117 F80.00
G01 X58.5336 Y62.8152 F80.00
G01 X58.5377 Y62.8571 F80.00
G01 X58.5464 Y62.8855 F80.00
G01 X58.5604 Y62.9118 F80.00
G01 X58.5793 Y62.9348 F80.00
G01 X58.6023 Y62.9537 F80.00
G01 X58.6285 Y62.9677 F80.00
G01 X58.6570 Y62.9764 F80.00
G01 X58.6989 Y62.9805 F80.00
G01 X60.1024 Y62.9805 F80.00
G01 X60.1443 Y62.9764 F80.00
G01 X60.1728 Y62.9677 F80.00
G01 X60.1990 Y62.9537 F80.00
G01 X60.2220 Y62.9348 F80.00
G01 X60.2409 Y62.9118 F80.00
G01 X60.2550 Y62.8855 F80.00
G01 X60.2636 Y62.8571 F80.00
G01 X60.2677 Y62.8152 F80.00
G01 X60.2678 Y62.7638 F80.00
G01 X60.2686 Y62.7467 F80.00
G01 X60.2712 Y62.7261 F80.00
G01 X60.2741 Y62.7118 F80.00
G01 X60.2774 Y62.6987 F80.00
G01 X60.2807 Y62.6883 F80.00
G01 X60.2867 Y62.6722 F80.00
G01 X60.2938 Y62.6566 F80.00
G01 X60.2989 Y62.6469 F80.00
G01 X60.3077 Y62.6322 F80.00
G01 X60.3117 Y62.6262 F80.00
G01 X60.3219 Y62.6124 F80.00
G01 X60.3290 Y62.6040 F80.00
G01 X60.3406 Y62.5915 F80.00
G01 X60.3587 Y62.5751 F80.00
G01 X60.3783 Y62.5605 F80.00
G01 X60.3993 Y62.5479 F80.00
G01 X60.4214 Y62.5375 F80.00
G01 X60.4443 Y62.5293 F80.00
G01 X60.4680 Y62.5233 F80.00
G01 X60.4849 Y62.5207 F80.00
G01 X60.4958 Y62.5194 F80.00
G01 X60.5166 Y62.5186 F80.00
G01 X62.2579 Y62.5186 F80.00
G01 X62.2787 Y62.5194 F80.00
G01 X62.2896 Y62.5207 F80.00
G01 X62.3065 Y62.5233 F80.00
G01 X62.3266 Y62.5283 F80.00
G01 X62.3371 Y62.5316 F80.00
G01 X62.3532 Y62.5375 F80.00
G01 X62.3720 Y62.5463 F80.00
G01 X62.3816 Y62.5515 F80.00
G01 X62.3962 Y62.5605 F80.00
G01 X62.4100 Y62.5706 F80.00
G01 X62.4186 Y62.5774 F80.00
G01 X62.4339 Y62.5915 F80.00
G01 X62.4455 Y62.6040 F80.00
G01 X62.4526 Y62.6124 F80.00
G01 X62.4628 Y62.6262 F80.00
G01 X62.4688 Y62.6353 F80.00
G01 X62.4774 Y62.6501 F80.00
G01 X62.4878 Y62.6722 F80.00
G01 X62.4961 Y62.6952 F80.00
G01 X62.5020 Y62.7189 F80.00
G01 X62.5052 Y62.7394 F80.00
G01 X62.5059 Y62.7467 F80.00
G01 X62.5067 Y62.7638 F80.00
G01 X62.5067 Y62.7711 F80.00
G01 X62.5059 Y62.7882 F80.00
G01 X62.5052 Y62.7955 F80.00
G01 X62.5027 Y62.8124 F80.00
G01 X62.4980 Y62.8326 F80.00
G01 X62.4938 Y62.8466 F80.00
G01 X62.4892 Y62.8593 F80.00
G01 X62.4849 Y62.8694 F80.00
G01 X62.4756 Y62.8880 F80.00
G01 X62.4668 Y62.9026 F80.00
G01 X62.4628 Y62.9087 F80.00
G01 X62.4503 Y62.9253 F80.00
G01 X62.4339 Y62.9434 F80.00
G01 X62.4158 Y62.9598 F80.00
G01 X62.3962 Y62.9744 F80.00
G01 X62.3752 Y62.9869 F80.00
G01 X62.3565 Y62.9959 F80.00
G01 X62.3498 Y62.9987 F80.00
G01 X62.3336 Y63.0045 F80.00
G01 X62.3136 Y63.0099 F80.00
G01 X61.9430 Y63.0838 F80.00
G01 X61.6137 Y63.2202 F80.00
G01 X61.3174 Y63.4182 F80.00
G01 X61.0654 Y63.6702 F80.00
G01 X60.8674 Y63.9665 F80.00
G01 X60.7311 Y64.2957 F80.00
G01 X60.6615 Y64.6453 F80.00
G01 X60.6615 Y65.0016 F80.00
G01 X60.7311 Y65.3511 F80.00
G01 X60.8674 Y65.6804 F80.00
G01 X61.0654 Y65.9767 F80.00
G01 X61.3372 Y66.2485 F80.00
G01 X61.3510 Y66.2640 F80.00
G01 X61.3656 Y66.2836 F80.00
G01 X61.3764 Y66.3014 F80.00
G01 X61.3856 Y66.3200 F80.00
G01 X61.3912 Y66.3335 F80.00
G01 X61.3978 Y66.3532 F80.00
G01 X61.4027 Y66.3733 F80.00
G01 X61.4063 Y66.3975 F80.00
G01 X61.4075 Y66.4183 F80.00
G01 X61.4068 Y66.4390 F80.00
G01 X61.4054 Y66.4536 F80.00
G01 X61.4019 Y66.4741 F80.00
G01 X61.3968 Y66.4942 F80.00
G01 X61.3899 Y66.5138 F80.00
G01 X61.3814 Y66.5327 F80.00
G01 X61.3745 Y66.5456 F80.00
G01 X61.3634 Y66.5632 F80.00
G01 X61.3509 Y66.5798 F80.00
G01 X61.3345 Y66.5979 F80.00
G01 X61.3192 Y66.6120 F80.00
G01 X61.3136 Y66.6166 F80.00
G01 X61.2998 Y66.6268 F80.00
G01 X61.2822 Y66.6378 F80.00
G01 X61.2726 Y66.6431 F80.00
G01 X61.2604 Y66.6489 F80.00
G01 X61.2469 Y66.6545 F80.00
G01 X61.2272 Y66.6611 F80.00
G01 X61.2106 Y66.6652 F80.00
G01 X61.2034 Y66.6667 F80.00
G01 X61.1829 Y66.6696 F80.00
G01 X61.1584 Y66.6707 F80.00
G01 X50.6499 Y66.6634 F80.00
G01 X50.6291 Y66.6625 F80.00
G01 X50.6183 Y66.6612 F80.00
G01 X50.5978 Y66.6578 F80.00
G01 X50.5777 Y66.6526 F80.00
G01 X50.5547 Y66.6444 F80.00
G01 X50.5326 Y66.6339 F80.00
G01 X50.5117 Y66.6213 F80.00
G01 X50.4949 Y66.6091 F80.00
G01 X50.4893 Y66.6044 F80.00
G01 X50.4766 Y66.5929 F80.00
G01 X50.4624 Y66.5778 F80.00
G01 X50.4531 Y66.5665 F80.00
G01 X50.4451 Y66.5557 F80.00
G01 X50.4392 Y66.5465 F80.00
G01 X50.4289 Y66.5285 F80.00
G01 X50.4215 Y66.5130 F80.00
G01 X50.4187 Y66.5062 F80.00
G01 X50.4130 Y66.4901 F80.00
G01 X50.4109 Y66.4831 F80.00
G01 X50.4067 Y66.4665 F80.00
G01 X50.4053 Y66.4594 F80.00
G01 X50.4024 Y66.4388 F80.00
G01 X50.4012 Y66.4144 F80.00
G01 X50.4024 Y66.3900 F80.00
G01 X50.4060 Y66.3659 F80.00
G01 X50.4100 Y66.3492 F80.00
G01 X50.4130 Y66.3387 F80.00
G01 X50.4188 Y66.3226 F80.00
G01 X50.4231 Y66.3125 F80.00
G01 X50.4306 Y66.2971 F80.00
G01 X50.4392 Y66.2824 F80.00
G01 X50.4452 Y66.2732 F80.00
G01 X50.4554 Y66.2594 F80.00
G01 X50.4625 Y66.2511 F80.00
G01 X50.4741 Y66.2385 F80.00
G01 X50.7359 Y65.9767 F80.00
G01 X50.9339 Y65.6804 F80.00
G01 X51.0703 Y65.3511 F80.00
G01 X51.1398 Y65.0016 F80.00
G01 X51.1398 Y64.6453 F80.00
G01 X51.0703 Y64.2957 F80.00
G01 X50.9339 Y63.9665 F80.00
G01 X50.7359 Y63.6702 F80.00
G01 X50.4839 Y63.4182 F80.00
G01 X50.1876 Y63.2202 F80.00
G01 X49.8584 Y63.0838 F80.00
G01 X49.5088 Y63.0143 F80.00
G01 X49.1525 Y63.0143 F80.00
G01 X48.8030 Y63.0838 F80.00
G01 X48.4737 Y63.2202 F80.00
G01 X48.1774 Y63.4182 F80.00
G01 X47.9254 Y63.6702 F80.00
G01 X47.7274 Y63.9665 F80.00
G01 X47.5911 Y64.2957 F80.00
G01 X47.5215 Y64.6453 F80.00
G01 X47.5215 Y65.0016 F80.00
G01 X47.5911 Y65.3511 F80.00
G01 X47.7274 Y65.6804 F80.00
G01 X47.9254 Y65.9767 F80.00
G01 X48.1854 Y66.2366 F80.00
G01 X48.1970 Y66.2492 F80.00
G01 X48.2041 Y66.2576 F80.00
G01 X48.2143 Y66.2713 F80.00
G01 X48.2202 Y66.2805 F80.00
G01 X48.2289 Y66.2953 F80.00
G01 X48.2379 Y66.3140 F80.00
G01 X48.2420 Y66.3242 F80.00
G01 X48.2476 Y66.3404 F80.00
G01 X48.2519 Y66.3570 F80.00
G01 X48.2542 Y66.3677 F80.00
G01 X48.2567 Y66.3846 F80.00
G01 X48.2574 Y66.3919 F80.00
G01 X48.2582 Y66.4090 F80.00
G01 X48.2581 Y66.4200 F80.00
G01 X48.2574 Y66.4334 F80.00
G01 X48.2562 Y66.4443 F80.00
G01 X48.2535 Y66.4612 F80.00
G01 X48.2495 Y66.4779 F80.00
G01 X48.2464 Y66.4884 F80.00
G01 X48.2406 Y66.5046 F80.00
G01 X48.2378 Y66.5113 F80.00
G01 X48.2305 Y66.5268 F80.00
G01 X48.2252 Y66.5364 F80.00
G01 X48.2163 Y66.5510 F80.00
G01 X48.2017 Y66.5706 F80.00
G01 X48.1853 Y66.5887 F80.00
G01 X48.1727 Y66.6003 F80.00
G01 X48.1643 Y66.6074 F80.00
G01 X48.1506 Y66.6176 F80.00
G01 X48.1445 Y66.6216 F80.00
G01 X48.1298 Y66.6304 F80.00
G01 X48.1201 Y66.6355 F80.00
G01 X48.1079 Y66.6412 F80.00
G01 X48.0977 Y66.6452 F80.00
G01 X48.0815 Y66.6508 F80.00
G01 X48.0649 Y66.6552 F80.00
G01 X48.0542 Y66.6574 F80.00
G01 X48.0372 Y66.6599 F80.00
G01 X48.0300 Y66.6606 F80.00
G01 X48.0129 Y66.6615 F80.00
G01 X46.9109 Y66.6607 F80.00
G01 X46.8902 Y66.6598 F80.00
G01 X46.8793 Y66.6586 F80.00
G01 X46.8624 Y66.6559 F80.00
G01 X46.8387 Y66.6500 F80.00
G01 X46.8157 Y66.6417 F80.00
G01 X46.8002 Y66.6346 F80.00
G01 X46.7905 Y66.6295 F80.00
G01 X46.7758 Y66.6207 F80.00
G01 X46.7668 Y66.6145 F80.00
G01 X46.7531 Y66.6042 F80.00
G01 X46.7403 Y66.5928 F80.00
G01 X46.7325 Y66.5852 F80.00
G01 X46.7210 Y66.5725 F80.00
G01 X46.7164 Y66.5668 F80.00
G01 X46.7062 Y66.5531 F80.00
G01 X46.6952 Y66.5355 F80.00
G01 X46.6899 Y66.5259 F80.00
G01 X46.6811 Y66.5071 F80.00
G01 X46.6740 Y66.4875 F80.00
G01 X46.6710 Y66.4770 F80.00
G01 X46.6663 Y66.4568 F80.00
G01 X46.6634 Y66.4362 F80.00
G01 X46.6623 Y66.4155 F80.00
G01 X46.6622 Y64.6751 F80.00
G01 X46.6634 Y64.6505 F80.00
G01 X46.6585 Y64.6013 F80.00
G01 X46.6441 Y64.5540 F80.00
G01 X46.6327 Y64.5328 F80.00
G01 X46.6207 Y64.5104 F80.00
G01 X46.5892 Y64.4722 F80.00
G01 X46.5510 Y64.4409 F80.00
G01 X46.5073 Y64.4176 F80.00
G01 X46.4599 Y64.4033 F80.00
G01 X46.4111 Y64.3986 F80.00
G01 X46.3865 Y64.3998 F80.00
G01 X5.8894 Y64.4632 F80.00
G01 X5.8724 Y64.4625 F80.00
G01 X5.6232 Y64.4429 F80.00
G01 X5.6015 Y64.4402 F80.00
G01 X5.5800 Y64.4356 F80.00
G01 X5.2920 Y64.3606 F80.00
G01 X5.2688 Y64.3533 F80.00
G01 X5.2497 Y64.3453 F80.00
G01 X4.9828 Y64.2163 F80.00
G01 X4.9614 Y64.2047 F80.00
G01 X4.9413 Y64.1910 F80.00
G01 X4.7074 Y64.0148 F80.00
G01 X4.6915 Y64.0017 F80.00
G01 X4.6835 Y63.9942 F80.00
G01 X4.6717 Y63.9819 F80.00
G01 X4.4741 Y63.7609 F80.00
G01 X4.4612 Y63.7447 F80.00
G01 X4.4497 Y63.7275 F80.00
G01 X4.3176 Y63.5043 F80.00
G01 X4.3123 Y63.4945 F80.00
G01 X4.3055 Y63.4806 F80.00
G01 X4.2988 Y63.4641 F80.00
G01 X4.2952 Y63.4536 F80.00
G01 X4.2897 Y63.4328 F80.00
G01 X4.1298 Y62.7107 F80.00
G01 X4.1254 Y62.6840 F80.00
G01 X4.1239 Y62.6569 F80.00
G01 X4.1268 Y34.9323 F80.00
G01 X4.1275 Y34.9152 F80.00
G01 X4.1284 Y34.9042 F80.00
G01 X4.1309 Y34.8873 F80.00
G01 X4.1332 Y34.8766 F80.00
G01 X4.1375 Y34.8600 F80.00
G01 X4.1444 Y34.8404 F80.00
G01 X4.1487 Y34.8303 F80.00
G01 X4.1562 Y34.8149 F80.00
G01 X4.1649 Y34.8002 F80.00
G01 X4.1708 Y34.7910 F80.00
G01 X4.1810 Y34.7772 F80.00
G01 X4.1881 Y34.7689 F80.00
G01 X4.1997 Y34.7563 F80.00
G01 X4.2150 Y34.7422 F80.00
G01 X4.2236 Y34.7354 F80.00
G01 X4.2374 Y34.7253 F80.00
G01 X4.2584 Y34.7128 F80.00
G01 X4.2771 Y34.7038 F80.00
G01 X4.2965 Y34.6964 F80.00
G01 X4.3105 Y34.6922 F80.00
G01 X4.3307 Y34.6875 F80.00
G01 X4.3513 Y34.6846 F80.00
G01 X4.3757 Y34.6834 F80.00
G01 X4.3965 Y34.6843 F80.00
G01 X4.4171 Y34.6869 F80.00
G01 X4.4314 Y34.6898 F80.00
G01 X4.4514 Y34.6952 F80.00
G01 X4.4675 Y34.7010 F80.00
G01 X4.4743 Y34.7038 F80.00
G01 X4.4930 Y34.7128 F80.00
G01 X4.5140 Y34.7254 F80.00
G01 X4.5307 Y34.7376 F80.00
G01 X4.5464 Y34.7513 F80.00
G01 X6.9111 Y37.1157 F80.00
G01 X6.9275 Y37.1338 F80.00
G01 X6.9378 Y37.1474 F80.00
G01 X6.9440 Y37.1565 F80.00
G01 X6.9528 Y37.1712 F80.00
G01 X6.9579 Y37.1809 F80.00
G01 X6.9650 Y37.1964 F80.00
G01 X6.9709 Y37.2125 F80.00
G01 X6.9752 Y37.2265 F80.00
G01 X6.9798 Y37.2467 F80.00
G01 X6.9828 Y37.2673 F80.00
G01 X6.9840 Y37.2917 F80.00
G01 X6.9840 Y39.7619 F80.00
G01 X6.9828 Y39.7863 F80.00
G01 X6.9798 Y39.8068 F80.00
G01 X6.9752 Y39.8271 F80.00
G01 X6.9721 Y39.8376 F80.00
G01 X6.9650 Y39.8571 F80.00
G01 X6.9579 Y39.8727 F80.00
G01 X6.9528 Y39.8824 F80.00
G01 X6.9420 Y39.9001 F80.00
G01 X6.9320 Y39.9140 F80.00
G01 X6.9251 Y39.9225 F80.00
G01 X6.9136 Y39.9352 F80.00
G01 X6.9058 Y39.9429 F80.00
G01 X6.8930 Y39.9543 F80.00
G01 X6.8793 Y39.9646 F80.00
G01 X6.7509 Y40.0506 F80.00
G01 X6.6115 Y40.1901 F80.00
G01 X6.5019 Y40.3540 F80.00
G01 X6.4264 Y40.5362 F80.00
G01 X6.3880 Y40.7296 F80.00
G01 X6.3880 Y40.9268 F80.00
G01 X6.4264 Y41.1203 F80.00
G01 X6.5019 Y41.3024 F80.00
G01 X6.6115 Y41.4664 F80.00
G01 X6.7509 Y41.6059 F80.00
G01 X6.9149 Y41.7154 F80.00
G01 X7.0971 Y41.7909 F80.00
G01 X7.2905 Y41.8294 F80.00
G01 X7.4877 Y41.8294 F80.00
G01 X7.6811 Y41.7909 F80.00
G01 X7.8633 Y41.7154 F80.00
G01 X8.0273 Y41.6059 F80.00
G01 X8.1667 Y41.4664 F80.00
G01 X8.2763 Y41.3024 F80.00
G01 X8.3517 Y41.1203 F80.00
G01 X8.3902 Y40.9268 F80.00
G01 X8.3902 Y40.7296 F80.00
G01 X8.3517 Y40.5362 F80.00
G01 X8.2763 Y40.3540 F80.00
G01 X8.1667 Y40.1901 F80.00
G01 X8.0273 Y40.0506 F80.00
G01 X7.8988 Y39.9646 F80.00
G01 X7.8852 Y39.9543 F80.00
G01 X7.8724 Y39.9429 F80.00
G01 X7.8645 Y39.9352 F80.00
G01 X7.8530 Y39.9225 F80.00
G01 X7.8403 Y39.9061 F80.00
G01 X7.8341 Y39.8971 F80.00
G01 X7.8236 Y39.8792 F80.00
G01 X7.8161 Y39.8638 F80.00
G01 X7.8118 Y39.8537 F80.00
G01 X7.8049 Y39.8341 F80.00
G01 X7.7997 Y39.8140 F80.00
G01 X7.7977 Y39.8032 F80.00
G01 X7.7951 Y39.7826 F80.00
G01 X7.7942 Y39.7619 F80.00
G01 X7.7942 Y37.0529 F80.00
G01 X7.7949 Y37.0358 F80.00
G01 X7.7962 Y37.0208 F80.00
G01 X7.7883 Y36.9414 F80.00
G01 X7.7652 Y36.8650 F80.00
G01 X7.7276 Y36.7946 F80.00
G01 X7.6769 Y36.7329 F80.00
G01 X7.6654 Y36.7232 F80.00
G01 X7.6528 Y36.7116 F80.00
G01 X5.1925 Y34.2512 F80.00
G01 X5.1786 Y34.2357 F80.00
G01 X5.1641 Y34.2161 F80.00
G01 X5.1515 Y34.1951 F80.00
G01 X5.1425 Y34.1764 F80.00
G01 X5.1397 Y34.1697 F80.00
G01 X5.1339 Y34.1535 F80.00
G01 X5.1285 Y34.1335 F80.00
G01 X5.1262 Y34.1228 F80.00
G01 X5.1242 Y34.1094 F80.00
G01 X5.1228 Y34.0949 F80.00
G01 X5.1221 Y34.0778 F80.00
G01 X5.1223 Y32.4955 F80.00
G01 X5.1237 Y32.4748 F80.00
G01 X5.1262 Y32.4579 F80.00
G01 X5.1277 Y32.4507 F80.00
G01 X5.1318 Y32.4341 F80.00
G01 X5.1339 Y32.4271 F80.00
G01 X5.1397 Y32.4110 F80.00
G01 X5.1425 Y32.4042 F80.00
G01 X5.1498 Y32.3887 F80.00
G01 X5.1533 Y32.3823 F80.00
G01 X5.1621 Y32.3676 F80.00
G01 X5.1661 Y32.3615 F80.00
G01 X5.1763 Y32.3478 F80.00
G01 X5.1810 Y32.3421 F80.00
G01 X5.1925 Y32.3294 F80.00
G01 X5.1976 Y32.3243 F80.00
G01 X5.2131 Y32.3104 F80.00
G01 X5.2297 Y32.2980 F80.00
G01 X5.2389 Y32.2920 F80.00
G01 X5.2569 Y32.2816 F80.00
G01 X5.2758 Y32.2729 F80.00
G01 X5.2953 Y32.2658 F80.00
G01 X5.3153 Y32.2603 F80.00
G01 X5.3296 Y32.2575 F80.00
G01 X5.3502 Y32.2548 F80.00
G01 X5.3710 Y32.2539 F80.00
G01 X5.3918 Y32.2548 F80.00
G01 X5.4124 Y32.2575 F80.00
G01 X5.4267 Y32.2603 F80.00
G01 X5.4467 Y32.2658 F80.00
G01 X5.4662 Y32.2729 F80.00
G01 X5.4851 Y32.2816 F80.00
G01 X5.4947 Y32.2869 F80.00
G01 X5.5093 Y32.2959 F80.00
G01 X5.5289 Y32.3104 F80.00
G01 X5.5417 Y32.3218 F80.00
G01 X5.5495 Y32.3295 F80.00
G01 X5.5610 Y32.3421 F80.00
G01 X5.5679 Y32.3507 F80.00
G01 X5.5779 Y32.3646 F80.00
G01 X5.5869 Y32.3791 F80.00
G01 X5.5922 Y32.3887 F80.00
G01 X5.5980 Y32.4009 F80.00
G01 X5.6465 Y32.5175 F80.00
G01 X5.7287 Y32.6406 F80.00
G01 X5.8333 Y32.7452 F80.00
G01 X5.9563 Y32.8274 F80.00
G01 X6.0930 Y32.8840 F80.00
G01 X6.2381 Y32.9129 F80.00
G01 X6.3861 Y32.9129 F80.00
G01 X6.5312 Y32.8840 F80.00
G01 X6.6679 Y32.8274 F80.00
G01 X6.7909 Y32.7452 F80.00
G01 X6.8956 Y32.6406 F80.00
G01 X6.9778 Y32.5175 F80.00
G01 X7.0344 Y32.3809 F80.00
G01 X7.0632 Y32.2357 F80.00
G01 X7.0632 Y32.0878 F80.00
G01 X7.0344 Y31.9427 F80.00
G01 X6.9778 Y31.8060 F80.00
G01 X6.8956 Y31.6829 F80.00
G01 X6.7909 Y31.5783 F80.00
G01 X6.6679 Y31.4961 F80.00
G01 X6.5312 Y31.4395 F80.00
G01 X6.3861 Y31.4106 F80.00
G01 X6.2381 Y31.4106 F80.00
G01 X6.0930 Y31.4395 F80.00
G01 X5.9563 Y31.4961 F80.00
G01 X5.8333 Y31.5783 F80.00
G01 X5.7287 Y31.6829 F80.00
G01 X5.6465 Y31.8060 F80.00
G01 X5.5980 Y31.9226 F80.00
G01 X5.5922 Y31.9348 F80.00
G01 X5.5869 Y31.9444 F80.00
G01 X5.5779 Y31.9590 F80.00
G01 X5.5679 Y31.9728 F80.00
G01 X5.5610 Y31.9814 F80.00
G01 X5.5495 Y31.9941 F80.00
G01 X5.5444 Y31.9992 F80.00
G01 X5.5317 Y32.0107 F80.00
G01 X5.5231 Y32.0176 F80.00
G01 X5.5093 Y32.0276 F80.00
G01 X5.4883 Y32.0402 F80.00
G01 X5.4696 Y32.0492 F80.00
G01 X5.4594 Y32.0533 F80.00
G01 X5.4432 Y32.0589 F80.00
G01 X5.4231 Y32.0640 F80.00
G01 X5.4124 Y32.0660 F80.00
G01 X5.3954 Y32.0684 F80.00
G01 X5.3747 Y32.0695 F80.00
G01 X5.3637 Y32.0694 F80.00
G01 X5.3466 Y32.0684 F80.00
G01 X5.3260 Y32.0655 F80.00
G01 X5.3153 Y32.0632 F80.00
G01 X5.2988 Y32.0589 F80.00
G01 X5.2791 Y32.0520 F80.00
G01 X5.2691 Y32.0477 F80.00
G01 X5.2537 Y32.0402 F80.00
G01 X5.2358 Y32.0296 F80.00
G01 X5.2268 Y32.0234 F80.00
G01 X5.2131 Y32.0131 F80.00
G01 X5.1950 Y31.9967 F80.00
G01 X5.1834 Y31.9841 F80.00
G01 X5.1763 Y31.9757 F80.00
G01 X5.1661 Y31.9620 F80.00
G01 X5.1602 Y31.9528 F80.00
G01 X5.1515 Y31.9380 F80.00
G01 X5.1440 Y31.9226 F80.00
G01 X5.1397 Y31.9125 F80.00
G01 X5.1339 Y31.8964 F80.00
G01 X5.1309 Y31.8859 F80.00
G01 X5.1269 Y31.8693 F80.00
G01 X5.1242 Y31.8523 F80.00
G01 X5.1230 Y31.8415 F80.00
G01 X5.1221 Y31.8207 F80.00
G01 X5.1222 Y31.1100 F80.00
G01 X5.1230 Y31.0929 F80.00
G01 X5.1237 Y31.0857 F80.00
G01 X5.1262 Y31.0687 F80.00
G01 X5.1285 Y31.0580 F80.00
G01 X5.1328 Y31.0414 F80.00
G01 X5.1384 Y31.0253 F80.00
G01 X5.1425 Y31.0151 F80.00
G01 X5.1498 Y30.9996 F80.00
G01 X5.1551 Y30.9900 F80.00
G01 X5.1641 Y30.9754 F80.00
G01 X5.1763 Y30.9587 F80.00
G01 X5.1834 Y30.9503 F80.00
G01 X5.1950 Y30.9377 F80.00
G01 X5.2103 Y30.9237 F80.00
G01 X5.2189 Y30.9168 F80.00
G01 X5.2327 Y30.9068 F80.00
G01 X5.2473 Y30.8978 F80.00
G01 X5.2569 Y30.8925 F80.00
G01 X5.2758 Y30.8838 F80.00
G01 X5.2918 Y30.8778 F80.00
G01 X5.3023 Y30.8745 F80.00
G01 X5.3224 Y30.8696 F80.00
G01 X5.3394 Y30.8669 F80.00
G01 X5.3502 Y30.8657 F80.00
G01 X5.3710 Y30.8648 F80.00
G01 X7.5269 Y30.8648 F80.00
G01 X7.5687 Y30.8607 F80.00
G01 X7.5972 Y30.8521 F80.00
G01 X7.6235 Y30.8380 F80.00
G01 X7.6465 Y30.8191 F80.00
G01 X7.6654 Y30.7961 F80.00
G01 X7.6794 Y30.7699 F80.00
G01 X7.6881 Y30.7414 F80.00
G01 X7.6922 Y30.6995 F80.00
G01 X7.6922 Y29.1240 F80.00
G01 X7.6881 Y29.0821 F80.00
G01 X7.6794 Y29.0536 F80.00
G01 X7.6654 Y29.0274 F80.00
G01 X7.6465 Y29.0044 F80.00
G01 X7.6235 Y28.9855 F80.00
G01 X7.5972 Y28.9715 F80.00
G01 X7.5687 Y28.9628 F80.00
G01 X7.5269 Y28.9587 F80.00
G01 X5.3710 Y28.9587 F80.00
G01 X5.3502 Y28.9578 F80.00
G01 X5.3394 Y28.9566 F80.00
G01 X5.3189 Y28.9532 F80.00
G01 X5.2988 Y28.9480 F80.00
G01 X5.2826 Y28.9424 F80.00
G01 X5.2724 Y28.9383 F80.00
G01 X5.2569 Y28.9310 F80.00
G01 X5.2473 Y28.9257 F80.00
G01 X5.2327 Y28.9168 F80.00
G01 X5.2160 Y28.9045 F80.00
G01 X5.2076 Y28.8974 F80.00
G01 X5.1950 Y28.8858 F80.00
G01 X5.1834 Y28.8732 F80.00
G01 X5.1763 Y28.8649 F80.00
G01 X5.1641 Y28.8481 F80.00
G01 X5.1551 Y28.8335 F80.00
G01 X5.1498 Y28.8239 F80.00
G01 X5.1411 Y28.8051 F80.00
G01 X5.1351 Y28.7890 F80.00
G01 X5.1318 Y28.7786 F80.00
G01 X5.1269 Y28.7584 F80.00
G01 X5.1242 Y28.7415 F80.00
G01 X5.1230 Y28.7306 F80.00
G01 X5.1222 Y28.7135 F80.00
G01 X5.1221 Y28.3814 F80.00
G01 X5.1233 Y28.3570 F80.00
G01 X5.1262 Y28.3364 F80.00
G01 X5.1309 Y28.3161 F80.00
G01 X5.1351 Y28.3022 F80.00
G01 X5.1425 Y28.2828 F80.00
G01 X5.1515 Y28.2640 F80.00
G01 X5.1621 Y28.2461 F80.00
G01 X5.1741 Y28.2292 F80.00
G01 X5.1810 Y28.2207 F80.00
G01 X5.1950 Y28.2054 F80.00
G01 X6.9684 Y26.4320 F80.00
G01 X6.9865 Y26.4156 F80.00
G01 X7.0061 Y26.4011 F80.00
G01 X7.0270 Y26.3885 F80.00
G01 X7.0424 Y26.3810 F80.00
G01 X7.0525 Y26.3767 F80.00
G01 X7.0721 Y26.3698 F80.00
G01 X7.0958 Y26.3639 F80.00
G01 X7.1200 Y26.3603 F80.00
G01 X7.1444 Y26.3591 F80.00
G01 X8.2919 Y26.3591 F80.00
G01 X8.3127 Y26.3600 F80.00
G01 X8.3235 Y26.3612 F80.00
G01 X8.3440 Y26.3647 F80.00
G01 X8.3642 Y26.3698 F80.00
G01 X8.3838 Y26.3767 F80.00
G01 X8.3938 Y26.3810 F80.00
G01 X8.4124 Y26.3903 F80.00
G01 X8.4302 Y26.4011 F80.00
G01 X8.4469 Y26.4133 F80.00
G01 X8.4553 Y26.4204 F80.00
G01 X8.4704 Y26.4346 F80.00
G01 X8.4843 Y26.4501 F80.00
G01 X8.4988 Y26.4697 F80.00
G01 X8.5114 Y26.4907 F80.00
G01 X8.5204 Y26.5094 F80.00
G01 X8.5359 Y26.5466 F80.00
G01 X8.6728 Y26.7515 F80.00
G01 X8.8471 Y26.9258 F80.00
G01 X9.0520 Y27.0627 F80.00
G01 X9.2797 Y27.1570 F80.00
G01 X9.5214 Y27.2051 F80.00
G01 X9.7678 Y27.2051 F80.00
G01 X10.0095 Y27.1570 F80.00
G01 X10.2372 Y27.0627 F80.00
G01 X10.4421 Y26.9258 F80.00
G01 X10.6164 Y26.7515 F80.00
G01 X10.7533 Y26.5466 F80.00
G01 X10.8476 Y26.3189 F80.00
G01 X10.8957 Y26.0772 F80.00
G01 X10.8957 Y25.8308 F80.00
G01 X10.8476 Y25.5891 F80.00
G01 X10.7533 Y25.3614 F80.00
G01 X10.6164 Y25.1565 F80.00
G01 X10.4421 Y24.9822 F80.00
G01 X10.2372 Y24.8453 F80.00
G01 X10.0095 Y24.7510 F80.00
G01 X9.7678 Y24.7029 F80.00
G01 X9.5214 Y24.7029 F80.00
G01 X9.2797 Y24.7510 F80.00
G01 X9.0520 Y24.8453 F80.00
G01 X8.8471 Y24.9822 F80.00
G01 X8.6728 Y25.1565 F80.00
G01 X8.5359 Y25.3614 F80.00
G01 X8.5204 Y25.3986 F80.00
G01 X8.5114 Y25.4173 F80.00
G01 X8.4988 Y25.4383 F80.00
G01 X8.4888 Y25.4521 F80.00
G01 X8.4819 Y25.4607 F80.00
G01 X8.4679 Y25.4760 F80.00
G01 X8.4553 Y25.4876 F80.00
G01 X8.4469 Y25.4947 F80.00
G01 X8.4302 Y25.5069 F80.00
G01 X8.4124 Y25.5177 F80.00
G01 X8.4027 Y25.5228 F80.00
G01 X8.3871 Y25.5299 F80.00
G01 X8.3676 Y25.5371 F80.00
G01 X8.3476 Y25.5425 F80.00
G01 X8.3333 Y25.5453 F80.00
G01 X8.3127 Y25.5480 F80.00
G01 X8.2919 Y25.5489 F80.00
G01 X6.9056 Y25.5489 F80.00
G01 X6.8885 Y25.5482 F80.00
G01 X6.8735 Y25.5469 F80.00
G01 X6.7940 Y25.5547 F80.00
G01 X6.7177 Y25.5779 F80.00
G01 X6.6473 Y25.6155 F80.00
G01 X6.5856 Y25.6662 F80.00
G01 X6.5759 Y25.6777 F80.00
G01 X6.5643 Y25.6902 F80.00
G01 X4.5525 Y27.7021 F80.00
G01 X4.5399 Y27.7137 F80.00
G01 X4.5315 Y27.7208 F80.00
G01 X4.5177 Y27.7310 F80.00
G01 X4.5086 Y27.7369 F80.00
G01 X4.4938 Y27.7456 F80.00
G01 X4.4751 Y27.7546 F80.00
G01 X4.4649 Y27.7587 F80.00
G01 X4.4487 Y27.7643 F80.00
G01 X4.4286 Y27.7694 F80.00
G01 X4.4178 Y27.7714 F80.00
G01 X4.4009 Y27.7738 F80.00
G01 X4.3801 Y27.7749 F80.00
G01 X4.3692 Y27.7748 F80.00
G01 X4.3521 Y27.7738 F80.00
G01 X4.3351 Y27.7714 F80.00
G01 X4.3243 Y27.7694 F80.00
G01 X4.3042 Y27.7643 F80.00
G01 X4.2880 Y27.7587 F80.00
G01 X4.2779 Y27.7546 F80.00
G01 X4.2591 Y27.7456 F80.00
G01 X4.2444 Y27.7369 F80.00
G01 X4.2352 Y27.7310 F80.00
G01 X4.2214 Y27.7208 F80.00
G01 X4.2130 Y27.7137 F80.00
G01 X4.2005 Y27.7021 F80.00
G01 X4.1864 Y27.6868 F80.00
G01 X4.1796 Y27.6782 F80.00
G01 X4.1695 Y27.6643 F80.00
G01 X4.1606 Y27.6498 F80.00
G01 X4.1553 Y27.6402 F80.00
G01 X4.1480 Y27.6247 F80.00
G01 X4.1439 Y27.6145 F80.00
G01 X4.1383 Y27.5983 F80.00
G01 X4.1331 Y27.5782 F80.00
G01 X4.1311 Y27.5674 F80.00
G01 X4.1288 Y27.5505 F80.00
G01 X4.1276 Y27.5261 F80.00
G01 X4.1299 Y5.2064 F80.00
G01 X4.1305 Y5.1899 F80.00
G01 X4.1311 Y5.1826 F80.00
G01 X4.1326 Y5.1697 F80.00
G01 X4.1772 Y4.8709 F80.00
G01 X4.1820 Y4.8471 F80.00
G01 X4.1890 Y4.8238 F80.00
G01 X4.2856 Y4.5540 F80.00
G01 X4.2949 Y4.5315 F80.00
G01 X4.3063 Y4.5101 F80.00
G01 X4.4535 Y4.2641 F80.00
G01 X4.4670 Y4.2439 F80.00
G01 X4.4824 Y4.2250 F80.00
G01 X4.6745 Y4.0123 F80.00
G01 X4.6864 Y4.0001 F80.00
G01 X4.6943 Y3.9927 F80.00
G01 X4.7104 Y3.9796 F80.00
G01 X4.9612 Y3.7925 F80.00
G01 X4.9771 Y3.7817 F80.00
G01 X5.8478 Y3.2477 F80.00
G01 X5.8706 Y3.2353 F80.00
G01 X5.8946 Y3.2254 F80.00
G01 X5.9195 Y3.2180 F80.00
G01 X6.5215 Y3.0727 F80.00
G01 X6.5487 Y3.0677 F80.00
G01 X6.5593 Y3.0667 F80.00
G01 X6.5799 Y3.0657 F80.00
G00 Z2.0000
G00 X9.7679 Y7.9138
G01 F50.00
G01 Z-0.1001
G01 F80.00
G01 X10.0598 Y7.9138 F80.00
G01 X10.3461 Y7.9707 F80.00
G01 X10.6158 Y8.0824 F80.00
G01 X10.8585 Y8.2446 F80.00
G01 X11.0650 Y8.4510 F80.00
G01 X11.2272 Y8.6938 F80.00
G01 X11.3389 Y8.9635 F80.00
G01 X11.3958 Y9.2498 F80.00
G01 X11.3958 Y9.5417 F80.00
G01 X11.3389 Y9.8280 F80.00
G01 X11.2272 Y10.0977 F80.00
G01 X11.0650 Y10.3404 F80.00
G01 X10.8585 Y10.5469 F80.00
G01 X10.6158 Y10.7091 F80.00
G01 X10.3461 Y10.8208 F80.00
G01 X10.0598 Y10.8777 F80.00
G01 X9.7679 Y10.8777 F80.00
G01 X9.4816 Y10.8208 F80.00
G01 X9.2119 Y10.7091 F80.00
G01 X8.9691 Y10.5469 F80.00
G01 X8.7627 Y10.3404 F80.00
G01 X8.6005 Y10.0977 F80.00
G01 X8.4888 Y9.8280 F80.00
G01 X8.4319 Y9.5417 F80.00
G01 X8.4319 Y9.2498 F80.00
G01 X8.4888 Y8.9635 F80.00
G01 X8.6005 Y8.6938 F80.00
G01 X8.7627 Y8.4510 F80.00
G01 X8.9691 Y8.2446 F80.00
G01 X9.2119 Y8.0824 F80.00
G01 X9.4816 Y7.9707 F80.00
G01 X9.7679 Y7.9138 F80.00
G00 Z2.0000
G00 X9.7759 Y7.9949
G01 F50.00
G01 Z-0.1001
G01 F80.00
G01 X10.0518 Y7.9949 F80.00
G01 X10.3224 Y8.0488 F80.00
G01 X10.5774 Y8.1544 F80.00
G01 X10.8068 Y8.3077 F80.00
G01 X11.0019 Y8.5028 F80.00
G01 X11.1552 Y8.7322 F80.00
G01 X11.2608 Y8.9871 F80.00
G01 X11.3146 Y9.2578 F80.00
G01 X11.3146 Y9.5337 F80.00
G01 X11.2608 Y9.8043 F80.00
G01 X11.1552 Y10.0593 F80.00
G01 X11.0019 Y10.2887 F80.00
G01 X10.8068 Y10.4838 F80.00
G01 X10.5774 Y10.6371 F80.00
G01 X10.3224 Y10.7427 F80.00
G01 X10.0518 Y10.7965 F80.00
G01 X9.7759 Y10.7965 F80.00
G01 X9.5052 Y10.7427 F80.00
G01 X9.2503 Y10.6371 F80.00
G01 X9.0209 Y10.4838 F80.00
G01 X8.8258 Y10.2887 F80.00
G01 X8.6725 Y10.0593 F80.00
G01 X8.5669 Y9.8043 F80.00
G01 X8.5130 Y9.5337 F80.00
G01 X8.5130 Y9.2578 F80.00
G01 X8.5669 Y8.9871 F80.00
G01 X8.6725 Y8.7322 F80.00
G01 X8.8258 Y8.5028 F80.00
G01 X9.0209 Y8.3077 F80.00
G01 X9.2503 Y8.1544 F80.00
G01 X9.5052 Y8.0488 F80.00
G01 X9.7759 Y7.9949 F80.00
G00 Z2.0000
G00 X9.9105 Y10.7130
G01 F50.00
G01 Z-0.1001
G01 F80.00
G01 X9.7847 Y10.7067 F80.00
G01 X9.6568 Y10.6878 F80.00
G01 X9.5314 Y10.6563 F80.00
G01 X9.4097 Y10.6128 F80.00
G01 X9.2929 Y10.5575 F80.00
G01 X9.1820 Y10.4911 F80.00
G01 X9.0781 Y10.4140 F80.00
G01 X8.9823 Y10.3272 F80.00
G01 X8.8955 Y10.2314 F80.00
G01 X8.8185 Y10.1276 F80.00
G01 X8.7521 Y10.0167 F80.00
G01 X8.6968 Y9.8999 F80.00
G01 X8.6532 Y9.7781 F80.00
G01 X8.6218 Y9.6527 F80.00
G01 X8.6029 Y9.5249 F80.00
G01 X8.5965 Y9.3957 F80.00
G01 X8.6029 Y9.2666 F80.00
G01 X8.6218 Y9.1387 F80.00
G01 X8.6532 Y9.0133 F80.00
G01 X8.6968 Y8.8916 F80.00
G01 X8.7521 Y8.7748 F80.00
G01 X8.8185 Y8.6639 F80.00
G01 X8.8955 Y8.5600 F80.00
G01 X8.9823 Y8.4642 F80.00
G01 X9.0781 Y8.3774 F80.00
G01 X9.1820 Y8.3004 F80.00
G01 X9.2929 Y8.2340 F80.00
G01 X9.4097 Y8.1787 F80.00
G01 X9.5314 Y8.1351 F80.00
G01 X9.6568 Y8.1037 F80.00
G01 X9.7847 Y8.0848 F80.00
G01 X9.9138 Y8.0784 F80.00
G01 X10.0430 Y8.0848 F80.00
G01 X10.1708 Y8.1037 F80.00
G01 X10.2962 Y8.1351 F80.00
G01 X10.4180 Y8.1787 F80.00
G01 X10.5348 Y8.2340 F80.00
G01 X10.6457 Y8.3004 F80.00
G01 X10.7495 Y8.3774 F80.00
G01 X10.8453 Y8.4642 F80.00
G01 X10.9321 Y8.5600 F80.00
G01 X11.0092 Y8.6639 F80.00
G01 X11.0756 Y8.7748 F80.00
G01 X11.1309 Y8.8916 F80.00
G01 X11.1744 Y9.0133 F80.00
G01 X11.2059 Y9.1387 F80.00
G01 X11.2248 Y9.2666 F80.00
G01 X11.2312 Y9.3957 F80.00
G01 X11.2248 Y9.5249 F80.00
G01 X11.2059 Y9.6527 F80.00
G01 X11.1744 Y9.7781 F80.00
G01 X11.1309 Y9.8999 F80.00
G01 X11.0756 Y10.0167 F80.00
G01 X11.0092 Y10.1276 F80.00
G01 X10.9321 Y10.2314 F80.00
G01 X10.8453 Y10.3272 F80.00
G01 X10.7495 Y10.4140 F80.00
G01 X10.6457 Y10.4911 F80.00
G01 X10.5348 Y10.5575 F80.00
G01 X10.4180 Y10.6128 F80.00
G01 X10.2962 Y10.6563 F80.00
G01 X10.1708 Y10.6878 F80.00
G01 X10.0430 Y10.7067 F80.00
G01 X9.9172 Y10.7130 F80.00
G01 X9.9105 Y10.7130 F80.00
G00 Z2.0000
G00 X9.9065 Y10.7941
G01 F50.00
G01 Z-0.1001
G01 F80.00
G01 X9.7768 Y10.7875 F80.00
G01 X9.6410 Y10.7674 F80.00
G01 X9.5079 Y10.7340 F80.00
G01 X9.3787 Y10.6878 F80.00
G01 X9.2546 Y10.6291 F80.00
G01 X9.1369 Y10.5586 F80.00
G01 X9.0266 Y10.4768 F80.00
G01 X8.9249 Y10.3846 F80.00
G01 X8.8328 Y10.2829 F80.00
G01 X8.7510 Y10.1727 F80.00
G01 X8.6805 Y10.0550 F80.00
G01 X8.6218 Y9.9309 F80.00
G01 X8.5755 Y9.8017 F80.00
G01 X8.5422 Y9.6686 F80.00
G01 X8.5221 Y9.5328 F80.00
G01 X8.5153 Y9.3957 F80.00
G01 X8.5221 Y9.2587 F80.00
G01 X8.5422 Y9.1229 F80.00
G01 X8.5755 Y8.9898 F80.00
G01 X8.6218 Y8.8606 F80.00
G01 X8.6805 Y8.7365 F80.00
G01 X8.7510 Y8.6188 F80.00
G01 X8.8328 Y8.5085 F80.00
G01 X8.9249 Y8.4068 F80.00
G01 X9.0266 Y8.3147 F80.00
G01 X9.1369 Y8.2329 F80.00
G01 X9.2546 Y8.1624 F80.00
G01 X9.3787 Y8.1037 F80.00
G01 X9.5079 Y8.0574 F80.00
G01 X9.6410 Y8.0241 F80.00
G01 X9.7768 Y8.0040 F80.00
G01 X9.9138 Y7.9972 F80.00
G01 X10.0509 Y8.0040 F80.00
G01 X10.1867 Y8.0241 F80.00
G01 X10.3198 Y8.0574 F80.00
G01 X10.4490 Y8.1037 F80.00
G01 X10.5731 Y8.1624 F80.00
G01 X10.6908 Y8.2329 F80.00
G01 X10.8010 Y8.3147 F80.00
G01 X10.9027 Y8.4068 F80.00
G01 X10.9949 Y8.5085 F80.00
G01 X11.0767 Y8.6188 F80.00
G01 X11.1472 Y8.7365 F80.00
G01 X11.2059 Y8.8606 F80.00
G01 X11.2521 Y8.9898 F80.00
G01 X11.2855 Y9.1229 F80.00
G01 X11.3056 Y9.2587 F80.00
G01 X11.3123 Y9.3957 F80.00
G01 X11.3056 Y9.5328 F80.00
G01 X11.2855 Y9.6686 F80.00
G01 X11.2521 Y9.8017 F80.00
G01 X11.2059 Y9.9309 F80.00
G01 X11.1472 Y10.0550 F80.00
G01 X11.0767 Y10.1727 F80.00
G01 X10.9949 Y10.2829 F80.00
G01 X10.9027 Y10.3846 F80.00
G01 X10.8010 Y10.4768 F80.00
G01 X10.6908 Y10.5586 F80.00
G01 X10.5731 Y10.6291 F80.00
G01 X10.4490 Y10.6878 F80.00
G01 X10.3198 Y10.7340 F80.00
G01 X10.1867 Y10.7674 F80.00
G01 X10.0509 Y10.7875 F80.00
G01 X9.9211 Y10.7941 F80.00
G01 X9.9065 Y10.7941 F80.00
G00 Z2.0000
G00 X9.4847 Y11.5138
G01 F50.00
G01 Z-0.1001
G01 F80.00
G01 X9.6979 Y11.5138 F80.00
G01 X9.9070 Y11.5554 F80.00
G01 X10.1039 Y11.6370 F80.00
G01 X10.2812 Y11.7555 F80.00
G01 X10.4319 Y11.9062 F80.00
G01 X10.5504 Y12.0835 F80.00
G01 X10.6320 Y12.2804 F80.00
G01 X10.6736 Y12.4895 F80.00
G01 X10.6736 Y12.7027 F80.00
G01 X10.6320 Y12.9118 F80.00
G01 X10.5504 Y13.1088 F80.00
G01 X10.4319 Y13.2861 F80.00
G01 X10.2812 Y13.4368 F80.00
G01 X10.1039 Y13.5553 F80.00
G01 X9.9070 Y13.6368 F80.00
G01 X9.6979 Y13.6784 F80.00
G01 X9.4847 Y13.6784 F80.00
G01 X9.2756 Y13.6368 F80.00
G01 X9.0786 Y13.5553 F80.00
G01 X8.9013 Y13.4368 F80.00
G01 X8.7506 Y13.2861 F80.00
G01 X8.6321 Y13.1088 F80.00
G01 X8.5506 Y12.9118 F80.00
G01 X8.5090 Y12.7027 F80.00
G01 X8.5090 Y12.4895 F80.00
G01 X8.5506 Y12.2804 F80.00
G01 X8.6321 Y12.0835 F80.00
G01 X8.7506 Y11.9062 F80.00
G01 X8.9013 Y11.7555 F80.00
G01 X9.0786 Y11.6370 F80.00
G01 X9.2756 Y11.5554 F80.00
G01 X9.4847 Y11.5138 F80.00
G00 Z2.0000
G00 X9.4927 Y11.5950
G01 F50.00
G01 Z-0.1001
G01 F80.00
G01 X9.6899 Y11.5950 F80.00
G01 X9.8833 Y11.6335 F80.00
G01 X10.0655 Y11.7090 F80.00
G01 X10.2294 Y11.8185 F80.00
G01 X10.3689 Y11.9580 F80.00
G01 X10.4784 Y12.1219 F80.00
G01 X10.5539 Y12.3041 F80.00
G01 X10.5924 Y12.4975 F80.00
G01 X10.5924 Y12.6947 F80.00
G01 X10.5539 Y12.8882 F80.00
G01 X10.4784 Y13.0703 F80.00
G01 X10.3689 Y13.2343 F80.00
G01 X10.2294 Y13.3738 F80.00
G01 X10.0655 Y13.4833 F80.00
G01 X9.8833 Y13.5588 F80.00
G01 X9.6899 Y13.5973 F80.00
G01 X9.4927 Y13.5973 F80.00
G01 X9.2992 Y13.5588 F80.00
G01 X9.1170 Y13.4833 F80.00
G01 X8.9531 Y13.3738 F80.00
G01 X8.8136 Y13.2343 F80.00
G01 X8.7041 Y13.0703 F80.00
G01 X8.6286 Y12.8882 F80.00
G01 X8.5901 Y12.6947 F80.00
G01 X8.5901 Y12.4975 F80.00
G01 X8.6286 Y12.3041 F80.00
G01 X8.7041 Y12.1219 F80.00
G01 X8.8136 Y11.9580 F80.00
G01 X8.9531 Y11.8185 F80.00
G01 X9.1170 Y11.7090 F80.00
G01 X9.2992 Y11.6335 F80.00
G01 X9.4927 Y11.5950 F80.00
G00 Z2.0000
G00 X10.5088 Y12.5995
G01 F50.00
G01 Z-0.1001
G01 F80.00
G01 X10.5045 Y12.6861 F80.00
G01 X10.4913 Y12.7752 F80.00
G01 X10.4694 Y12.8625 F80.00
G01 X10.4391 Y12.9473 F80.00
G01 X10.4006 Y13.0287 F80.00
G01 X10.3543 Y13.1060 F80.00
G01 X10.3006 Y13.1783 F80.00
G01 X10.2401 Y13.2450 F80.00
G01 X10.1734 Y13.3055 F80.00
G01 X10.1011 Y13.3591 F80.00
G01 X10.0238 Y13.4054 F80.00
G01 X9.9424 Y13.4439 F80.00
G01 X9.8576 Y13.4743 F80.00
G01 X9.7703 Y13.4962 F80.00
G01 X9.6812 Y13.5094 F80.00
G01 X9.5913 Y13.5138 F80.00
G01 X9.5013 Y13.5094 F80.00
G01 X9.4122 Y13.4962 F80.00
G01 X9.3249 Y13.4743 F80.00
G01 X9.2401 Y13.4439 F80.00
G01 X9.1587 Y13.4054 F80.00
G01 X9.0814 Y13.3591 F80.00
G01 X9.0091 Y13.3055 F80.00
G01 X8.9424 Y13.2450 F80.00
G01 X8.8819 Y13.1783 F80.00
G01 X8.8283 Y13.1060 F80.00
G01 X8.7820 Y13.0287 F80.00
G01 X8.7435 Y12.9473 F80.00
G01 X8.7131 Y12.8625 F80.00
G01 X8.6912 Y12.7752 F80.00
G01 X8.6780 Y12.6861 F80.00
G01 X8.6736 Y12.5961 F80.00
G01 X8.6780 Y12.5062 F80.00
G01 X8.6912 Y12.4171 F80.00
G01 X8.7131 Y12.3298 F80.00
G01 X8.7435 Y12.2450 F80.00
G01 X8.7820 Y12.1636 F80.00
G01 X8.8283 Y12.0863 F80.00
G01 X8.8819 Y12.0140 F80.00
G01 X8.9424 Y11.9473 F80.00
G01 X9.0091 Y11.8868 F80.00
G01 X9.0814 Y11.8331 F80.00
G01 X9.1587 Y11.7868 F80.00
G01 X9.2401 Y11.7483 F80.00
G01 X9.3249 Y11.7180 F80.00
G01 X9.4122 Y11.6961 F80.00
G01 X9.5013 Y11.6829 F80.00
G01 X9.5913 Y11.6785 F80.00
G01 X9.6812 Y11.6829 F80.00
G01 X9.7703 Y11.6961 F80.00
G01 X9.8576 Y11.7180 F80.00
G01 X9.9424 Y11.7483 F80.00
G01 X10.0238 Y11.7868 F80.00
G01 X10.1011 Y11.8331 F80.00
G01 X10.1734 Y11.8868 F80.00
G01 X10.2401 Y11.9473 F80.00
G01 X10.3006 Y12.0140 F80.00
G01 X10.3543 Y12.0863 F80.00
G01 X10.4006 Y12.1636 F80.00
G01 X10.4391 Y12.2450 F80.00
G01 X10.4694 Y12.3298 F80.00
G01 X10.4913 Y12.4171 F80.00
G01 X10.5045 Y12.5062 F80.00
G01 X10.5088 Y12.5928 F80.00
G01 X10.5088 Y12.5995 F80.00
G00 Z2.0000
G00 X10.5899 Y12.6034
G01 F50.00
G01 Z-0.1001
G01 F80.00
G01 X10.5853 Y12.6940 F80.00
G01 X10.5709 Y12.7910 F80.00
G01 X10.5471 Y12.8861 F80.00
G01 X10.5141 Y12.9784 F80.00
G01 X10.4721 Y13.0670 F80.00
G01 X10.4218 Y13.1511 F80.00
G01 X10.3634 Y13.2298 F80.00
G01 X10.2975 Y13.3024 F80.00
G01 X10.2249 Y13.3682 F80.00
G01 X10.1462 Y13.4266 F80.00
G01 X10.0621 Y13.4770 F80.00
G01 X9.9735 Y13.5189 F80.00
G01 X9.8812 Y13.5520 F80.00
G01 X9.7861 Y13.5758 F80.00
G01 X9.6892 Y13.5902 F80.00
G01 X9.5913 Y13.5950 F80.00
G01 X9.4934 Y13.5902 F80.00
G01 X9.3964 Y13.5758 F80.00
G01 X9.3013 Y13.5520 F80.00
G01 X9.2090 Y13.5189 F80.00
G01 X9.1204 Y13.4770 F80.00
G01 X9.0363 Y13.4266 F80.00
G01 X8.9576 Y13.3682 F80.00
G01 X8.8850 Y13.3024 F80.00
G01 X8.8192 Y13.2298 F80.00
G01 X8.7608 Y13.1511 F80.00
G01 X8.7104 Y13.0670 F80.00
G01 X8.6685 Y12.9784 F80.00
G01 X8.6354 Y12.8861 F80.00
G01 X8.6116 Y12.7910 F80.00
G01 X8.5972 Y12.6940 F80.00
G01 X8.5924 Y12.5961 F80.00
G01 X8.5972 Y12.4982 F80.00
G01 X8.6116 Y12.4013 F80.00
G01 X8.6354 Y12.3062 F80.00
G01 X8.6685 Y12.2139 F80.00
G01 X8.7104 Y12.1253 F80.00
G01 X8.7608 Y12.0412 F80.00
G01 X8.8192 Y11.9625 F80.00
G01 X8.8850 Y11.8899 F80.00
G01 X8.9576 Y11.8240 F80.00
G01 X9.0363 Y11.7656 F80.00
G01 X9.1204 Y11.7152 F80.00
G01 X9.2090 Y11.6733 F80.00
G01 X9.3013 Y11.6403 F80.00
G01 X9.3964 Y11.6165 F80.00
G01 X9.4934 Y11.6021 F80.00
G01 X9.5913 Y11.5973 F80.00
G01 X9.6892 Y11.6021 F80.00
G01 X9.7861 Y11.6165 F80.00
G01 X9.8812 Y11.6403 F80.00
G01 X9.9735 Y11.6733 F80.00
G01 X10.0621 Y11.7152 F80.00
G01 X10.1462 Y11.7656 F80.00
G01 X10.2249 Y11.8240 F80.00
G01 X10.2975 Y11.8899 F80.00
G01 X10.3634 Y11.9625 F80.00
G01 X10.4218 Y12.0412 F80.00
G01 X10.4721 Y12.1253 F80.00
G01 X10.5141 Y12.2139 F80.00
G01 X10.5471 Y12.3062 F80.00
G01 X10.5709 Y12.4013 F80.00
G01 X10.5853 Y12.4982 F80.00
G01 X10.5899 Y12.5888 F80.00
G01 X10.5899 Y12.6034 F80.00
G00 Z2.0000
G00 X10.5901 Y14.2861
G01 F50.00
G01 Z-0.1001
G01 F80.00
G01 X10.5901 Y15.9861 F80.00
G01 X10.5897 Y15.9971 F80.00
G01 X10.5885 Y16.0080 F80.00
G01 X10.5865 Y16.0187 F80.00
G01 X10.5826 Y16.0328 F80.00
G01 X10.5788 Y16.0431 F80.00
G01 X10.5742 Y16.0531 F80.00
G01 X10.5708 Y16.0595 F80.00
G01 X10.5650 Y16.0688 F80.00
G01 X10.5586 Y16.0777 F80.00
G01 X10.5515 Y16.0861 F80.00
G01 X10.5465 Y16.0914 F80.00
G01 X10.5385 Y16.0988 F80.00
G01 X10.5299 Y16.1057 F80.00
G01 X10.5209 Y16.1119 F80.00
G01 X10.5114 Y16.1174 F80.00
G01 X10.5049 Y16.1207 F80.00
G01 X10.4948 Y16.1250 F80.00
G01 X10.4879 Y16.1275 F80.00
G01 X10.4774 Y16.1305 F80.00
G01 X10.4667 Y16.1328 F80.00
G01 X10.4558 Y16.1343 F80.00
G01 X10.4413 Y16.1350 F80.00
G01 X9.9968 Y16.1350 F80.00
G01 X9.9968 Y22.0914 F80.00
G01 X11.3013 Y23.3960 F80.00
G01 X11.3121 Y23.4033 F80.00
G01 X11.3379 Y23.4226 F80.00
G01 X11.3672 Y23.4492 F80.00
G01 X12.2282 Y24.3102 F80.00
G01 X12.2548 Y24.3395 F80.00
G01 X12.2741 Y24.3653 F80.00
G01 X12.2823 Y24.3774 F80.00
G01 X12.2951 Y24.3988 F80.00
G01 X12.3004 Y24.4084 F80.00
G01 X12.3141 Y24.4375 F80.00
G01 X12.3182 Y24.4477 F80.00
G01 X12.3289 Y24.4781 F80.00
G01 X12.3369 Y24.5094 F80.00
G01 X12.3392 Y24.5201 F80.00
G01 X12.3439 Y24.5520 F80.00
G01 X12.3449 Y24.5629 F80.00
G01 X12.3462 Y24.5914 F80.00
G01 X12.3462 Y26.7376 F80.00
G01 X12.3443 Y26.7734 F80.00
G01 X12.3385 Y26.8125 F80.00
G01 X12.3289 Y26.8509 F80.00
G01 X12.3156 Y26.8881 F80.00
G01 X12.2987 Y26.9239 F80.00
G01 X12.2783 Y26.9578 F80.00
G01 X12.2548 Y26.9895 F80.00
G01 X12.2308 Y27.0162 F80.00
G01 X10.0984 Y29.1487 F80.00
G01 X10.0984 Y32.8789 F80.00
G01 X10.3563 Y33.1368 F80.00
G01 X10.3805 Y33.1633 F80.00
G01 X10.3873 Y33.1719 F80.00
G01 X10.4064 Y33.1979 F80.00
G01 X10.4267 Y33.2318 F80.00
G01 X10.4436 Y33.2676 F80.00
G01 X10.4558 Y33.3013 F80.00
G01 X10.4589 Y33.3118 F80.00
G01 X10.4649 Y33.3360 F80.00
G01 X10.4678 Y33.3503 F80.00
G01 X10.4723 Y33.3823 F80.00
G01 X10.4742 Y33.4181 F80.00
G01 X10.4743 Y33.9913 F80.00
G01 X12.7566 Y36.2736 F80.00
G01 X12.7782 Y36.2975 F80.00
G01 X12.7851 Y36.3061 F80.00
G01 X12.8041 Y36.3321 F80.00
G01 X12.8209 Y36.3596 F80.00
G01 X12.8277 Y36.3725 F80.00
G01 X12.8414 Y36.4018 F80.00
G01 X12.8524 Y36.4320 F80.00
G01 X12.8557 Y36.4425 F80.00
G01 X12.8643 Y36.4773 F80.00
G01 X12.8692 Y36.5092 F80.00
G01 X12.8706 Y36.5237 F80.00
G01 X12.8720 Y36.5560 F80.00
G01 X12.8720 Y39.9150 F80.00
G01 X12.9399 Y39.9473 F80.00
G01 X13.0240 Y39.9977 F80.00
G01 X13.1027 Y40.0561 F80.00
G01 X13.1701 Y40.1169 F80.00
G01 X13.1804 Y40.1272 F80.00
G01 X13.2364 Y40.1891 F80.00
G01 X13.2457 Y40.2003 F80.00
G01 X13.2996 Y40.2733 F80.00
G01 X13.3464 Y40.3510 F80.00
G01 X13.3533 Y40.3639 F80.00
G01 X13.3889 Y40.4393 F80.00
G01 X13.3945 Y40.4528 F80.00
G01 X13.4249 Y40.5383 F80.00
G01 X13.4487 Y40.6334 F80.00
G01 X13.4622 Y40.7231 F80.00
G01 X13.4636 Y40.7376 F80.00
G01 X13.4679 Y40.8282 F80.00
G01 X13.4636 Y40.9189 F80.00
G01 X13.4622 Y40.9334 F80.00
G01 X13.4487 Y41.0231 F80.00
G01 X13.4268 Y41.1111 F80.00
G01 X13.4226 Y41.1251 F80.00
G01 X13.3945 Y41.2037 F80.00
G01 X13.3889 Y41.2172 F80.00
G01 X13.3500 Y41.2991 F80.00
G01 X13.2996 Y41.3832 F80.00
G01 X13.2412 Y41.4619 F80.00
G01 X13.1754 Y41.5345 F80.00
G01 X13.1027 Y41.6003 F80.00
G01 X13.0240 Y41.6587 F80.00
G01 X12.9399 Y41.7091 F80.00
G01 X12.8580 Y41.7481 F80.00
G01 X12.8445 Y41.7537 F80.00
G01 X12.7660 Y41.7818 F80.00
G01 X12.7520 Y41.7860 F80.00
G01 X12.6639 Y41.8079 F80.00
G01 X12.5742 Y41.8214 F80.00
G01 X12.5633 Y41.8226 F80.00
G01 X12.4691 Y41.8271 F80.00
G01 X12.3712 Y41.8223 F80.00
G01 X12.2742 Y41.8079 F80.00
G01 X12.1791 Y41.7841 F80.00
G01 X12.0868 Y41.7510 F80.00
G01 X11.9982 Y41.7091 F80.00
G01 X11.9142 Y41.6587 F80.00
G01 X11.8354 Y41.6003 F80.00
G01 X11.7628 Y41.5345 F80.00
G01 X11.6970 Y41.4619 F80.00
G01 X11.6386 Y41.3832 F80.00
G01 X11.5882 Y41.2991 F80.00
G01 X11.5463 Y41.2105 F80.00
G01 X11.5133 Y41.1182 F80.00
G01 X11.4894 Y41.0231 F80.00
G01 X11.4751 Y40.9261 F80.00
G01 X11.4702 Y40.8282 F80.00
G01 X11.4745 Y40.7376 F80.00
G01 X11.4760 Y40.7231 F80.00
G01 X11.4894 Y40.6334 F80.00
G01 X11.5133 Y40.5383 F80.00
G01 X11.5437 Y40.4528 F80.00
G01 X11.5492 Y40.4393 F80.00
G01 X11.5849 Y40.3639 F80.00
G01 X11.5918 Y40.3510 F80.00
G01 X11.6386 Y40.2733 F80.00
G01 X11.6925 Y40.2003 F80.00
G01 X11.7017 Y40.1891 F80.00
G01 X11.7578 Y40.1272 F80.00
G01 X11.7681 Y40.1169 F80.00
G01 X11.8354 Y40.0561 F80.00
G01 X11.9142 Y39.9977 F80.00
G01 X11.9982 Y39.9473 F80.00
G01 X12.0661 Y39.9150 F80.00
G01 X12.0661 Y36.7229 F80.00
G01 X9.7864 Y34.4431 F80.00
G01 X9.7646 Y34.4194 F80.00
G01 X9.7575 Y34.4110 F80.00
G01 X9.7363 Y34.3821 F80.00
G01 X9.7195 Y34.3545 F80.00
G01 X9.7127 Y34.3416 F80.00
G01 X9.6990 Y34.3124 F80.00
G01 X9.6857 Y34.2752 F80.00
G01 X9.6777 Y34.2439 F80.00
G01 X9.6749 Y34.2296 F80.00
G01 X9.6703 Y34.1977 F80.00
G01 X9.6684 Y34.1582 F80.00
G01 X9.6684 Y33.5887 F80.00
G01 X9.4079 Y33.3282 F80.00
G01 X9.3839 Y33.3015 F80.00
G01 X9.3646 Y33.2757 F80.00
G01 X9.3564 Y33.2635 F80.00
G01 X9.3400 Y33.2358 F80.00
G01 X9.3261 Y33.2067 F80.00
G01 X9.3205 Y33.1932 F80.00
G01 X9.3098 Y33.1628 F80.00
G01 X9.3009 Y33.1280 F80.00
G01 X9.2989 Y33.1173 F80.00
G01 X9.2953 Y33.0926 F80.00
G01 X9.2941 Y33.0817 F80.00
G01 X9.2924 Y33.0458 F80.00
G01 X9.2924 Y28.9818 F80.00
G01 X9.2938 Y28.9496 F80.00
G01 X9.2953 Y28.9351 F80.00
G01 X9.3002 Y28.9032 F80.00
G01 X9.3088 Y28.8683 F80.00
G01 X9.3121 Y28.8579 F80.00
G01 X9.3231 Y28.8276 F80.00
G01 X9.3367 Y28.7984 F80.00
G01 X9.3436 Y28.7855 F80.00
G01 X9.3604 Y28.7579 F80.00
G01 X9.3794 Y28.7319 F80.00
G01 X9.3863 Y28.7234 F80.00
G01 X9.4079 Y28.6995 F80.00
G01 X11.5403 Y26.5670 F80.00
G01 X11.5403 Y24.7620 F80.00
G01 X10.8506 Y24.0722 F80.00
G01 X10.8398 Y24.0649 F80.00
G01 X10.8140 Y24.0456 F80.00
G01 X10.7847 Y24.0190 F80.00
G01 X9.3089 Y22.5432 F80.00
G01 X9.2871 Y22.5195 F80.00
G01 X9.2778 Y22.5082 F80.00
G01 X9.2588 Y22.4822 F80.00
G01 X9.2420 Y22.4546 F80.00
G01 X9.2351 Y22.4417 F80.00
G01 X9.2215 Y22.4125 F80.00
G01 X9.2105 Y22.3822 F80.00
G01 X9.2072 Y22.3718 F80.00
G01 X9.1986 Y22.3369 F80.00
G01 X9.1937 Y22.3050 F80.00
G01 X9.1922 Y22.2905 F80.00
G01 X9.1908 Y22.2583 F80.00
G01 X9.1908 Y16.1350 F80.00
G01 X8.7413 Y16.1350 F80.00
G01 X8.7303 Y16.1346 F80.00
G01 X8.7158 Y16.1328 F80.00
G01 X8.7051 Y16.1305 F80.00
G01 X8.6946 Y16.1275 F80.00
G01 X8.6843 Y16.1236 F80.00
G01 X8.6776 Y16.1207 F80.00
G01 X8.6679 Y16.1156 F80.00
G01 X8.6616 Y16.1119 F80.00
G01 X8.6526 Y16.1057 F80.00
G01 X8.6440 Y16.0988 F80.00
G01 X8.6360 Y16.0914 F80.00
G01 X8.6286 Y16.0833 F80.00
G01 X8.6217 Y16.0748 F80.00
G01 X8.6175 Y16.0688 F80.00
G01 X8.6118 Y16.0595 F80.00
G01 X8.6067 Y16.0498 F80.00
G01 X8.6024 Y16.0397 F80.00
G01 X8.5999 Y16.0328 F80.00
G01 X8.5969 Y16.0223 F80.00
G01 X8.5946 Y16.0116 F80.00
G01 X8.5931 Y16.0007 F80.00
G01 X8.5924 Y15.9861 F80.00
G01 X8.5924 Y14.2861 F80.00
G01 X8.5928 Y14.2752 F80.00
G01 X8.5940 Y14.2643 F80.00
G01 X8.5969 Y14.2500 F80.00
G01 X8.6011 Y14.2360 F80.00
G01 X8.6067 Y14.2225 F80.00
G01 X8.6118 Y14.2128 F80.00
G01 X8.6196 Y14.2004 F80.00
G01 X8.6262 Y14.1917 F80.00
G01 X8.6360 Y14.1809 F80.00
G01 X8.6468 Y14.1711 F80.00
G01 X8.6586 Y14.1624 F80.00
G01 X8.6679 Y14.1566 F80.00
G01 X8.6809 Y14.1501 F80.00
G01 X8.6946 Y14.1448 F80.00
G01 X8.7051 Y14.1418 F80.00
G01 X8.7194 Y14.1389 F80.00
G01 X8.7303 Y14.1377 F80.00
G01 X8.7413 Y14.1373 F80.00
G01 X10.4413 Y14.1373 F80.00
G01 X10.4558 Y14.1380 F80.00
G01 X10.4703 Y14.1402 F80.00
G01 X10.4845 Y14.1437 F80.00
G01 X10.4982 Y14.1486 F80.00
G01 X10.5114 Y14.1549 F80.00
G01 X10.5239 Y14.1624 F80.00
G01 X10.5357 Y14.1711 F80.00
G01 X10.5465 Y14.1809 F80.00
G01 X10.5563 Y14.1917 F80.00
G01 X10.5650 Y14.2035 F80.00
G01 X10.5725 Y14.2160 F80.00
G01 X10.5788 Y14.2292 F80.00
G01 X10.5837 Y14.2429 F80.00
G01 X10.5872 Y14.2571 F80.00
G01 X10.5894 Y14.2716 F80.00
G01 X10.5901 Y14.2861 F80.00
G00 Z2.0000
G00 X10.5089 Y14.2861
G01 F50.00
G01 Z-0.1001
G01 F80.00
G01 X10.5089 Y15.9861 F80.00
G01 X10.5079 Y15.9977 F80.00
G01 X10.5055 Y16.0074 F80.00
G01 X10.5017 Y16.0166 F80.00
G01 X10.4966 Y16.0251 F80.00
G01 X10.4903 Y16.0328 F80.00
G01 X10.4829 Y16.0395 F80.00
G01 X10.4746 Y16.0450 F80.00
G01 X10.4656 Y16.0493 F80.00
G01 X10.4561 Y16.0521 F80.00
G01 X10.4462 Y16.0536 F80.00
G01 X9.9156 Y16.0538 F80.00
G01 X9.9156 Y22.1250 F80.00
G01 X11.2510 Y23.4604 F80.00
G01 X11.2624 Y23.4675 F80.00
G01 X11.2851 Y23.4843 F80.00
G01 X11.3098 Y23.5066 F80.00
G01 X12.1708 Y24.3676 F80.00
G01 X12.1920 Y24.3910 F80.00
G01 X12.2089 Y24.4136 F80.00
G01 X12.2126 Y24.4191 F80.00
G01 X12.2278 Y24.4449 F80.00
G01 X12.2392 Y24.4689 F80.00
G01 X12.2418 Y24.4751 F80.00
G01 X12.2512 Y24.5017 F80.00
G01 X12.2582 Y24.5291 F80.00
G01 X12.2595 Y24.5356 F80.00
G01 X12.2635 Y24.5636 F80.00
G01 X12.2651 Y24.5934 F80.00
G01 X12.2651 Y26.7356 F80.00
G01 X12.2635 Y26.7654 F80.00
G01 X12.2589 Y26.7967 F80.00
G01 X12.2512 Y26.8273 F80.00
G01 X12.2406 Y26.8570 F80.00
G01 X12.2271 Y26.8856 F80.00
G01 X12.2108 Y26.9127 F80.00
G01 X12.1920 Y26.9380 F80.00
G01 X12.1720 Y26.9602 F80.00
G01 X10.0172 Y29.1151 F80.00
G01 X10.0172 Y32.9126 F80.00
G01 X10.2988 Y33.1942 F80.00
G01 X10.3190 Y33.2164 F80.00
G01 X10.3389 Y33.2430 F80.00
G01 X10.3551 Y33.2701 F80.00
G01 X10.3686 Y33.2986 F80.00
G01 X10.3787 Y33.3268 F80.00
G01 X10.3862 Y33.3557 F80.00
G01 X10.3875 Y33.3623 F80.00
G01 X10.3915 Y33.3902 F80.00
G01 X10.3931 Y33.4201 F80.00
G01 X10.3931 Y34.0249 F80.00
G01 X12.6966 Y36.3284 F80.00
G01 X12.7156 Y36.3493 F80.00
G01 X12.7199 Y36.3544 F80.00
G01 X12.7366 Y36.3772 F80.00
G01 X12.7512 Y36.4014 F80.00
G01 X12.7544 Y36.4072 F80.00
G01 X12.7664 Y36.4328 F80.00
G01 X12.7775 Y36.4641 F80.00
G01 X12.7847 Y36.4932 F80.00
G01 X12.7889 Y36.5211 F80.00
G01 X12.7895 Y36.5277 F80.00
G01 X12.7909 Y36.5560 F80.00
G01 X12.7909 Y39.9698 F80.00
G01 X12.8218 Y39.9811 F80.00
G01 X12.9031 Y40.0197 F80.00
G01 X12.9789 Y40.0652 F80.00
G01 X13.0499 Y40.1178 F80.00
G01 X13.1155 Y40.1771 F80.00
G01 X13.1202 Y40.1818 F80.00
G01 X13.1784 Y40.2461 F80.00
G01 X13.2311 Y40.3170 F80.00
G01 X13.2767 Y40.3928 F80.00
G01 X13.2799 Y40.3986 F80.00
G01 X13.3169 Y40.4771 F80.00
G01 X13.3472 Y40.5619 F80.00
G01 X13.3691 Y40.6492 F80.00
G01 X13.3819 Y40.7350 F80.00
G01 X13.3826 Y40.7416 F80.00
G01 X13.3866 Y40.8249 F80.00
G01 X13.3866 Y40.8316 F80.00
G01 X13.3823 Y40.9182 F80.00
G01 X13.3691 Y41.0073 F80.00
G01 X13.3472 Y41.0946 F80.00
G01 X13.3169 Y41.1794 F80.00
G01 X13.2784 Y41.2608 F80.00
G01 X13.2321 Y41.3381 F80.00
G01 X13.1784 Y41.4104 F80.00
G01 X13.1202 Y41.4747 F80.00
G01 X13.1155 Y41.4794 F80.00
G01 X13.0512 Y41.5376 F80.00
G01 X12.9816 Y41.5893 F80.00
G01 X12.9761 Y41.5930 F80.00
G01 X12.9045 Y41.6359 F80.00
G01 X12.8987 Y41.6390 F80.00
G01 X12.8202 Y41.6760 F80.00
G01 X12.7355 Y41.7064 F80.00
G01 X12.6481 Y41.7283 F80.00
G01 X12.5574 Y41.7416 F80.00
G01 X12.4691 Y41.7459 F80.00
G01 X12.3791 Y41.7415 F80.00
G01 X12.2901 Y41.7283 F80.00
G01 X12.2027 Y41.7064 F80.00
G01 X12.1179 Y41.6760 F80.00
G01 X12.0365 Y41.6375 F80.00
G01 X11.9593 Y41.5912 F80.00
G01 X11.8869 Y41.5376 F80.00
G01 X11.8202 Y41.4771 F80.00
G01 X11.7597 Y41.4104 F80.00
G01 X11.7061 Y41.3381 F80.00
G01 X11.6598 Y41.2608 F80.00
G01 X11.6213 Y41.1794 F80.00
G01 X11.5909 Y41.0946 F80.00
G01 X11.5691 Y41.0073 F80.00
G01 X11.5557 Y40.9165 F80.00
G01 X11.5514 Y40.8282 F80.00
G01 X11.5558 Y40.7383 F80.00
G01 X11.5691 Y40.6492 F80.00
G01 X11.5901 Y40.5651 F80.00
G01 X11.5920 Y40.5587 F80.00
G01 X11.6201 Y40.4802 F80.00
G01 X11.6226 Y40.4740 F80.00
G01 X11.6598 Y40.3957 F80.00
G01 X11.7052 Y40.3198 F80.00
G01 X11.7597 Y40.2461 F80.00
G01 X11.8179 Y40.1818 F80.00
G01 X11.8226 Y40.1771 F80.00
G01 X11.8882 Y40.1178 F80.00
G01 X11.9593 Y40.0652 F80.00
G01 X12.0350 Y40.0197 F80.00
G01 X12.1164 Y39.9811 F80.00
G01 X12.1473 Y39.9698 F80.00
G01 X12.1473 Y36.6892 F80.00
G01 X9.8438 Y34.3857 F80.00
G01 X9.8215 Y34.3610 F80.00
G01 X9.8038 Y34.3370 F80.00
G01 X9.7892 Y34.3128 F80.00
G01 X9.7860 Y34.3069 F80.00
G01 X9.7740 Y34.2813 F80.00
G01 X9.7634 Y34.2516 F80.00
G01 X9.7565 Y34.2242 F80.00
G01 X9.7552 Y34.2177 F80.00
G01 X9.7511 Y34.1897 F80.00
G01 X9.7495 Y34.1582 F80.00
G01 X9.7495 Y33.5550 F80.00
G01 X9.4679 Y33.2734 F80.00
G01 X9.4456 Y33.2487 F80.00
G01 X9.4279 Y33.2246 F80.00
G01 X9.4133 Y33.2004 F80.00
G01 X9.4101 Y33.1946 F80.00
G01 X9.3981 Y33.1690 F80.00
G01 X9.3875 Y33.1392 F80.00
G01 X9.3805 Y33.1119 F80.00
G01 X9.3792 Y33.1053 F80.00
G01 X9.3750 Y33.0757 F80.00
G01 X9.3736 Y33.0458 F80.00
G01 X9.3736 Y28.9818 F80.00
G01 X9.3752 Y28.9503 F80.00
G01 X9.3792 Y28.9223 F80.00
G01 X9.3805 Y28.9158 F80.00
G01 X9.3866 Y28.8916 F80.00
G01 X9.3885 Y28.8852 F80.00
G01 X9.3981 Y28.8587 F80.00
G01 X9.4101 Y28.8331 F80.00
G01 X9.4133 Y28.8272 F80.00
G01 X9.4261 Y28.8058 F80.00
G01 X9.4298 Y28.8003 F80.00
G01 X9.4467 Y28.7777 F80.00
G01 X9.4679 Y28.7543 F80.00
G01 X11.6215 Y26.6006 F80.00
G01 X11.6215 Y24.7284 F80.00
G01 X10.9009 Y24.0078 F80.00
G01 X10.8895 Y24.0007 F80.00
G01 X10.8668 Y23.9839 F80.00
G01 X10.8421 Y23.9616 F80.00
G01 X9.3663 Y22.4858 F80.00
G01 X9.3472 Y22.4649 F80.00
G01 X9.3430 Y22.4598 F80.00
G01 X9.3263 Y22.4371 F80.00
G01 X9.3117 Y22.4129 F80.00
G01 X9.3085 Y22.4070 F80.00
G01 X9.2965 Y22.3814 F80.00
G01 X9.2854 Y22.3501 F80.00
G01 X9.2782 Y22.3211 F80.00
G01 X9.2740 Y22.2931 F80.00
G01 X9.2733 Y22.2865 F80.00
G01 X9.2720 Y22.2583 F80.00
G01 X9.2720 Y16.0538 F80.00
G01 X8.7413 Y16.0538 F80.00
G01 X8.7346 Y16.0535 F80.00
G01 X8.7232 Y16.0513 F80.00
G01 X8.7123 Y16.0473 F80.00
G01 X8.7023 Y16.0414 F80.00
G01 X8.6934 Y16.0340 F80.00
G01 X8.6859 Y16.0251 F80.00
G01 X8.6801 Y16.0151 F80.00
G01 X8.6761 Y16.0042 F80.00
G01 X8.6739 Y15.9928 F80.00
G01 X8.6736 Y15.9861 F80.00
G01 X8.6736 Y14.2861 F80.00
G01 X8.6739 Y14.2795 F80.00
G01 X8.6749 Y14.2729 F80.00
G01 X8.6765 Y14.2665 F80.00
G01 X8.6794 Y14.2587 F80.00
G01 X8.6824 Y14.2528 F80.00
G01 X8.6859 Y14.2472 F80.00
G01 X8.6900 Y14.2420 F80.00
G01 X8.6946 Y14.2371 F80.00
G01 X8.6996 Y14.2328 F80.00
G01 X8.7051 Y14.2290 F80.00
G01 X8.7108 Y14.2257 F80.00
G01 X8.7169 Y14.2230 F80.00
G01 X8.7281 Y14.2198 F80.00
G01 X8.7346 Y14.2188 F80.00
G01 X8.7413 Y14.2185 F80.00
G01 X10.4429 Y14.2185 F80.00
G01 X10.4495 Y14.2190 F80.00
G01 X10.4561 Y14.2201 F80.00
G01 X10.4625 Y14.2219 F80.00
G01 X10.4687 Y14.2243 F80.00
G01 X10.4746 Y14.2273 F80.00
G01 X10.4802 Y14.2308 F80.00
G01 X10.4891 Y14.2383 F80.00
G01 X10.4936 Y14.2432 F80.00
G01 X10.4975 Y14.2486 F80.00
G01 X10.5009 Y14.2542 F80.00
G01 X10.5038 Y14.2602 F80.00
G01 X10.5060 Y14.2665 F80.00
G01 X10.5076 Y14.2729 F80.00
G01 X10.5086 Y14.2795 F80.00
G01 X10.5089 Y14.2861 F80.00
G00 Z2.0000
G00 X13.8115 Y11.9570
G01 F50.00
G01 Z-0.1001
G01 F80.00
G01 X14.5214 Y11.9570 F80.00
G01 X14.5536 Y11.9584 F80.00
G01 X14.5681 Y11.9598 F80.00
G01 X14.6000 Y11.9647 F80.00
G01 X14.6384 Y11.9743 F80.00
G01 X14.6756 Y11.9876 F80.00
G01 X14.7114 Y12.0045 F80.00
G01 X14.7391 Y12.0210 F80.00
G01 X14.7512 Y12.0291 F80.00
G01 X14.7770 Y12.0484 F80.00
G01 X14.8037 Y12.0724 F80.00
G01 X15.4845 Y12.7532 F80.00
G01 X15.5111 Y12.7825 F80.00
G01 X15.5346 Y12.8142 F80.00
G01 X15.5550 Y12.8481 F80.00
G01 X15.5689 Y12.8772 F80.00
G01 X15.5732 Y12.8873 F80.00
G01 X15.5852 Y12.9211 F80.00
G01 X15.5948 Y12.9595 F80.00
G01 X15.6006 Y12.9986 F80.00
G01 X15.6025 Y13.0344 F80.00
G01 X15.6025 Y14.7049 F80.00
G01 X15.6403 Y14.7228 F80.00
G01 X15.6501 Y14.7278 F80.00
G01 X15.7237 Y14.7719 F80.00
G01 X15.7327 Y14.7781 F80.00
G01 X15.7958 Y14.8249 F80.00
G01 X15.8043 Y14.8318 F80.00
G01 X15.8705 Y14.8919 F80.00
G01 X15.9283 Y14.9554 F80.00
G01 X15.9375 Y14.9667 F80.00
G01 X15.9843 Y15.0297 F80.00
G01 X15.9905 Y15.0388 F80.00
G01 X16.0364 Y15.1156 F80.00
G01 X16.0732 Y15.1931 F80.00
G01 X16.0788 Y15.2066 F80.00
G01 X16.1076 Y15.2874 F80.00
G01 X16.1286 Y15.3706 F80.00
G01 X16.1314 Y15.3849 F80.00
G01 X16.1438 Y15.4699 F80.00
G01 X16.1484 Y15.5629 F80.00
G01 X16.1438 Y15.6559 F80.00
G01 X16.1314 Y15.7408 F80.00
G01 X16.1286 Y15.7551 F80.00
G01 X16.1076 Y15.8383 F80.00
G01 X16.0762 Y15.9260 F80.00
G01 X16.0397 Y16.0036 F80.00
G01 X16.0328 Y16.0165 F80.00
G01 X15.9885 Y16.0900 F80.00
G01 X15.9375 Y16.1590 F80.00
G01 X15.9283 Y16.1703 F80.00
G01 X15.8705 Y16.2338 F80.00
G01 X15.8015 Y16.2963 F80.00
G01 X15.7267 Y16.3518 F80.00
G01 X15.6532 Y16.3961 F80.00
G01 X15.6403 Y16.4029 F80.00
G01 X15.5694 Y16.4365 F80.00
G01 X15.5593 Y16.4408 F80.00
G01 X15.4750 Y16.4708 F80.00
G01 X15.3918 Y16.4919 F80.00
G01 X15.3775 Y16.4947 F80.00
G01 X15.2926 Y16.5071 F80.00
G01 X15.2069 Y16.5115 F80.00
G01 X15.1923 Y16.5115 F80.00
G01 X15.1139 Y16.5077 F80.00
G01 X15.0993 Y16.5062 F80.00
G01 X15.0145 Y16.4935 F80.00
G01 X14.9241 Y16.4708 F80.00
G01 X14.8365 Y16.4395 F80.00
G01 X14.7523 Y16.3997 F80.00
G01 X14.6724 Y16.3518 F80.00
G01 X14.5976 Y16.2963 F80.00
G01 X14.5287 Y16.2338 F80.00
G01 X14.4709 Y16.1703 F80.00
G01 X14.4616 Y16.1590 F80.00
G01 X14.4107 Y16.0900 F80.00
G01 X14.3664 Y16.0165 F80.00
G01 X14.3595 Y16.0036 F80.00
G01 X14.3259 Y15.9326 F80.00
G01 X14.3203 Y15.9191 F80.00
G01 X14.2916 Y15.8383 F80.00
G01 X14.2697 Y15.7515 F80.00
G01 X14.2677 Y15.7408 F80.00
G01 X14.2553 Y15.6559 F80.00
G01 X14.2509 Y15.5702 F80.00
G01 X14.2509 Y15.5556 F80.00
G01 X14.2548 Y15.4771 F80.00
G01 X14.2562 Y15.4626 F80.00
G01 X14.2690 Y15.3778 F80.00
G01 X14.2916 Y15.2874 F80.00
G01 X14.3230 Y15.1998 F80.00
G01 X14.3611 Y15.1188 F80.00
G01 X14.3664 Y15.1092 F80.00
G01 X14.4107 Y15.0357 F80.00
G01 X14.4616 Y14.9667 F80.00
G01 X14.4709 Y14.9554 F80.00
G01 X14.5236 Y14.8972 F80.00
G01 X14.5313 Y14.8894 F80.00
G01 X14.5976 Y14.8294 F80.00
G01 X14.6694 Y14.7760 F80.00
G01 X14.6786 Y14.7700 F80.00
G01 X14.7491 Y14.7278 F80.00
G01 X14.7588 Y14.7228 F80.00
G01 X14.7966 Y14.7049 F80.00
G01 X14.7966 Y13.2050 F80.00
G01 X14.3545 Y12.7629 F80.00
G01 X13.5133 Y12.7629 F80.00
G01 X13.4991 Y12.7820 F80.00
G01 X13.4920 Y12.7904 F80.00
G01 X13.4097 Y12.8812 F80.00
G01 X13.3993 Y12.8916 F80.00
G01 X13.3029 Y12.9787 F80.00
G01 X13.1927 Y13.0605 F80.00
G01 X13.0750 Y13.1310 F80.00
G01 X12.9576 Y13.1867 F80.00
G01 X12.9441 Y13.1923 F80.00
G01 X12.8217 Y13.2359 F80.00
G01 X12.6957 Y13.2677 F80.00
G01 X12.6814 Y13.2705 F80.00
G01 X12.5528 Y13.2894 F80.00
G01 X12.4157 Y13.2961 F80.00
G01 X12.2787 Y13.2894 F80.00
G01 X12.1501 Y13.2705 F80.00
G01 X12.1358 Y13.2677 F80.00
G01 X12.0168 Y13.2379 F80.00
G01 X12.0028 Y13.2336 F80.00
G01 X11.8806 Y13.1897 F80.00
G01 X11.7565 Y13.1310 F80.00
G01 X11.6388 Y13.0605 F80.00
G01 X11.5343 Y12.9832 F80.00
G01 X11.5230 Y12.9739 F80.00
G01 X11.4321 Y12.8916 F80.00
G01 X11.4218 Y12.8812 F80.00
G01 X11.3347 Y12.7848 F80.00
G01 X11.2571 Y12.6806 F80.00
G01 X11.2490 Y12.6684 F80.00
G01 X11.1860 Y12.5632 F80.00
G01 X11.1791 Y12.5504 F80.00
G01 X11.1237 Y12.4328 F80.00
G01 X11.0774 Y12.3036 F80.00
G01 X11.0441 Y12.1705 F80.00
G01 X11.0249 Y12.0420 F80.00
G01 X11.0234 Y12.0274 F80.00
G01 X11.0174 Y11.9049 F80.00
G01 X11.0173 Y11.8940 F80.00
G01 X11.0240 Y11.7606 F80.00
G01 X11.0441 Y11.6248 F80.00
G01 X11.0774 Y11.4917 F80.00
G01 X11.1237 Y11.3625 F80.00
G01 X11.1824 Y11.2384 F80.00
G01 X11.2529 Y11.1207 F80.00
G01 X11.3347 Y11.0104 F80.00
G01 X11.4268 Y10.9087 F80.00
G01 X11.5285 Y10.8166 F80.00
G01 X11.6388 Y10.7348 F80.00
G01 X11.7565 Y10.6643 F80.00
G01 X11.8806 Y10.6056 F80.00
G01 X12.0098 Y10.5593 F80.00
G01 X12.1429 Y10.5260 F80.00
G01 X12.2787 Y10.5059 F80.00
G01 X12.4084 Y10.4993 F80.00
G01 X12.4194 Y10.4992 F80.00
G01 X12.5528 Y10.5059 F80.00
G01 X12.6886 Y10.5260 F80.00
G01 X12.8217 Y10.5593 F80.00
G01 X12.9509 Y10.6056 F80.00
G01 X13.0750 Y10.6643 F80.00
G01 X13.1927 Y10.7348 F80.00
G01 X13.3029 Y10.8166 F80.00
G01 X13.3993 Y10.9037 F80.00
G01 X13.4072 Y10.9114 F80.00
G01 X13.4968 Y11.0104 F80.00
G01 X13.5786 Y11.1207 F80.00
G01 X13.6491 Y11.2384 F80.00
G01 X13.7048 Y11.3558 F80.00
G01 X13.7091 Y11.3658 F80.00
G01 X13.7540 Y11.4917 F80.00
G01 X13.7858 Y11.6177 F80.00
G01 X13.7880 Y11.6284 F80.00
G01 X13.8066 Y11.7533 F80.00
G01 X13.8078 Y11.7642 F80.00
G01 X13.8142 Y11.8940 F80.00
G01 X13.8141 Y11.9049 F80.00
G01 X13.8115 Y11.9570 F80.00
G00 Z2.0000
G00 X14.5247 Y12.0382
G01 F50.00
G01 Z-0.1001
G01 F80.00
G01 X14.5529 Y12.0397 F80.00
G01 X14.5842 Y12.0443 F80.00
G01 X14.6148 Y12.0520 F80.00
G01 X14.6414 Y12.0614 F80.00
G01 X14.6476 Y12.0640 F80.00
G01 X14.6701 Y12.0746 F80.00
G01 X14.6760 Y12.0778 F80.00
G01 X14.7002 Y12.0924 F80.00
G01 X14.7229 Y12.1091 F80.00
G01 X14.7280 Y12.1133 F80.00
G01 X14.7489 Y12.1324 F80.00
G01 X15.4283 Y12.8118 F80.00
G01 X15.4483 Y12.8340 F80.00
G01 X15.4671 Y12.8593 F80.00
G01 X15.4834 Y12.8864 F80.00
G01 X15.4962 Y12.9134 F80.00
G01 X15.5075 Y12.9447 F80.00
G01 X15.5152 Y12.9753 F80.00
G01 X15.5198 Y13.0066 F80.00
G01 X15.5213 Y13.0364 F80.00
G01 X15.5214 Y14.7575 F80.00
G01 X15.5346 Y14.7626 F80.00
G01 X15.6086 Y14.7977 F80.00
G01 X15.6788 Y14.8397 F80.00
G01 X15.6843 Y14.8433 F80.00
G01 X15.7500 Y14.8922 F80.00
G01 X15.8107 Y14.9470 F80.00
G01 X15.8154 Y14.9517 F80.00
G01 X15.8703 Y15.0124 F80.00
G01 X15.9210 Y15.0808 F80.00
G01 X15.9631 Y15.1510 F80.00
G01 X15.9663 Y15.1568 F80.00
G01 X16.0012 Y15.2308 F80.00
G01 X16.0288 Y15.3078 F80.00
G01 X16.0308 Y15.3142 F80.00
G01 X16.0506 Y15.3936 F80.00
G01 X16.0630 Y15.4778 F80.00
G01 X16.0672 Y15.5629 F80.00
G01 X16.0630 Y15.6479 F80.00
G01 X16.0506 Y15.7321 F80.00
G01 X16.0299 Y15.8147 F80.00
G01 X16.0012 Y15.8949 F80.00
G01 X15.9648 Y15.9719 F80.00
G01 X15.9210 Y16.0449 F80.00
G01 X15.8703 Y16.1133 F80.00
G01 X15.8131 Y16.1764 F80.00
G01 X15.7500 Y16.2336 F80.00
G01 X15.6816 Y16.2843 F80.00
G01 X15.6086 Y16.3281 F80.00
G01 X15.5316 Y16.3645 F80.00
G01 X15.4514 Y16.3931 F80.00
G01 X15.3688 Y16.4138 F80.00
G01 X15.2846 Y16.4263 F80.00
G01 X15.1996 Y16.4305 F80.00
G01 X15.1145 Y16.4263 F80.00
G01 X15.0303 Y16.4138 F80.00
G01 X14.9477 Y16.3931 F80.00
G01 X14.8675 Y16.3645 F80.00
G01 X14.7906 Y16.3281 F80.00
G01 X14.7175 Y16.2843 F80.00
G01 X14.6491 Y16.2336 F80.00
G01 X14.5861 Y16.1764 F80.00
G01 X14.5289 Y16.1133 F80.00
G01 X14.4782 Y16.0449 F80.00
G01 X14.4344 Y15.9719 F80.00
G01 X14.3980 Y15.8949 F80.00
G01 X14.3693 Y15.8147 F80.00
G01 X14.3493 Y15.7354 F80.00
G01 X14.3480 Y15.7289 F80.00
G01 X14.3361 Y15.6479 F80.00
G01 X14.3319 Y15.5629 F80.00
G01 X14.3361 Y15.4778 F80.00
G01 X14.3480 Y15.3969 F80.00
G01 X14.3493 Y15.3903 F80.00
G01 X14.3684 Y15.3142 F80.00
G01 X14.3703 Y15.3078 F80.00
G01 X14.3980 Y15.2308 F80.00
G01 X14.4344 Y15.1539 F80.00
G01 X14.4782 Y15.0808 F80.00
G01 X14.5289 Y15.0124 F80.00
G01 X14.5861 Y14.9493 F80.00
G01 X14.6466 Y14.8943 F80.00
G01 X14.6518 Y14.8901 F80.00
G01 X14.7175 Y14.8414 F80.00
G01 X14.7877 Y14.7993 F80.00
G01 X14.7935 Y14.7962 F80.00
G01 X14.8645 Y14.7626 F80.00
G01 X14.8778 Y14.7575 F80.00
G01 X14.8778 Y13.1714 F80.00
G01 X14.3881 Y12.6817 F80.00
G01 X13.4725 Y12.6817 F80.00
G01 X13.4330 Y12.7346 F80.00
G01 X13.3460 Y12.8303 F80.00
G01 X13.2514 Y12.9159 F80.00
G01 X13.1462 Y12.9939 F80.00
G01 X13.0367 Y13.0594 F80.00
G01 X12.9199 Y13.1147 F80.00
G01 X12.7981 Y13.1582 F80.00
G01 X12.6711 Y13.1900 F80.00
G01 X12.5449 Y13.2086 F80.00
G01 X12.4191 Y13.2149 F80.00
G01 X12.4124 Y13.2149 F80.00
G01 X12.2866 Y13.2086 F80.00
G01 X12.1620 Y13.1902 F80.00
G01 X12.1555 Y13.1889 F80.00
G01 X12.0333 Y13.1582 F80.00
G01 X11.9147 Y13.1159 F80.00
G01 X11.9086 Y13.1133 F80.00
G01 X11.7977 Y13.0609 F80.00
G01 X11.7919 Y13.0578 F80.00
G01 X11.6839 Y12.9930 F80.00
G01 X11.5800 Y12.9159 F80.00
G01 X11.4842 Y12.8291 F80.00
G01 X11.3996 Y12.7359 F80.00
G01 X11.3954 Y12.7307 F80.00
G01 X11.3223 Y12.6322 F80.00
G01 X11.3186 Y12.6267 F80.00
G01 X11.2540 Y12.5186 F80.00
G01 X11.1987 Y12.4018 F80.00
G01 X11.1551 Y12.2800 F80.00
G01 X11.1244 Y12.1579 F80.00
G01 X11.1232 Y12.1514 F80.00
G01 X11.1052 Y12.0301 F80.00
G01 X11.1045 Y12.0234 F80.00
G01 X11.0984 Y11.8976 F80.00
G01 X11.1046 Y11.7702 F80.00
G01 X11.1237 Y11.6406 F80.00
G01 X11.1551 Y11.5152 F80.00
G01 X11.1987 Y11.3935 F80.00
G01 X11.2540 Y11.2767 F80.00
G01 X11.3204 Y11.1658 F80.00
G01 X11.3974 Y11.0619 F80.00
G01 X11.4842 Y10.9661 F80.00
G01 X11.5800 Y10.8793 F80.00
G01 X11.6839 Y10.8023 F80.00
G01 X11.7948 Y10.7359 F80.00
G01 X11.9116 Y10.6806 F80.00
G01 X12.0333 Y10.6370 F80.00
G01 X12.1587 Y10.6056 F80.00
G01 X12.2866 Y10.5867 F80.00
G01 X12.4157 Y10.5803 F80.00
G01 X12.5432 Y10.5865 F80.00
G01 X12.6727 Y10.6056 F80.00
G01 X12.7981 Y10.6370 F80.00
G01 X12.9199 Y10.6806 F80.00
G01 X13.0367 Y10.7359 F80.00
G01 X13.1476 Y10.8023 F80.00
G01 X13.2514 Y10.8793 F80.00
G01 X13.3472 Y10.9661 F80.00
G01 X13.4340 Y11.0619 F80.00
G01 X13.5111 Y11.1658 F80.00
G01 X13.5775 Y11.2767 F80.00
G01 X13.6328 Y11.3935 F80.00
G01 X13.6763 Y11.5152 F80.00
G01 X13.7078 Y11.6406 F80.00
G01 X13.7267 Y11.7685 F80.00
G01 X13.7331 Y11.8976 F80.00
G01 X13.7270 Y12.0234 F80.00
G01 X13.7251 Y12.0381 F80.00
G01 X14.5247 Y12.0382 F80.00
G00 Z2.0000
G00 X12.2778 Y10.4968
G01 F50.00
G01 Z-0.1001
G01 F80.00
G01 X12.5537 Y10.4968 F80.00
G01 X12.8243 Y10.5507 F80.00
G01 X13.0793 Y10.6563 F80.00
G01 X13.3087 Y10.8096 F80.00
G01 X13.5038 Y11.0047 F80.00
G01 X13.6571 Y11.2341 F80.00
G01 X13.7627 Y11.4890 F80.00
G01 X13.8155 Y11.7545 F80.00
G01 X13.8204 Y11.7747 F80.00
G01 X13.8270 Y11.7943 F80.00
G01 X13.8311 Y11.8045 F80.00
G01 X13.8401 Y11.8232 F80.00
G01 X13.8488 Y11.8380 F80.00
G01 X13.8547 Y11.8472 F80.00
G01 X13.8649 Y11.8610 F80.00
G01 X13.8720 Y11.8693 F80.00
G01 X13.8836 Y11.8819 F80.00
G01 X13.8962 Y11.8935 F80.00
G01 X13.9075 Y11.9028 F80.00
G01 X13.9244 Y11.9148 F80.00
G01 X13.9423 Y11.9254 F80.00
G01 X13.9577 Y11.9329 F80.00
G01 X13.9678 Y11.9372 F80.00
G01 X13.9874 Y11.9441 F80.00
G01 X14.0075 Y11.9493 F80.00
G01 X14.0182 Y11.9513 F80.00
G01 X14.0388 Y11.9539 F80.00
G01 X14.0596 Y11.9548 F80.00
G01 X14.4893 Y11.9548 F80.00
G01 X14.5064 Y11.9541 F80.00
G01 X14.5214 Y11.9528 F80.00
G01 X14.6008 Y11.9607 F80.00
G01 X14.6772 Y11.9838 F80.00
G01 X14.7476 Y12.0214 F80.00
G01 X14.8092 Y12.0721 F80.00
G01 X14.8189 Y12.0836 F80.00
G01 X14.8306 Y12.0962 F80.00
G01 X15.4633 Y12.7289 F80.00
G01 X15.4759 Y12.7405 F80.00
G01 X15.4874 Y12.7502 F80.00
G01 X15.5381 Y12.8119 F80.00
G01 X15.5757 Y12.8823 F80.00
G01 X15.5988 Y12.9587 F80.00
G01 X15.6067 Y13.0381 F80.00
G01 X15.6054 Y13.0531 F80.00
G01 X15.6047 Y13.0702 F80.00
G01 X15.6047 Y14.5566 F80.00
G01 X15.6059 Y14.5810 F80.00
G01 X15.6082 Y14.5980 F80.00
G01 X15.6102 Y14.6087 F80.00
G01 X15.6154 Y14.6289 F80.00
G01 X15.6210 Y14.6450 F80.00
G01 X15.6251 Y14.6552 F80.00
G01 X15.6324 Y14.6707 F80.00
G01 X15.6377 Y14.6803 F80.00
G01 X15.6466 Y14.6949 F80.00
G01 X15.6567 Y14.7087 F80.00
G01 X15.6635 Y14.7173 F80.00
G01 X15.6750 Y14.7300 F80.00
G01 X15.6802 Y14.7352 F80.00
G01 X15.6929 Y14.7467 F80.00
G01 X15.7014 Y14.7535 F80.00
G01 X15.7153 Y14.7636 F80.00
G01 X15.8059 Y14.8241 F80.00
G01 X15.9384 Y14.9566 F80.00
G01 X16.0424 Y15.1123 F80.00
G01 X16.1141 Y15.2854 F80.00
G01 X16.1507 Y15.4692 F80.00
G01 X16.1507 Y15.6565 F80.00
G01 X16.1141 Y15.8403 F80.00
G01 X16.0424 Y16.0134 F80.00
G01 X15.9384 Y16.1692 F80.00
G01 X15.8059 Y16.3016 F80.00
G01 X15.6501 Y16.4057 F80.00
G01 X15.4770 Y16.4774 F80.00
G01 X15.2933 Y16.5140 F80.00
G01 X15.1059 Y16.5140 F80.00
G01 X14.9221 Y16.4774 F80.00
G01 X14.7491 Y16.4057 F80.00
G01 X14.5933 Y16.3016 F80.00
G01 X14.4608 Y16.1692 F80.00
G01 X14.3567 Y16.0134 F80.00
G01 X14.2850 Y15.8403 F80.00
G01 X14.2485 Y15.6565 F80.00
G01 X14.2485 Y15.4692 F80.00
G01 X14.2850 Y15.2854 F80.00
G01 X14.3567 Y15.1123 F80.00
G01 X14.4608 Y14.9566 F80.00
G01 X14.5933 Y14.8241 F80.00
G01 X14.6838 Y14.7636 F80.00
G01 X14.6977 Y14.7535 F80.00
G01 X14.7063 Y14.7467 F80.00
G01 X14.7189 Y14.7352 F80.00
G01 X14.7241 Y14.7300 F80.00
G01 X14.7356 Y14.7173 F80.00
G01 X14.7402 Y14.7117 F80.00
G01 X14.7504 Y14.6979 F80.00
G01 X14.7615 Y14.6803 F80.00
G01 X14.7684 Y14.6674 F80.00
G01 X14.7769 Y14.6485 F80.00
G01 X14.7837 Y14.6289 F80.00
G01 X14.7897 Y14.6052 F80.00
G01 X14.7929 Y14.5846 F80.00
G01 X14.7943 Y14.5639 F80.00
G01 X14.7945 Y13.3090 F80.00
G01 X14.7933 Y13.2846 F80.00
G01 X14.7909 Y13.2676 F80.00
G01 X14.7889 Y13.2569 F80.00
G01 X14.7837 Y13.2367 F80.00
G01 X14.7781 Y13.2206 F80.00
G01 X14.7741 Y13.2104 F80.00
G01 X14.7668 Y13.1949 F80.00
G01 X14.7615 Y13.1853 F80.00
G01 X14.7525 Y13.1707 F80.00
G01 X14.7425 Y13.1569 F80.00
G01 X14.7356 Y13.1483 F80.00
G01 X14.7216 Y13.1330 F80.00
G01 X14.4265 Y12.8379 F80.00
G01 X14.4112 Y12.8239 F80.00
G01 X14.3947 Y12.8112 F80.00
G01 X14.3826 Y12.8031 F80.00
G01 X14.3646 Y12.7927 F80.00
G01 X14.3457 Y12.7840 F80.00
G01 X14.3262 Y12.7769 F80.00
G01 X14.3062 Y12.7714 F80.00
G01 X14.2919 Y12.7686 F80.00
G01 X14.2713 Y12.7659 F80.00
G01 X14.2505 Y12.7650 F80.00
G01 X13.6325 Y12.7650 F80.00
G01 X13.6081 Y12.7662 F80.00
G01 X13.5911 Y12.7686 F80.00
G01 X13.5803 Y12.7706 F80.00
G01 X13.5637 Y12.7747 F80.00
G01 X13.5567 Y12.7769 F80.00
G01 X13.5406 Y12.7826 F80.00
G01 X13.5339 Y12.7854 F80.00
G01 X13.5184 Y12.7927 F80.00
G01 X13.5119 Y12.7962 F80.00
G01 X13.4972 Y12.8050 F80.00
G01 X13.4882 Y12.8112 F80.00
G01 X13.4746 Y12.8215 F80.00
G01 X13.4591 Y12.8354 F80.00
G01 X13.3087 Y12.9857 F80.00
G01 X13.0793 Y13.1390 F80.00
G01 X12.8243 Y13.2446 F80.00
G01 X12.5537 Y13.2984 F80.00
G01 X12.2778 Y13.2984 F80.00
G01 X12.0071 Y13.2446 F80.00
G01 X11.7522 Y13.1390 F80.00
G01 X11.5228 Y12.9857 F80.00
G01 X11.3277 Y12.7906 F80.00
G01 X11.1744 Y12.5612 F80.00
G01 X11.0688 Y12.3062 F80.00
G01 X11.0149 Y12.0356 F80.00
G01 X11.0149 Y11.7597 F80.00
G01 X11.0688 Y11.4890 F80.00
G01 X11.1744 Y11.2341 F80.00
G01 X11.3277 Y11.0047 F80.00
G01 X11.5228 Y10.8096 F80.00
G01 X11.7522 Y10.6563 F80.00
G01 X12.0071 Y10.5507 F80.00
G01 X12.2778 Y10.4968 F80.00
G00 Z2.0000
G00 X12.2698 Y10.4157
G01 F50.00
G01 Z-0.1001
G01 F80.00
G01 X12.5617 Y10.4157 F80.00
G01 X12.8480 Y10.4726 F80.00
G01 X13.1177 Y10.5843 F80.00
G01 X13.3604 Y10.7465 F80.00
G01 X13.5669 Y10.9529 F80.00
G01 X13.7291 Y11.1957 F80.00
G01 X13.8408 Y11.4654 F80.00
G01 X13.8951 Y11.7386 F80.00
G01 X13.9002 Y11.7578 F80.00
G01 X13.9047 Y11.7701 F80.00
G01 X13.9102 Y11.7820 F80.00
G01 X13.9202 Y11.7991 F80.00
G01 X13.9321 Y11.8148 F80.00
G01 X13.9410 Y11.8245 F80.00
G01 X13.9507 Y11.8334 F80.00
G01 X13.9558 Y11.8376 F80.00
G01 X13.9692 Y11.8471 F80.00
G01 X13.9805 Y11.8538 F80.00
G01 X13.9954 Y11.8609 F80.00
G01 X14.0109 Y11.8664 F80.00
G01 X14.0236 Y11.8697 F80.00
G01 X14.0302 Y11.8710 F80.00
G01 X14.0448 Y11.8730 F80.00
G01 X14.0596 Y11.8736 F80.00
G01 X14.4893 Y11.8736 F80.00
G01 X14.5041 Y11.8730 F80.00
G01 X14.5214 Y11.8713 F80.00
G01 X14.6167 Y11.8807 F80.00
G01 X14.7084 Y11.9085 F80.00
G01 X14.7929 Y11.9536 F80.00
G01 X14.8669 Y12.0144 F80.00
G01 X14.8780 Y12.0278 F80.00
G01 X14.8880 Y12.0388 F80.00
G01 X15.5207 Y12.6715 F80.00
G01 X15.5317 Y12.6815 F80.00
G01 X15.5451 Y12.6926 F80.00
G01 X15.6059 Y12.7666 F80.00
G01 X15.6510 Y12.8511 F80.00
G01 X15.6788 Y12.9428 F80.00
G01 X15.6882 Y13.0381 F80.00
G01 X15.6865 Y13.0554 F80.00
G01 X15.6859 Y13.0702 F80.00
G01 X15.6859 Y14.5566 F80.00
G01 X15.6867 Y14.5731 F80.00
G01 X15.6894 Y14.5910 F80.00
G01 X15.6931 Y14.6053 F80.00
G01 X15.6974 Y14.6177 F80.00
G01 X15.7057 Y14.6357 F80.00
G01 X15.7141 Y14.6498 F80.00
G01 X15.7219 Y14.6604 F80.00
G01 X15.7350 Y14.6752 F80.00
G01 X15.7472 Y14.6863 F80.00
G01 X15.7590 Y14.6951 F80.00
G01 X15.8576 Y14.7610 F80.00
G01 X16.0014 Y14.9048 F80.00
G01 X16.1144 Y15.0739 F80.00
G01 X16.1922 Y15.2617 F80.00
G01 X16.2319 Y15.4612 F80.00
G01 X16.2319 Y15.6645 F80.00
G01 X16.1922 Y15.8640 F80.00
G01 X16.1144 Y16.0518 F80.00
G01 X16.0014 Y16.2209 F80.00
G01 X15.8576 Y16.3647 F80.00
G01 X15.6886 Y16.4777 F80.00
G01 X15.5007 Y16.5555 F80.00
G01 X15.3013 Y16.5952 F80.00
G01 X15.0979 Y16.5952 F80.00
G01 X14.8985 Y16.5555 F80.00
G01 X14.7106 Y16.4777 F80.00
G01 X14.5415 Y16.3647 F80.00
G01 X14.3977 Y16.2209 F80.00
G01 X14.2848 Y16.0518 F80.00
G01 X14.2069 Y15.8640 F80.00
G01 X14.1673 Y15.6645 F80.00
G01 X14.1673 Y15.4612 F80.00
G01 X14.2069 Y15.2617 F80.00
G01 X14.2848 Y15.0739 F80.00
G01 X14.3977 Y14.9048 F80.00
G01 X14.5415 Y14.7610 F80.00
G01 X14.6401 Y14.6951 F80.00
G01 X14.6520 Y14.6863 F80.00
G01 X14.6653 Y14.6740 F80.00
G01 X14.6752 Y14.6630 F80.00
G01 X14.6850 Y14.6498 F80.00
G01 X14.6935 Y14.6357 F80.00
G01 X14.6999 Y14.6223 F80.00
G01 X14.7056 Y14.6069 F80.00
G01 X14.7093 Y14.5926 F80.00
G01 X14.7121 Y14.5764 F80.00
G01 X14.7127 Y14.5697 F80.00
G01 X14.7133 Y14.5566 F80.00
G01 X14.7133 Y13.3090 F80.00
G01 X14.7125 Y13.2926 F80.00
G01 X14.7101 Y13.2763 F80.00
G01 X14.7050 Y13.2572 F80.00
G01 X14.7005 Y13.2448 F80.00
G01 X14.6950 Y13.2329 F80.00
G01 X14.6850 Y13.2158 F80.00
G01 X14.6730 Y13.2001 F80.00
G01 X14.6642 Y13.1904 F80.00
G01 X14.3691 Y12.8953 F80.00
G01 X14.3582 Y12.8854 F80.00
G01 X14.3450 Y12.8754 F80.00
G01 X14.3324 Y12.8677 F80.00
G01 X14.3266 Y12.8645 F80.00
G01 X14.3131 Y12.8584 F80.00
G01 X14.2992 Y12.8534 F80.00
G01 X14.2832 Y12.8494 F80.00
G01 X14.2669 Y12.8470 F80.00
G01 X14.2538 Y12.8463 F80.00
G01 X13.6325 Y12.8462 F80.00
G01 X13.6160 Y12.8470 F80.00
G01 X13.5981 Y12.8498 F80.00
G01 X13.5806 Y12.8545 F80.00
G01 X13.5683 Y12.8590 F80.00
G01 X13.5564 Y12.8645 F80.00
G01 X13.5393 Y12.8745 F80.00
G01 X13.5261 Y12.8843 F80.00
G01 X13.5139 Y12.8953 F80.00
G01 X13.3604 Y13.0488 F80.00
G01 X13.1177 Y13.2110 F80.00
G01 X12.8480 Y13.3227 F80.00
G01 X12.5617 Y13.3796 F80.00
G01 X12.2698 Y13.3796 F80.00
G01 X11.9835 Y13.3227 F80.00
G01 X11.7138 Y13.2110 F80.00
G01 X11.4710 Y13.0488 F80.00
G01 X11.2646 Y12.8423 F80.00
G01 X11.1024 Y12.5996 F80.00
G01 X10.9907 Y12.3299 F80.00
G01 X10.9338 Y12.0436 F80.00
G01 X10.9338 Y11.7517 F80.00
G01 X10.9907 Y11.4654 F80.00
G01 X11.1024 Y11.1957 F80.00
G01 X11.2646 Y10.9529 F80.00
G01 X11.4710 Y10.7465 F80.00
G01 X11.7138 Y10.5843 F80.00
G01 X11.9835 Y10.4726 F80.00
G01 X12.2698 Y10.4157 F80.00
G00 Z2.0000
G00 X17.4086 Y10.7155
G01 F50.00
G01 Z-0.1001
G01 F80.00
G01 X17.2828 Y10.7093 F80.00
G01 X17.1549 Y10.6903 F80.00
G01 X17.0295 Y10.6589 F80.00
G01 X16.9078 Y10.6153 F80.00
G01 X16.7909 Y10.5601 F80.00
G01 X16.6800 Y10.4936 F80.00
G01 X16.5762 Y10.4166 F80.00
G01 X16.4804 Y10.3298 F80.00
G01 X16.3936 Y10.2340 F80.00
G01 X16.3166 Y10.1301 F80.00
G01 X16.2501 Y10.0193 F80.00
G01 X16.1949 Y9.9024 F80.00
G01 X16.1513 Y9.7807 F80.00
G01 X16.1199 Y9.6553 F80.00
G01 X16.1009 Y9.5274 F80.00
G01 X16.0946 Y9.3983 F80.00
G01 X16.1009 Y9.2692 F80.00
G01 X16.1199 Y9.1413 F80.00
G01 X16.1513 Y9.0159 F80.00
G01 X16.1949 Y8.8942 F80.00
G01 X16.2501 Y8.7773 F80.00
G01 X16.3166 Y8.6664 F80.00
G01 X16.3936 Y8.5626 F80.00
G01 X16.4804 Y8.4668 F80.00
G01 X16.5762 Y8.3800 F80.00
G01 X16.6800 Y8.3030 F80.00
G01 X16.7909 Y8.2365 F80.00
G01 X16.9078 Y8.1812 F80.00
G01 X17.0295 Y8.1377 F80.00
G01 X17.1549 Y8.1063 F80.00
G01 X17.2828 Y8.0873 F80.00
G01 X17.4119 Y8.0809 F80.00
G01 X17.5410 Y8.0873 F80.00
G01 X17.6689 Y8.1063 F80.00
G01 X17.7943 Y8.1377 F80.00
G01 X17.9160 Y8.1812 F80.00
G01 X18.0329 Y8.2365 F80.00
G01 X18.1438 Y8.3030 F80.00
G01 X18.2476 Y8.3800 F80.00
G01 X18.3434 Y8.4668 F80.00
G01 X18.4302 Y8.5626 F80.00
G01 X18.5072 Y8.6664 F80.00
G01 X18.5737 Y8.7773 F80.00
G01 X18.6290 Y8.8942 F80.00
G01 X18.6725 Y9.0159 F80.00
G01 X18.7039 Y9.1413 F80.00
G01 X18.7229 Y9.2692 F80.00
G01 X18.7292 Y9.3983 F80.00
G01 X18.7229 Y9.5274 F80.00
G01 X18.7039 Y9.6553 F80.00
G01 X18.6725 Y9.7807 F80.00
G01 X18.6290 Y9.9024 F80.00
G01 X18.5737 Y10.0193 F80.00
G01 X18.5072 Y10.1301 F80.00
G01 X18.4302 Y10.2340 F80.00
G01 X18.3434 Y10.3298 F80.00
G01 X18.2476 Y10.4166 F80.00
G01 X18.1438 Y10.4936 F80.00
G01 X18.0329 Y10.5601 F80.00
G01 X17.9160 Y10.6153 F80.00
G01 X17.7943 Y10.6589 F80.00
G01 X17.6689 Y10.6903 F80.00
G01 X17.5410 Y10.7093 F80.00
G01 X17.4152 Y10.7155 F80.00
G01 X17.4086 Y10.7155 F80.00
G00 Z2.0000
G00 X17.4046 Y10.7966
G01 F50.00
G01 Z-0.1001
G01 F80.00
G01 X17.2748 Y10.7901 F80.00
G01 X17.1391 Y10.7699 F80.00
G01 X17.0060 Y10.7366 F80.00
G01 X16.8767 Y10.6903 F80.00
G01 X16.7527 Y10.6317 F80.00
G01 X16.6349 Y10.5611 F80.00
G01 X16.5247 Y10.4793 F80.00
G01 X16.4230 Y10.3872 F80.00
G01 X16.3309 Y10.2855 F80.00
G01 X16.2491 Y10.1752 F80.00
G01 X16.1785 Y10.0575 F80.00
G01 X16.1199 Y9.9335 F80.00
G01 X16.0736 Y9.8042 F80.00
G01 X16.0403 Y9.6711 F80.00
G01 X16.0201 Y9.5354 F80.00
G01 X16.0134 Y9.3983 F80.00
G01 X16.0201 Y9.2612 F80.00
G01 X16.0403 Y9.1254 F80.00
G01 X16.0736 Y8.9923 F80.00
G01 X16.1199 Y8.8631 F80.00
G01 X16.1785 Y8.7390 F80.00
G01 X16.2491 Y8.6213 F80.00
G01 X16.3309 Y8.5111 F80.00
G01 X16.4230 Y8.4094 F80.00
G01 X16.5247 Y8.3172 F80.00
G01 X16.6349 Y8.2355 F80.00
G01 X16.7527 Y8.1649 F80.00
G01 X16.8767 Y8.1062 F80.00
G01 X17.0060 Y8.0600 F80.00
G01 X17.1391 Y8.0266 F80.00
G01 X17.2748 Y8.0065 F80.00
G01 X17.4119 Y7.9998 F80.00
G01 X17.5490 Y8.0065 F80.00
G01 X17.6848 Y8.0266 F80.00
G01 X17.8179 Y8.0600 F80.00
G01 X17.9471 Y8.1062 F80.00
G01 X18.0712 Y8.1649 F80.00
G01 X18.1889 Y8.2355 F80.00
G01 X18.2991 Y8.3172 F80.00
G01 X18.4008 Y8.4094 F80.00
G01 X18.4930 Y8.5111 F80.00
G01 X18.5747 Y8.6213 F80.00
G01 X18.6453 Y8.7390 F80.00
G01 X18.7040 Y8.8631 F80.00
G01 X18.7502 Y8.9923 F80.00
G01 X18.7836 Y9.1254 F80.00
G01 X18.8037 Y9.2612 F80.00
G01 X18.8104 Y9.3983 F80.00
G01 X18.8037 Y9.5354 F80.00
G01 X18.7836 Y9.6711 F80.00
G01 X18.7502 Y9.8042 F80.00
G01 X18.7040 Y9.9335 F80.00
G01 X18.6453 Y10.0575 F80.00
G01 X18.5747 Y10.1752 F80.00
G01 X18.4930 Y10.2855 F80.00
G01 X18.4008 Y10.3872 F80.00
G01 X18.2991 Y10.4793 F80.00
G01 X18.1889 Y10.5611 F80.00
G01 X18.0712 Y10.6317 F80.00
G01 X17.9471 Y10.6903 F80.00
G01 X17.8179 Y10.7366 F80.00
G01 X17.6848 Y10.7699 F80.00
G01 X17.5490 Y10.7901 F80.00
G01 X17.4192 Y10.7966 F80.00
G01 X17.4046 Y10.7966 F80.00
G00 Z2.0000
G00 X17.2740 Y7.9975
G01 F50.00
G01 Z-0.1001
G01 F80.00
G01 X17.5499 Y7.9975 F80.00
G01 X17.8205 Y8.0513 F80.00
G01 X18.0754 Y8.1569 F80.00
G01 X18.3049 Y8.3102 F80.00
G01 X18.5000 Y8.5053 F80.00
G01 X18.6533 Y8.7348 F80.00
G01 X18.7589 Y8.9897 F80.00
G01 X18.8127 Y9.2603 F80.00
G01 X18.8127 Y9.5362 F80.00
G01 X18.7589 Y9.8069 F80.00
G01 X18.6533 Y10.0618 F80.00
G01 X18.5000 Y10.2912 F80.00
G01 X18.3049 Y10.4864 F80.00
G01 X18.0754 Y10.6397 F80.00
G01 X17.8205 Y10.7452 F80.00
G01 X17.5499 Y10.7991 F80.00
G01 X17.2740 Y10.7991 F80.00
G01 X17.0033 Y10.7452 F80.00
G01 X16.7484 Y10.6397 F80.00
G01 X16.5190 Y10.4864 F80.00
G01 X16.3238 Y10.2912 F80.00
G01 X16.1705 Y10.0618 F80.00
G01 X16.0649 Y9.8069 F80.00
G01 X16.0111 Y9.5362 F80.00
G01 X16.0111 Y9.2603 F80.00
G01 X16.0649 Y8.9897 F80.00
G01 X16.1705 Y8.7348 F80.00
G01 X16.3238 Y8.5053 F80.00
G01 X16.5190 Y8.3102 F80.00
G01 X16.7484 Y8.1569 F80.00
G01 X17.0033 Y8.0513 F80.00
G01 X17.2740 Y7.9975 F80.00
G00 Z2.0000
G00 X17.2660 Y7.9163
G01 F50.00
G01 Z-0.1001
G01 F80.00
G01 X17.5579 Y7.9163 F80.00
G01 X17.8442 Y7.9732 F80.00
G01 X18.1139 Y8.0850 F80.00
G01 X18.3566 Y8.2471 F80.00
G01 X18.5630 Y8.4536 F80.00
G01 X18.7252 Y8.6963 F80.00
G01 X18.8369 Y8.9660 F80.00
G01 X18.8939 Y9.2523 F80.00
G01 X18.8939 Y9.5442 F80.00
G01 X18.8369 Y9.8306 F80.00
G01 X18.7252 Y10.1003 F80.00
G01 X18.5630 Y10.3430 F80.00
G01 X18.3566 Y10.5494 F80.00
G01 X18.1139 Y10.7116 F80.00
G01 X17.8442 Y10.8233 F80.00
G01 X17.5579 Y10.8803 F80.00
G01 X17.2660 Y10.8803 F80.00
G01 X16.9796 Y10.8233 F80.00
G01 X16.7099 Y10.7116 F80.00
G01 X16.4672 Y10.5494 F80.00
G01 X16.2608 Y10.3430 F80.00
G01 X16.0986 Y10.1003 F80.00
G01 X15.9869 Y9.8306 F80.00
G01 X15.9299 Y9.5442 F80.00
G01 X15.9299 Y9.2523 F80.00
G01 X15.9869 Y8.9660 F80.00
G01 X16.0986 Y8.6963 F80.00
G01 X16.2608 Y8.4536 F80.00
G01 X16.4672 Y8.2471 F80.00
G01 X16.7099 Y8.0850 F80.00
G01 X16.9796 Y7.9732 F80.00
G01 X17.2660 Y7.9163 F80.00
G00 Z2.0000
G00 X21.0987 Y12.0381
G01 F50.00
G01 Z-0.1001
G01 F80.00
G01 X21.0969 Y12.0234 F80.00
G01 X21.0908 Y11.8976 F80.00
G01 X21.0971 Y11.7685 F80.00
G01 X21.1161 Y11.6406 F80.00
G01 X21.1475 Y11.5152 F80.00
G01 X21.1910 Y11.3935 F80.00
G01 X21.2463 Y11.2767 F80.00
G01 X21.3128 Y11.1658 F80.00
G01 X21.3898 Y11.0619 F80.00
G01 X21.4766 Y10.9661 F80.00
G01 X21.5724 Y10.8793 F80.00
G01 X21.6762 Y10.8023 F80.00
G01 X21.7871 Y10.7359 F80.00
G01 X21.9040 Y10.6806 F80.00
G01 X22.0257 Y10.6370 F80.00
G01 X22.1511 Y10.6056 F80.00
G01 X22.2790 Y10.5867 F80.00
G01 X22.4081 Y10.5803 F80.00
G01 X22.5372 Y10.5867 F80.00
G01 X22.6651 Y10.6056 F80.00
G01 X22.7905 Y10.6370 F80.00
G01 X22.9122 Y10.6806 F80.00
G01 X23.0291 Y10.7359 F80.00
G01 X23.1400 Y10.8023 F80.00
G01 X23.2438 Y10.8793 F80.00
G01 X23.3396 Y10.9661 F80.00
G01 X23.4264 Y11.0619 F80.00
G01 X23.5034 Y11.1658 F80.00
G01 X23.5699 Y11.2767 F80.00
G01 X23.6252 Y11.3935 F80.00
G01 X23.6687 Y11.5152 F80.00
G01 X23.7001 Y11.6406 F80.00
G01 X23.7191 Y11.7685 F80.00
G01 X23.7254 Y11.8976 F80.00
G01 X23.7191 Y12.0268 F80.00
G01 X23.7001 Y12.1546 F80.00
G01 X23.6696 Y12.2768 F80.00
G01 X23.6677 Y12.2832 F80.00
G01 X23.6263 Y12.3987 F80.00
G01 X23.6238 Y12.4048 F80.00
G01 X23.5699 Y12.5186 F80.00
G01 X23.5052 Y12.6267 F80.00
G01 X23.5015 Y12.6322 F80.00
G01 X23.4264 Y12.7333 F80.00
G01 X23.3396 Y12.8291 F80.00
G01 X23.2438 Y12.9159 F80.00
G01 X23.1400 Y12.9930 F80.00
G01 X23.0291 Y13.0594 F80.00
G01 X22.9122 Y13.1147 F80.00
G01 X22.7905 Y13.1582 F80.00
G01 X22.6667 Y13.1893 F80.00
G01 X22.5405 Y13.2082 F80.00
G01 X22.5339 Y13.2089 F80.00
G01 X22.4081 Y13.2150 F80.00
G01 X22.2790 Y13.2086 F80.00
G01 X22.1544 Y13.1902 F80.00
G01 X22.1479 Y13.1889 F80.00
G01 X22.0257 Y13.1582 F80.00
G01 X21.9055 Y13.1153 F80.00
G01 X21.7901 Y13.0609 F80.00
G01 X21.7842 Y13.0578 F80.00
G01 X21.6762 Y12.9930 F80.00
G01 X21.5737 Y12.9170 F80.00
G01 X21.4754 Y12.8279 F80.00
G01 X21.3909 Y12.7346 F80.00
G01 X21.3514 Y12.6817 F80.00
G01 X19.6559 Y12.6817 F80.00
G01 X18.8462 Y13.4914 F80.00
G01 X18.8462 Y14.8210 F80.00
G01 X18.8595 Y14.8261 F80.00
G01 X18.9334 Y14.8612 F80.00
G01 X19.0065 Y14.9049 F80.00
G01 X19.0749 Y14.9557 F80.00
G01 X19.1380 Y15.0128 F80.00
G01 X19.1951 Y15.0759 F80.00
G01 X19.2459 Y15.1443 F80.00
G01 X19.2896 Y15.2174 F80.00
G01 X19.3260 Y15.2943 F80.00
G01 X19.3547 Y15.3745 F80.00
G01 X19.3754 Y15.4571 F80.00
G01 X19.3879 Y15.5413 F80.00
G01 X19.3921 Y15.6264 F80.00
G01 X19.3879 Y15.7114 F80.00
G01 X19.3754 Y15.7956 F80.00
G01 X19.3547 Y15.8782 F80.00
G01 X19.3254 Y15.9599 F80.00
G01 X19.2896 Y16.0354 F80.00
G01 X19.2476 Y16.1056 F80.00
G01 X19.2440 Y16.1111 F80.00
G01 X19.1972 Y16.1742 F80.00
G01 X19.1930 Y16.1793 F80.00
G01 X19.1380 Y16.2399 F80.00
G01 X19.0774 Y16.2949 F80.00
G01 X19.0723 Y16.2991 F80.00
G01 X19.0065 Y16.3478 F80.00
G01 X18.9334 Y16.3916 F80.00
G01 X18.8565 Y16.4280 F80.00
G01 X18.7763 Y16.4566 F80.00
G01 X18.6937 Y16.4773 F80.00
G01 X18.6128 Y16.4894 F80.00
G01 X18.6062 Y16.4901 F80.00
G01 X18.5278 Y16.4939 F80.00
G01 X18.5211 Y16.4939 F80.00
G01 X18.4394 Y16.4898 F80.00
G01 X18.3584 Y16.4779 F80.00
G01 X18.3519 Y16.4766 F80.00
G01 X18.2726 Y16.4566 F80.00
G01 X18.1924 Y16.4280 F80.00
G01 X18.1154 Y16.3916 F80.00
G01 X18.0410 Y16.3468 F80.00
G01 X17.9766 Y16.2991 F80.00
G01 X17.9715 Y16.2949 F80.00
G01 X17.9109 Y16.2399 F80.00
G01 X17.8559 Y16.1793 F80.00
G01 X17.8517 Y16.1742 F80.00
G01 X17.8030 Y16.1084 F80.00
G01 X17.7609 Y16.0383 F80.00
G01 X17.7577 Y16.0324 F80.00
G01 X17.7228 Y15.9584 F80.00
G01 X17.6952 Y15.8814 F80.00
G01 X17.6933 Y15.8750 F80.00
G01 X17.6735 Y15.7956 F80.00
G01 X17.6614 Y15.7147 F80.00
G01 X17.6607 Y15.7081 F80.00
G01 X17.6568 Y15.6264 F80.00
G01 X17.6608 Y15.5430 F80.00
G01 X17.6729 Y15.4604 F80.00
G01 X17.6742 Y15.4538 F80.00
G01 X17.6941 Y15.3745 F80.00
G01 X17.7228 Y15.2943 F80.00
G01 X17.7577 Y15.2203 F80.00
G01 X17.7609 Y15.2145 F80.00
G01 X17.8030 Y15.1443 F80.00
G01 X17.8517 Y15.0785 F80.00
G01 X17.8559 Y15.0734 F80.00
G01 X17.9086 Y15.0152 F80.00
G01 X17.9133 Y15.0105 F80.00
G01 X17.9740 Y14.9557 F80.00
G01 X18.0397 Y14.9068 F80.00
G01 X18.0452 Y14.9032 F80.00
G01 X18.1154 Y14.8612 F80.00
G01 X18.1894 Y14.8261 F80.00
G01 X18.2027 Y14.8210 F80.00
G01 X18.2027 Y13.3565 F80.00
G01 X18.2042 Y13.3266 F80.00
G01 X18.2083 Y13.2986 F80.00
G01 X18.2096 Y13.2921 F80.00
G01 X18.2165 Y13.2647 F80.00
G01 X18.2272 Y13.2350 F80.00
G01 X18.2392 Y13.2094 F80.00
G01 X18.2423 Y13.2036 F80.00
G01 X18.2578 Y13.1780 F80.00
G01 X18.2757 Y13.1540 F80.00
G01 X18.2969 Y13.1306 F80.00
G01 X19.2951 Y12.1324 F80.00
G01 X19.3185 Y12.1112 F80.00
G01 X19.3439 Y12.0924 F80.00
G01 X19.3710 Y12.0761 F80.00
G01 X19.3995 Y12.0626 F80.00
G01 X19.4293 Y12.0520 F80.00
G01 X19.4599 Y12.0443 F80.00
G01 X19.4911 Y12.0397 F80.00
G01 X19.5210 Y12.0382 F80.00
G01 X21.0987 Y12.0381 F80.00
G00 Z2.0000
G00 X22.2612 Y13.3700
G01 F50.00
G01 Z-0.1001
G01 F80.00
G01 X22.2743 Y13.3710 F80.00
G01 X22.3077 Y13.3727 F80.00
G01 X22.2990 Y13.3879 F80.00
G01 X22.2897 Y13.4068 F80.00
G01 X22.2851 Y13.4171 F80.00
G01 X22.2788 Y13.4340 F80.00
G01 X22.2760 Y13.4193 F80.00
G01 X22.2709 Y13.3988 F80.00
G01 X22.2676 Y13.3880 F80.00
G01 X22.2612 Y13.3700 F80.00
G00 Z2.0000
G00 X22.2809 Y13.6587
G01 F50.00
G01 Z-0.1001
G01 F80.00
G01 X22.2661 Y13.6571 F80.00
G01 X22.2383 Y13.6557 F80.00
G01 X22.2471 Y13.6398 F80.00
G01 X22.2538 Y13.6258 F80.00
G01 X22.2584 Y13.6155 F80.00
G01 X22.2647 Y13.5986 F80.00
G01 X22.2675 Y13.6134 F80.00
G01 X22.2726 Y13.6338 F80.00
G01 X22.2759 Y13.6446 F80.00
G01 X22.2809 Y13.6587 F80.00
G00 Z2.0000
G00 X24.9027 Y10.7941
G01 F50.00
G01 Z-0.1001
G01 F80.00
G01 X24.7729 Y10.7875 F80.00
G01 X24.6372 Y10.7674 F80.00
G01 X24.5040 Y10.7340 F80.00
G01 X24.3748 Y10.6878 F80.00
G01 X24.2507 Y10.6291 F80.00
G01 X24.1330 Y10.5586 F80.00
G01 X24.0228 Y10.4768 F80.00
G01 X23.9211 Y10.3846 F80.00
G01 X23.8289 Y10.2829 F80.00
G01 X23.7472 Y10.1727 F80.00
G01 X23.6766 Y10.0550 F80.00
G01 X23.6179 Y9.9309 F80.00
G01 X23.5717 Y9.8017 F80.00
G01 X23.5384 Y9.6686 F80.00
G01 X23.5182 Y9.5328 F80.00
G01 X23.5115 Y9.3957 F80.00
G01 X23.5182 Y9.2587 F80.00
G01 X23.5384 Y9.1229 F80.00
G01 X23.5717 Y8.9898 F80.00
G01 X23.6179 Y8.8606 F80.00
G01 X23.6766 Y8.7365 F80.00
G01 X23.7472 Y8.6188 F80.00
G01 X23.8289 Y8.5085 F80.00
G01 X23.9211 Y8.4068 F80.00
G01 X24.0228 Y8.3147 F80.00
G01 X24.1330 Y8.2329 F80.00
G01 X24.2507 Y8.1624 F80.00
G01 X24.3748 Y8.1037 F80.00
G01 X24.5040 Y8.0574 F80.00
G01 X24.6372 Y8.0241 F80.00
G01 X24.7729 Y8.0040 F80.00
G01 X24.9100 Y7.9972 F80.00
G01 X25.0471 Y8.0040 F80.00
G01 X25.1828 Y8.0241 F80.00
G01 X25.3160 Y8.0574 F80.00
G01 X25.4452 Y8.1037 F80.00
G01 X25.5693 Y8.1624 F80.00
G01 X25.6870 Y8.2329 F80.00
G01 X25.7972 Y8.3147 F80.00
G01 X25.8989 Y8.4068 F80.00
G01 X25.9911 Y8.5085 F80.00
G01 X26.0728 Y8.6188 F80.00
G01 X26.1434 Y8.7365 F80.00
G01 X26.2021 Y8.8606 F80.00
G01 X26.2483 Y8.9898 F80.00
G01 X26.2816 Y9.1229 F80.00
G01 X26.3018 Y9.2587 F80.00
G01 X26.3085 Y9.3957 F80.00
G01 X26.3018 Y9.5328 F80.00
G01 X26.2816 Y9.6686 F80.00
G01 X26.2483 Y9.8017 F80.00
G01 X26.2021 Y9.9309 F80.00
G01 X26.1434 Y10.0550 F80.00
G01 X26.0728 Y10.1727 F80.00
G01 X25.9911 Y10.2829 F80.00
G01 X25.8989 Y10.3846 F80.00
G01 X25.7972 Y10.4768 F80.00
G01 X25.6870 Y10.5586 F80.00
G01 X25.5693 Y10.6291 F80.00
G01 X25.4452 Y10.6878 F80.00
G01 X25.3160 Y10.7340 F80.00
G01 X25.1828 Y10.7674 F80.00
G01 X25.0471 Y10.7875 F80.00
G01 X24.9173 Y10.7941 F80.00
G01 X24.9027 Y10.7941 F80.00
G00 Z2.0000
G00 X24.9067 Y10.7130
G01 F50.00
G01 Z-0.1001
G01 F80.00
G01 X24.7809 Y10.7067 F80.00
G01 X24.6530 Y10.6878 F80.00
G01 X24.5276 Y10.6563 F80.00
G01 X24.4059 Y10.6128 F80.00
G01 X24.2890 Y10.5575 F80.00
G01 X24.1781 Y10.4911 F80.00
G01 X24.0743 Y10.4140 F80.00
G01 X23.9785 Y10.3272 F80.00
G01 X23.8917 Y10.2314 F80.00
G01 X23.8147 Y10.1276 F80.00
G01 X23.7482 Y10.0167 F80.00
G01 X23.6929 Y9.8999 F80.00
G01 X23.6494 Y9.7781 F80.00
G01 X23.6180 Y9.6527 F80.00
G01 X23.5990 Y9.5249 F80.00
G01 X23.5927 Y9.3957 F80.00
G01 X23.5990 Y9.2666 F80.00
G01 X23.6180 Y9.1387 F80.00
G01 X23.6494 Y9.0133 F80.00
G01 X23.6929 Y8.8916 F80.00
G01 X23.7482 Y8.7748 F80.00
G01 X23.8147 Y8.6639 F80.00
G01 X23.8917 Y8.5600 F80.00
G01 X23.9785 Y8.4642 F80.00
G01 X24.0743 Y8.3774 F80.00
G01 X24.1781 Y8.3004 F80.00
G01 X24.2890 Y8.2340 F80.00
G01 X24.4059 Y8.1787 F80.00
G01 X24.5276 Y8.1351 F80.00
G01 X24.6530 Y8.1037 F80.00
G01 X24.7809 Y8.0848 F80.00
G01 X24.9100 Y8.0784 F80.00
G01 X25.0391 Y8.0848 F80.00
G01 X25.1670 Y8.1037 F80.00
G01 X25.2924 Y8.1351 F80.00
G01 X25.4141 Y8.1787 F80.00
G01 X25.5310 Y8.2340 F80.00
G01 X25.6419 Y8.3004 F80.00
G01 X25.7457 Y8.3774 F80.00
G01 X25.8415 Y8.4642 F80.00
G01 X25.9283 Y8.5600 F80.00
G01 X26.0053 Y8.6639 F80.00
G01 X26.0718 Y8.7748 F80.00
G01 X26.1271 Y8.8916 F80.00
G01 X26.1706 Y9.0133 F80.00
G01 X26.2020 Y9.1387 F80.00
G01 X26.2210 Y9.2666 F80.00
G01 X26.2273 Y9.3957 F80.00
G01 X26.2210 Y9.5249 F80.00
G01 X26.2020 Y9.6527 F80.00
G01 X26.1706 Y9.7781 F80.00
G01 X26.1271 Y9.8999 F80.00
G01 X26.0718 Y10.0167 F80.00
G01 X26.0053 Y10.1276 F80.00
G01 X25.9283 Y10.2314 F80.00
G01 X25.8415 Y10.3272 F80.00
G01 X25.7457 Y10.4140 F80.00
G01 X25.6419 Y10.4911 F80.00
G01 X25.5310 Y10.5575 F80.00
G01 X25.4141 Y10.6128 F80.00
G01 X25.2924 Y10.6563 F80.00
G01 X25.1670 Y10.6878 F80.00
G01 X25.0391 Y10.7067 F80.00
G01 X24.9133 Y10.7130 F80.00
G01 X24.9067 Y10.7130 F80.00
G00 Z2.0000
G00 X24.7720 Y7.9949
G01 F50.00
G01 Z-0.1001
G01 F80.00
G01 X25.0480 Y7.9949 F80.00
G01 X25.3186 Y8.0488 F80.00
G01 X25.5735 Y8.1544 F80.00
G01 X25.8030 Y8.3077 F80.00
G01 X25.9981 Y8.5028 F80.00
G01 X26.1514 Y8.7322 F80.00
G01 X26.2570 Y8.9871 F80.00
G01 X26.3108 Y9.2578 F80.00
G01 X26.3108 Y9.5337 F80.00
G01 X26.2570 Y9.8043 F80.00
G01 X26.1514 Y10.0593 F80.00
G01 X25.9981 Y10.2887 F80.00
G01 X25.8030 Y10.4838 F80.00
G01 X25.5735 Y10.6371 F80.00
G01 X25.3186 Y10.7427 F80.00
G01 X25.0480 Y10.7965 F80.00
G01 X24.7720 Y10.7965 F80.00
G01 X24.5014 Y10.7427 F80.00
G01 X24.2465 Y10.6371 F80.00
G01 X24.0170 Y10.4838 F80.00
G01 X23.8219 Y10.2887 F80.00
G01 X23.6686 Y10.0593 F80.00
G01 X23.5630 Y9.8043 F80.00
G01 X23.5092 Y9.5337 F80.00
G01 X23.5092 Y9.2578 F80.00
G01 X23.5630 Y8.9871 F80.00
G01 X23.6686 Y8.7322 F80.00
G01 X23.8219 Y8.5028 F80.00
G01 X24.0170 Y8.3077 F80.00
G01 X24.2465 Y8.1544 F80.00
G01 X24.5014 Y8.0488 F80.00
G01 X24.7720 Y7.9949 F80.00
G00 Z2.0000
G00 X24.7640 Y7.9138
G01 F50.00
G01 Z-0.1001
G01 F80.00
G01 X25.0560 Y7.9138 F80.00
G01 X25.3423 Y7.9707 F80.00
G01 X25.6120 Y8.0824 F80.00
G01 X25.8547 Y8.2446 F80.00
G01 X26.0611 Y8.4510 F80.00
G01 X26.2233 Y8.6938 F80.00
G01 X26.3350 Y8.9635 F80.00
G01 X26.3920 Y9.2498 F80.00
G01 X26.3920 Y9.5417 F80.00
G01 X26.3350 Y9.8280 F80.00
G01 X26.2233 Y10.0977 F80.00
G01 X26.0611 Y10.3404 F80.00
G01 X25.8547 Y10.5469 F80.00
G01 X25.6120 Y10.7091 F80.00
G01 X25.3423 Y10.8208 F80.00
G01 X25.0560 Y10.8777 F80.00
G01 X24.7640 Y10.8777 F80.00
G01 X24.4777 Y10.8208 F80.00
G01 X24.2080 Y10.7091 F80.00
G01 X23.9653 Y10.5469 F80.00
G01 X23.7589 Y10.3404 F80.00
G01 X23.5967 Y10.0977 F80.00
G01 X23.4850 Y9.8280 F80.00
G01 X23.4280 Y9.5417 F80.00
G01 X23.4280 Y9.2498 F80.00
G01 X23.4850 Y8.9635 F80.00
G01 X23.5967 Y8.6938 F80.00
G01 X23.7589 Y8.4510 F80.00
G01 X23.9653 Y8.2446 F80.00
G01 X24.2080 Y8.0824 F80.00
G01 X24.4777 Y7.9707 F80.00
G01 X24.7640 Y7.9138 F80.00
G00 Z2.0000
G00 X18.1215 Y14.7684
G01 F50.00
G01 Z-0.1001
G01 F80.00
G01 X18.1215 Y13.3545 F80.00
G01 X18.1234 Y13.3186 F80.00
G01 X18.1292 Y13.2795 F80.00
G01 X18.1388 Y13.2412 F80.00
G01 X18.1495 Y13.2107 F80.00
G01 X18.1536 Y13.2006 F80.00
G01 X18.1691 Y13.1682 F80.00
G01 X18.1894 Y13.1343 F80.00
G01 X18.2129 Y13.1025 F80.00
G01 X18.2370 Y13.0758 F80.00
G01 X19.2377 Y12.0750 F80.00
G01 X19.2670 Y12.0484 F80.00
G01 X19.2988 Y12.0249 F80.00
G01 X19.3327 Y12.0045 F80.00
G01 X19.3618 Y11.9906 F80.00
G01 X19.3753 Y11.9850 F80.00
G01 X19.4057 Y11.9743 F80.00
G01 X19.4369 Y11.9663 F80.00
G01 X19.4512 Y11.9635 F80.00
G01 X19.4832 Y11.9589 F80.00
G01 X19.5154 Y11.9571 F80.00
G01 X21.0123 Y11.9570 F80.00
G01 X21.0098 Y11.9049 F80.00
G01 X21.0096 Y11.8940 F80.00
G01 X21.0158 Y11.7678 F80.00
G01 X21.0167 Y11.7569 F80.00
G01 X21.0365 Y11.6248 F80.00
G01 X21.0679 Y11.4987 F80.00
G01 X21.0709 Y11.4882 F80.00
G01 X21.1160 Y11.3625 F80.00
G01 X21.1747 Y11.2384 F80.00
G01 X21.2453 Y11.1207 F80.00
G01 X21.3248 Y11.0133 F80.00
G01 X21.3318 Y11.0049 F80.00
G01 X21.4192 Y10.9087 F80.00
G01 X21.5154 Y10.8213 F80.00
G01 X21.5267 Y10.8121 F80.00
G01 X21.6252 Y10.7390 F80.00
G01 X21.6373 Y10.7309 F80.00
G01 X21.7488 Y10.6643 F80.00
G01 X21.8729 Y10.6056 F80.00
G01 X22.0021 Y10.5593 F80.00
G01 X22.1353 Y10.5260 F80.00
G01 X22.2710 Y10.5059 F80.00
G01 X22.4008 Y10.4993 F80.00
G01 X22.4154 Y10.4993 F80.00
G01 X22.5452 Y10.5059 F80.00
G01 X22.6809 Y10.5260 F80.00
G01 X22.8070 Y10.5574 F80.00
G01 X22.8210 Y10.5616 F80.00
G01 X22.9433 Y10.6056 F80.00
G01 X23.0608 Y10.6610 F80.00
G01 X23.0737 Y10.6679 F80.00
G01 X23.1851 Y10.7348 F80.00
G01 X23.2953 Y10.8166 F80.00
G01 X23.3970 Y10.9087 F80.00
G01 X23.4844 Y11.0049 F80.00
G01 X23.4937 Y11.0162 F80.00
G01 X23.5709 Y11.1207 F80.00
G01 X23.6415 Y11.2384 F80.00
G01 X23.7002 Y11.3625 F80.00
G01 X23.7464 Y11.4917 F80.00
G01 X23.7781 Y11.6177 F80.00
G01 X23.7810 Y11.6320 F80.00
G01 X23.7999 Y11.7606 F80.00
G01 X23.8064 Y11.8903 F80.00
G01 X23.8064 Y11.9049 F80.00
G01 X23.7999 Y12.0347 F80.00
G01 X23.7810 Y12.1633 F80.00
G01 X23.7781 Y12.1776 F80.00
G01 X23.7483 Y12.2966 F80.00
G01 X23.7441 Y12.3105 F80.00
G01 X23.7002 Y12.4328 F80.00
G01 X23.6415 Y12.5569 F80.00
G01 X23.5709 Y12.6746 F80.00
G01 X23.4892 Y12.7848 F80.00
G01 X23.3970 Y12.8865 F80.00
G01 X23.2953 Y12.9787 F80.00
G01 X23.1851 Y13.0605 F80.00
G01 X23.0737 Y13.1274 F80.00
G01 X23.0641 Y13.1327 F80.00
G01 X22.9433 Y13.1897 F80.00
G01 X22.8210 Y13.2336 F80.00
G01 X22.8070 Y13.2379 F80.00
G01 X22.6809 Y13.2693 F80.00
G01 X22.5452 Y13.2894 F80.00
G01 X22.4154 Y13.2960 F80.00
G01 X22.4008 Y13.2960 F80.00
G01 X22.2710 Y13.2894 F80.00
G01 X22.1353 Y13.2693 F80.00
G01 X22.0021 Y13.2359 F80.00
G01 X21.8729 Y13.1897 F80.00
G01 X21.7488 Y13.1310 F80.00
G01 X21.6311 Y13.0605 F80.00
G01 X21.5209 Y12.9787 F80.00
G01 X21.4245 Y12.8916 F80.00
G01 X21.4167 Y12.8839 F80.00
G01 X21.3294 Y12.7876 F80.00
G01 X21.3248 Y12.7820 F80.00
G01 X21.3105 Y12.7629 F80.00
G01 X19.6896 Y12.7629 F80.00
G01 X18.9274 Y13.5250 F80.00
G01 X18.9274 Y14.7684 F80.00
G01 X18.9652 Y14.7863 F80.00
G01 X18.9749 Y14.7913 F80.00
G01 X19.0485 Y14.8354 F80.00
G01 X19.0576 Y14.8416 F80.00
G01 X19.1206 Y14.8884 F80.00
G01 X19.1292 Y14.8953 F80.00
G01 X19.1954 Y14.9554 F80.00
G01 X19.2531 Y15.0189 F80.00
G01 X19.2624 Y15.0302 F80.00
G01 X19.3092 Y15.0932 F80.00
G01 X19.3154 Y15.1023 F80.00
G01 X19.3612 Y15.1791 F80.00
G01 X19.3981 Y15.2566 F80.00
G01 X19.4037 Y15.2701 F80.00
G01 X19.4324 Y15.3509 F80.00
G01 X19.4534 Y15.4341 F80.00
G01 X19.4563 Y15.4484 F80.00
G01 X19.4687 Y15.5334 F80.00
G01 X19.4733 Y15.6264 F80.00
G01 X19.4687 Y15.7194 F80.00
G01 X19.4563 Y15.8043 F80.00
G01 X19.4534 Y15.8186 F80.00
G01 X19.4324 Y15.9018 F80.00
G01 X19.4010 Y15.9895 F80.00
G01 X19.3645 Y16.0671 F80.00
G01 X19.3576 Y16.0800 F80.00
G01 X19.3134 Y16.1535 F80.00
G01 X19.2624 Y16.2225 F80.00
G01 X19.2531 Y16.2338 F80.00
G01 X19.1954 Y16.2973 F80.00
G01 X19.1264 Y16.3598 F80.00
G01 X19.0576 Y16.4111 F80.00
G01 X19.0454 Y16.4192 F80.00
G01 X18.9717 Y16.4632 F80.00
G01 X18.8909 Y16.5015 F80.00
G01 X18.8807 Y16.5056 F80.00
G01 X18.7999 Y16.5343 F80.00
G01 X18.7095 Y16.5570 F80.00
G01 X18.6174 Y16.5706 F80.00
G01 X18.5244 Y16.5752 F80.00
G01 X18.4314 Y16.5706 F80.00
G01 X18.3393 Y16.5570 F80.00
G01 X18.2490 Y16.5343 F80.00
G01 X18.1613 Y16.5030 F80.00
G01 X18.0772 Y16.4632 F80.00
G01 X17.9973 Y16.4153 F80.00
G01 X17.9225 Y16.3598 F80.00
G01 X17.8535 Y16.2973 F80.00
G01 X17.7910 Y16.2283 F80.00
G01 X17.7355 Y16.1535 F80.00
G01 X17.6876 Y16.0736 F80.00
G01 X17.6493 Y15.9928 F80.00
G01 X17.6452 Y15.9826 F80.00
G01 X17.6165 Y15.9018 F80.00
G01 X17.5938 Y15.8115 F80.00
G01 X17.5802 Y15.7194 F80.00
G01 X17.5756 Y15.6264 F80.00
G01 X17.5802 Y15.5334 F80.00
G01 X17.5938 Y15.4413 F80.00
G01 X17.6165 Y15.3509 F80.00
G01 X17.6465 Y15.2666 F80.00
G01 X17.6508 Y15.2566 F80.00
G01 X17.6876 Y15.1791 F80.00
G01 X17.7355 Y15.0992 F80.00
G01 X17.7910 Y15.0244 F80.00
G01 X17.8510 Y14.9580 F80.00
G01 X17.8588 Y14.9504 F80.00
G01 X17.9225 Y14.8929 F80.00
G01 X17.9943 Y14.8395 F80.00
G01 X18.0035 Y14.8335 F80.00
G01 X18.0740 Y14.7913 F80.00
G01 X18.0837 Y14.7863 F80.00
G01 X18.1215 Y14.7684 F80.00
G00 Z2.0000
G00 X24.4341 Y18.0230
G01 F50.00
G01 Z-0.1001
G01 F80.00
G01 X24.5197 Y18.0230 F80.00
G01 X24.4721 Y18.0302 F80.00
G01 X24.4571 Y18.0331 F80.00
G01 X24.4371 Y18.0381 F80.00
G01 X24.4341 Y18.0230 F80.00
G00 Z2.0000
