(G-CODE GENERATED BY FLATCAM v8.994 - www.flatcam.org - Version Date: 2020/11/7)

(Name: po_midi_adapter-B_Cu.gbr_iso_combined_1_cnc)
(Type: G-code from Geometry)
(Units: MM)

(Created on Thursday, 12 August 2021 at 17:07)

(This preprocessor is used with a motion controller loaded with GRBL firmware.)
(It is configured to be compatible with almost any version of GRBL firmware.)

(TOOL DIAMETER: 0.2529 mm)
(Feedrate_XY: 80.0 mm/min)
(Feedrate_Z: 60.0 mm/min)
(Feedrate rapids 1500.0 mm/min)

(Z_Cut: -0.15 mm)
(Z_Move: 2.0 mm)
(Z Start: None mm)
(Z End: 15.0 mm)
(X,Y End: None mm)
(Steps per circle: 64)
(Steps per circle: 64)
(Preprocessor Geometry: GRBL_11_no_M6)

(X range:    3.9693 ...   68.5387  mm)
(Y range:    2.9111 ...   66.8254  mm)

(Spindle Speed: 8000.0 RPM)
G21
G90
G17
G94


G01 F80.00

M5             
G00 Z15.0000
G00 X0.0000 Y0.0000                
T2
(MSG, Change to Tool Dia = 0.2529)
M0
G00 Z15.0000
        
M03 S8000.0
G01 F80.00
G00 X6.5799 Y3.0881
G01 F60.00
G01 Z-0.1500
G01 F80.00
G01 X56.9733 Y3.0881 F80.00
G01 X56.9955 Y3.0892 F80.00
G01 X57.0113 Y3.0914 F80.00
G01 X57.0205 Y3.0931 F80.00
G01 X57.0419 Y3.0988 F80.00
G01 X57.0570 Y3.1042 F80.00
G01 X57.0656 Y3.1078 F80.00
G01 X57.0800 Y3.1148 F80.00
G01 X57.0938 Y3.1229 F80.00
G01 X57.1016 Y3.1280 F80.00
G01 X57.1120 Y3.1356 F80.00
G01 X57.1193 Y3.1414 F80.00
G01 X57.1311 Y3.1522 F80.00
G01 X57.1463 Y3.1684 F80.00
G01 X57.1598 Y3.1861 F80.00
G01 X57.1699 Y3.2023 F80.00
G01 X57.1757 Y3.2132 F80.00
G01 X57.1812 Y3.2249 F80.00
G01 X57.1847 Y3.2336 F80.00
G01 X57.1908 Y3.2517 F80.00
G01 X57.1960 Y3.2733 F80.00
G01 X57.1987 Y3.2922 F80.00
G01 X57.1998 Y3.3144 F80.00
G01 X57.2247 Y29.6887 F80.00
G01 X57.2234 Y29.7132 F80.00
G01 X57.2287 Y29.7669 F80.00
G01 X57.2443 Y29.8184 F80.00
G01 X57.2697 Y29.8659 F80.00
G01 X57.3039 Y29.9076 F80.00
G01 X57.3455 Y29.9417 F80.00
G01 X57.3931 Y29.9671 F80.00
G01 X57.4446 Y29.9827 F80.00
G01 X57.4848 Y29.9867 F80.00
G01 X57.4986 Y29.9870 F80.00
G01 X57.5069 Y29.9867 F80.00
G01 X68.1383 Y29.9852 F80.00
G01 X68.1574 Y29.9863 F80.00
G01 X68.1794 Y29.9895 F80.00
G01 X68.2009 Y29.9949 F80.00
G01 X68.2219 Y30.0024 F80.00
G01 X68.2420 Y30.0119 F80.00
G01 X68.2610 Y30.0233 F80.00
G01 X68.2789 Y30.0366 F80.00
G01 X68.2931 Y30.0493 F80.00
G01 X68.3083 Y30.0656 F80.00
G01 X68.3199 Y30.0807 F80.00
G01 X68.3268 Y30.0911 F80.00
G01 X68.3335 Y30.1022 F80.00
G01 X68.3377 Y30.1104 F80.00
G01 X68.3456 Y30.1279 F80.00
G01 X68.3528 Y30.1489 F80.00
G01 X68.3579 Y30.1705 F80.00
G01 X68.3609 Y30.1926 F80.00
G01 X68.3617 Y30.2117 F80.00
G01 X68.3617 Y45.1886 F80.00
G01 X68.3606 Y45.2108 F80.00
G01 X68.3579 Y45.2297 F80.00
G01 X68.3536 Y45.2483 F80.00
G01 X68.3500 Y45.2602 F80.00
G01 X68.3445 Y45.2752 F80.00
G01 X68.3350 Y45.2953 F80.00
G01 X68.3235 Y45.3144 F80.00
G01 X68.3122 Y45.3298 F80.00
G01 X68.2996 Y45.3442 F80.00
G01 X68.2909 Y45.3530 F80.00
G01 X68.2765 Y45.3656 F80.00
G01 X68.2584 Y45.3786 F80.00
G01 X68.2420 Y45.3883 F80.00
G01 X68.2219 Y45.3978 F80.00
G01 X68.2010 Y45.4053 F80.00
G01 X68.1854 Y45.4094 F80.00
G01 X68.1733 Y45.4118 F80.00
G01 X68.1543 Y45.4142 F80.00
G01 X68.1352 Y45.4151 F80.00
G01 X68.1130 Y45.4140 F80.00
G01 X68.0910 Y45.4107 F80.00
G01 X68.0724 Y45.4062 F80.00
G01 X68.0543 Y45.4001 F80.00
G01 X68.0428 Y45.3953 F80.00
G01 X68.0284 Y45.3883 F80.00
G01 X68.0094 Y45.3769 F80.00
G01 X67.9915 Y45.3637 F80.00
G01 X67.9773 Y45.3509 F80.00
G01 X67.6530 Y45.0267 F80.00
G01 X67.6401 Y45.0126 F80.00
G01 X67.6317 Y45.0025 F80.00
G01 X67.5667 Y44.9491 F80.00
G01 X67.4924 Y44.9094 F80.00
G01 X67.4118 Y44.8849 F80.00
G01 X67.3280 Y44.8767 F80.00
G01 X67.3150 Y44.8779 F80.00
G01 X67.2959 Y44.8788 F80.00
G01 X57.4998 Y44.8788 F80.00
G01 X57.4807 Y44.8779 F80.00
G01 X57.4677 Y44.8767 F80.00
G01 X57.3839 Y44.8849 F80.00
G01 X57.3033 Y44.9094 F80.00
G01 X57.2291 Y44.9491 F80.00
G01 X57.1640 Y45.0025 F80.00
G01 X57.1556 Y45.0126 F80.00
G01 X57.1427 Y45.0267 F80.00
G01 X56.3982 Y45.7712 F80.00
G01 X56.3841 Y45.7841 F80.00
G01 X56.3740 Y45.7924 F80.00
G01 X56.3206 Y45.8575 F80.00
G01 X56.2809 Y45.9318 F80.00
G01 X56.2565 Y46.0124 F80.00
G01 X56.2482 Y46.0962 F80.00
G01 X56.2495 Y46.1092 F80.00
G01 X56.2503 Y46.1283 F80.00
G01 X56.2503 Y48.7285 F80.00
G01 X56.2495 Y48.7476 F80.00
G01 X56.2482 Y48.7607 F80.00
G01 X56.2565 Y48.8445 F80.00
G01 X56.2809 Y48.9250 F80.00
G01 X56.3206 Y48.9993 F80.00
G01 X56.3740 Y49.0644 F80.00
G01 X56.3841 Y49.0727 F80.00
G01 X56.3982 Y49.0857 F80.00
G01 X58.9679 Y51.6553 F80.00
G01 X58.9788 Y51.6671 F80.00
G01 X58.9848 Y51.6742 F80.00
G01 X58.9943 Y51.6871 F80.00
G01 X58.9994 Y51.6949 F80.00
G01 X59.0075 Y51.7087 F80.00
G01 X59.0158 Y51.7260 F80.00
G01 X59.0192 Y51.7346 F80.00
G01 X59.0245 Y51.7498 F80.00
G01 X59.0292 Y51.7683 F80.00
G01 X59.0309 Y51.7774 F80.00
G01 X59.0331 Y51.7933 F80.00
G01 X59.0342 Y51.8155 F80.00
G01 X59.0334 Y51.8346 F80.00
G01 X59.0324 Y51.8439 F80.00
G01 X59.0299 Y51.8597 F80.00
G01 X59.0253 Y51.8783 F80.00
G01 X59.0225 Y51.8871 F80.00
G01 X59.0158 Y51.9050 F80.00
G01 X59.0075 Y51.9223 F80.00
G01 X58.9977 Y51.9387 F80.00
G01 X58.9866 Y51.9543 F80.00
G01 X58.9808 Y51.9616 F80.00
G01 X58.9679 Y51.9757 F80.00
G01 X58.9561 Y51.9865 F80.00
G01 X58.9490 Y51.9925 F80.00
G01 X58.9336 Y52.0038 F80.00
G01 X58.9199 Y52.0122 F80.00
G01 X58.9117 Y52.0167 F80.00
G01 X58.8973 Y52.0235 F80.00
G01 X58.8886 Y52.0270 F80.00
G01 X58.8735 Y52.0322 F80.00
G01 X58.8550 Y52.0370 F80.00
G01 X58.8330 Y52.0406 F80.00
G01 X58.8139 Y52.0419 F80.00
G01 X58.7210 Y52.0420 F80.00
G01 X58.6759 Y52.0464 F80.00
G01 X58.6432 Y52.0564 F80.00
G01 X58.6130 Y52.0725 F80.00
G01 X58.5866 Y52.0942 F80.00
G01 X58.5649 Y52.1206 F80.00
G01 X58.5488 Y52.1507 F80.00
G01 X58.5389 Y52.1834 F80.00
G01 X58.5344 Y52.2286 F80.00
G01 X58.5344 Y53.8063 F80.00
G01 X58.5389 Y53.8515 F80.00
G01 X58.5488 Y53.8842 F80.00
G01 X58.5649 Y53.9143 F80.00
G01 X58.5866 Y53.9407 F80.00
G01 X58.6130 Y53.9624 F80.00
G01 X58.6432 Y53.9785 F80.00
G01 X58.6759 Y53.9884 F80.00
G01 X58.7210 Y53.9929 F80.00
G01 X60.2988 Y53.9929 F80.00
G01 X60.3439 Y53.9884 F80.00
G01 X60.3766 Y53.9785 F80.00
G01 X60.4067 Y53.9624 F80.00
G01 X60.4332 Y53.9407 F80.00
G01 X60.4548 Y53.9143 F80.00
G01 X60.4709 Y53.8842 F80.00
G01 X60.4809 Y53.8515 F80.00
G01 X60.4853 Y53.8063 F80.00
G01 X60.4853 Y52.2286 F80.00
G01 X60.4809 Y52.1834 F80.00
G01 X60.4709 Y52.1507 F80.00
G01 X60.4548 Y52.1206 F80.00
G01 X60.4332 Y52.0942 F80.00
G01 X60.4067 Y52.0725 F80.00
G01 X60.3766 Y52.0564 F80.00
G01 X60.3439 Y52.0464 F80.00
G01 X60.2988 Y52.0420 F80.00
G01 X60.1608 Y52.0420 F80.00
G01 X60.1386 Y52.0406 F80.00
G01 X60.1167 Y52.0370 F80.00
G01 X60.0981 Y52.0322 F80.00
G01 X60.0801 Y52.0259 F80.00
G01 X60.0627 Y52.0180 F80.00
G01 X60.0544 Y52.0138 F80.00
G01 X60.0380 Y52.0038 F80.00
G01 X60.0226 Y51.9925 F80.00
G01 X60.0155 Y51.9865 F80.00
G01 X60.0016 Y51.9734 F80.00
G01 X59.9888 Y51.9592 F80.00
G01 X59.9773 Y51.9439 F80.00
G01 X59.9672 Y51.9277 F80.00
G01 X59.9627 Y51.9195 F80.00
G01 X59.9546 Y51.9022 F80.00
G01 X59.9481 Y51.8842 F80.00
G01 X59.9431 Y51.8657 F80.00
G01 X59.9407 Y51.8536 F80.00
G01 X59.9385 Y51.8377 F80.00
G01 X59.9374 Y51.8155 F80.00
G01 X59.9374 Y51.6249 F80.00
G01 X59.9382 Y51.6058 F80.00
G01 X59.9394 Y51.5928 F80.00
G01 X59.9312 Y51.5090 F80.00
G01 X59.9067 Y51.4284 F80.00
G01 X59.8671 Y51.3541 F80.00
G01 X59.8136 Y51.2890 F80.00
G01 X59.8035 Y51.2807 F80.00
G01 X59.7895 Y51.2678 F80.00
G01 X57.1716 Y48.6499 F80.00
G01 X57.1567 Y48.6335 F80.00
G01 X57.1435 Y48.6156 F80.00
G01 X57.1320 Y48.5965 F80.00
G01 X57.1225 Y48.5764 F80.00
G01 X57.1150 Y48.5555 F80.00
G01 X57.1096 Y48.5340 F80.00
G01 X57.1064 Y48.5120 F80.00
G01 X57.1053 Y48.4898 F80.00
G01 X57.1053 Y46.3640 F80.00
G01 X57.1064 Y46.3449 F80.00
G01 X57.1096 Y46.3229 F80.00
G01 X57.1150 Y46.3013 F80.00
G01 X57.1214 Y46.2833 F80.00
G01 X57.1292 Y46.2659 F80.00
G01 X57.1351 Y46.2549 F80.00
G01 X57.1452 Y46.2387 F80.00
G01 X57.1587 Y46.2210 F80.00
G01 X57.1716 Y46.2069 F80.00
G01 X57.5785 Y45.8001 F80.00
G01 X57.5925 Y45.7872 F80.00
G01 X57.6102 Y45.7737 F80.00
G01 X57.6264 Y45.7636 F80.00
G01 X57.6374 Y45.7577 F80.00
G01 X57.6548 Y45.7498 F80.00
G01 X57.6729 Y45.7435 F80.00
G01 X57.6944 Y45.7381 F80.00
G01 X57.7164 Y45.7348 F80.00
G01 X57.7355 Y45.7338 F80.00
G01 X67.0454 Y45.7338 F80.00
G01 X67.0645 Y45.7348 F80.00
G01 X67.0865 Y45.7381 F80.00
G01 X67.1080 Y45.7435 F80.00
G01 X67.1232 Y45.7488 F80.00
G01 X67.1346 Y45.7535 F80.00
G01 X67.1518 Y45.7620 F80.00
G01 X67.1681 Y45.7719 F80.00
G01 X67.1860 Y45.7852 F80.00
G01 X67.2025 Y45.8001 F80.00
G01 X67.2133 Y45.8119 F80.00
G01 X67.2212 Y45.8215 F80.00
G01 X67.2323 Y45.8370 F80.00
G01 X67.2421 Y45.8535 F80.00
G01 X67.2516 Y45.8736 F80.00
G01 X67.2590 Y45.8945 F80.00
G01 X67.2631 Y45.9100 F80.00
G01 X67.2650 Y45.9191 F80.00
G01 X67.2674 Y45.9350 F80.00
G01 X67.2682 Y45.9442 F80.00
G01 X67.2688 Y45.9603 F80.00
G01 X67.2688 Y48.2815 F80.00
G01 X67.2680 Y48.3006 F80.00
G01 X67.2667 Y48.3136 F80.00
G01 X67.2752 Y48.4001 F80.00
G01 X67.2777 Y48.4114 F80.00
G01 X67.2804 Y48.4303 F80.00
G01 X67.2815 Y48.4525 F80.00
G01 X67.2815 Y57.7938 F80.00
G01 X67.2809 Y57.8098 F80.00
G01 X67.2801 Y57.8191 F80.00
G01 X67.2771 Y57.8380 F80.00
G01 X67.2734 Y57.8536 F80.00
G01 X67.2708 Y57.8625 F80.00
G01 X67.2643 Y57.8805 F80.00
G01 X67.2575 Y57.8950 F80.00
G01 X67.2533 Y57.9033 F80.00
G01 X67.2433 Y57.9196 F80.00
G01 X67.2339 Y57.9326 F80.00
G01 X67.2281 Y57.9398 F80.00
G01 X67.2152 Y57.9539 F80.00
G01 X63.5495 Y61.6196 F80.00
G01 X63.5330 Y61.6345 F80.00
G01 X63.5152 Y61.6478 F80.00
G01 X63.4961 Y61.6592 F80.00
G01 X63.4817 Y61.6662 F80.00
G01 X63.4731 Y61.6698 F80.00
G01 X63.4551 Y61.6762 F80.00
G01 X63.4335 Y61.6816 F80.00
G01 X63.4115 Y61.6848 F80.00
G01 X63.3893 Y61.6859 F80.00
G01 X60.5166 Y61.6859 F80.00
G01 X60.5006 Y61.6853 F80.00
G01 X60.4913 Y61.6845 F80.00
G01 X60.4694 Y61.6809 F80.00
G01 X60.4538 Y61.6771 F80.00
G01 X60.4450 Y61.6742 F80.00
G01 X60.4299 Y61.6687 F80.00
G01 X60.4154 Y61.6620 F80.00
G01 X60.4071 Y61.6577 F80.00
G01 X60.3934 Y61.6495 F80.00
G01 X60.3857 Y61.6442 F80.00
G01 X60.3729 Y61.6345 F80.00
G01 X60.3564 Y61.6196 F80.00
G01 X60.3415 Y61.6031 F80.00
G01 X60.3318 Y61.5903 F80.00
G01 X60.3266 Y61.5827 F80.00
G01 X60.3168 Y61.5662 F80.00
G01 X60.3073 Y61.5461 F80.00
G01 X60.2998 Y61.5252 F80.00
G01 X60.2944 Y61.5036 F80.00
G01 X60.2919 Y61.4878 F80.00
G01 X60.2909 Y61.4785 F80.00
G01 X60.2901 Y61.4594 F80.00
G01 X60.2901 Y61.4106 F80.00
G01 X60.2856 Y61.3654 F80.00
G01 X60.2757 Y61.3327 F80.00
G01 X60.2596 Y61.3026 F80.00
G01 X60.2379 Y61.2762 F80.00
G01 X60.2115 Y61.2545 F80.00
G01 X60.1814 Y61.2384 F80.00
G01 X60.1487 Y61.2284 F80.00
G01 X60.1035 Y61.2240 F80.00
G01 X58.6978 Y61.2240 F80.00
G01 X58.6526 Y61.2284 F80.00
G01 X58.6199 Y61.2384 F80.00
G01 X58.5898 Y61.2545 F80.00
G01 X58.5634 Y61.2762 F80.00
G01 X58.5417 Y61.3026 F80.00
G01 X58.5256 Y61.3327 F80.00
G01 X58.5157 Y61.3654 F80.00
G01 X58.5112 Y61.4106 F80.00
G01 X58.5112 Y62.8163 F80.00
G01 X58.5157 Y62.8615 F80.00
G01 X58.5256 Y62.8942 F80.00
G01 X58.5417 Y62.9243 F80.00
G01 X58.5634 Y62.9507 F80.00
G01 X58.5898 Y62.9724 F80.00
G01 X58.6199 Y62.9885 F80.00
G01 X58.6526 Y62.9984 F80.00
G01 X58.6978 Y63.0029 F80.00
G01 X60.1035 Y63.0029 F80.00
G01 X60.1487 Y62.9984 F80.00
G01 X60.1814 Y62.9885 F80.00
G01 X60.2115 Y62.9724 F80.00
G01 X60.2379 Y62.9507 F80.00
G01 X60.2596 Y62.9243 F80.00
G01 X60.2757 Y62.8942 F80.00
G01 X60.2856 Y62.8615 F80.00
G01 X60.2901 Y62.8163 F80.00
G01 X60.2901 Y62.7674 F80.00
G01 X60.2909 Y62.7483 F80.00
G01 X60.2934 Y62.7294 F80.00
G01 X60.2958 Y62.7172 F80.00
G01 X60.2990 Y62.7047 F80.00
G01 X60.3018 Y62.6958 F80.00
G01 X60.3073 Y62.6808 F80.00
G01 X60.3140 Y62.6662 F80.00
G01 X60.3183 Y62.6579 F80.00
G01 X60.3266 Y62.6442 F80.00
G01 X60.3396 Y62.6262 F80.00
G01 X60.3456 Y62.6190 F80.00
G01 X60.3564 Y62.6073 F80.00
G01 X60.3729 Y62.5924 F80.00
G01 X60.3908 Y62.5791 F80.00
G01 X60.4098 Y62.5677 F80.00
G01 X60.4299 Y62.5582 F80.00
G01 X60.4508 Y62.5507 F80.00
G01 X60.4724 Y62.5453 F80.00
G01 X60.4882 Y62.5428 F80.00
G01 X60.4975 Y62.5418 F80.00
G01 X60.5166 Y62.5409 F80.00
G01 X62.2579 Y62.5409 F80.00
G01 X62.2739 Y62.5416 F80.00
G01 X62.2832 Y62.5424 F80.00
G01 X62.3021 Y62.5453 F80.00
G01 X62.3177 Y62.5490 F80.00
G01 X62.3266 Y62.5516 F80.00
G01 X62.3446 Y62.5582 F80.00
G01 X62.3591 Y62.5649 F80.00
G01 X62.3674 Y62.5692 F80.00
G01 X62.3811 Y62.5774 F80.00
G01 X62.3888 Y62.5827 F80.00
G01 X62.4016 Y62.5924 F80.00
G01 X62.4158 Y62.6051 F80.00
G01 X62.4223 Y62.6118 F80.00
G01 X62.4330 Y62.6237 F80.00
G01 X62.4445 Y62.6390 F80.00
G01 X62.4496 Y62.6468 F80.00
G01 X62.4577 Y62.6607 F80.00
G01 X62.4672 Y62.6808 F80.00
G01 X62.4747 Y62.7017 F80.00
G01 X62.4801 Y62.7233 F80.00
G01 X62.4830 Y62.7422 F80.00
G01 X62.4844 Y62.7643 F80.00
G01 X62.4836 Y62.7865 F80.00
G01 X62.4806 Y62.8086 F80.00
G01 X62.4763 Y62.8272 F80.00
G01 X62.4737 Y62.8361 F80.00
G01 X62.4683 Y62.8512 F80.00
G01 X62.4605 Y62.8687 F80.00
G01 X62.4546 Y62.8796 F80.00
G01 X62.4479 Y62.8907 F80.00
G01 X62.4427 Y62.8983 F80.00
G01 X62.4310 Y62.9135 F80.00
G01 X62.4158 Y62.9298 F80.00
G01 X62.3992 Y62.9445 F80.00
G01 X62.3811 Y62.9575 F80.00
G01 X62.3647 Y62.9672 F80.00
G01 X62.3446 Y62.9767 F80.00
G01 X62.3237 Y62.9842 F80.00
G01 X62.3051 Y62.9889 F80.00
G01 X61.9364 Y63.0623 F80.00
G01 X61.6031 Y63.2004 F80.00
G01 X61.3031 Y63.4008 F80.00
G01 X61.0480 Y63.6559 F80.00
G01 X60.8476 Y63.9559 F80.00
G01 X60.7095 Y64.2892 F80.00
G01 X60.6392 Y64.6431 F80.00
G01 X60.6392 Y65.0038 F80.00
G01 X60.7095 Y65.3577 F80.00
G01 X60.8476 Y65.6910 F80.00
G01 X61.0480 Y65.9910 F80.00
G01 X61.3210 Y66.2639 F80.00
G01 X61.3337 Y66.2782 F80.00
G01 X61.3452 Y66.2935 F80.00
G01 X61.3553 Y66.3097 F80.00
G01 X61.3612 Y66.3206 F80.00
G01 X61.3679 Y66.3352 F80.00
G01 X61.3754 Y66.3561 F80.00
G01 X61.3808 Y66.3777 F80.00
G01 X61.3837 Y66.3966 F80.00
G01 X61.3850 Y66.4157 F80.00
G01 X61.3850 Y66.4281 F80.00
G01 X61.3840 Y66.4441 F80.00
G01 X61.3808 Y66.4661 F80.00
G01 X61.3753 Y66.4877 F80.00
G01 X61.3690 Y66.5057 F80.00
G01 X61.3611 Y66.5232 F80.00
G01 X61.3553 Y66.5341 F80.00
G01 X61.3469 Y66.5478 F80.00
G01 X61.3336 Y66.5656 F80.00
G01 X61.3187 Y66.5821 F80.00
G01 X61.3046 Y66.5950 F80.00
G01 X61.2869 Y66.6085 F80.00
G01 X61.2707 Y66.6186 F80.00
G01 X61.2625 Y66.6231 F80.00
G01 X61.2509 Y66.6287 F80.00
G01 X61.2394 Y66.6334 F80.00
G01 X61.2213 Y66.6395 F80.00
G01 X61.1996 Y66.6446 F80.00
G01 X61.1807 Y66.6473 F80.00
G01 X61.1585 Y66.6484 F80.00
G01 X50.6499 Y66.6410 F80.00
G01 X50.6308 Y66.6401 F80.00
G01 X50.6216 Y66.6391 F80.00
G01 X50.6057 Y66.6366 F80.00
G01 X50.5842 Y66.6312 F80.00
G01 X50.5633 Y66.6237 F80.00
G01 X50.5432 Y66.6142 F80.00
G01 X50.5241 Y66.6027 F80.00
G01 X50.5112 Y66.5933 F80.00
G01 X50.5039 Y66.5875 F80.00
G01 X50.4877 Y66.5723 F80.00
G01 X50.4730 Y66.5557 F80.00
G01 X50.4600 Y66.5376 F80.00
G01 X50.4518 Y66.5239 F80.00
G01 X50.4475 Y66.5156 F80.00
G01 X50.4420 Y66.5039 F80.00
G01 X50.4386 Y66.4953 F80.00
G01 X50.4333 Y66.4802 F80.00
G01 X50.4293 Y66.4647 F80.00
G01 X50.4273 Y66.4555 F80.00
G01 X50.4250 Y66.4397 F80.00
G01 X50.4237 Y66.4206 F80.00
G01 X50.4236 Y66.4113 F80.00
G01 X50.4244 Y66.3953 F80.00
G01 X50.4274 Y66.3733 F80.00
G01 X50.4325 Y66.3517 F80.00
G01 X50.4397 Y66.3307 F80.00
G01 X50.4489 Y66.3104 F80.00
G01 X50.4601 Y66.2912 F80.00
G01 X50.4731 Y66.2732 F80.00
G01 X50.4856 Y66.2588 F80.00
G01 X50.7533 Y65.9910 F80.00
G01 X50.9537 Y65.6910 F80.00
G01 X51.0918 Y65.3577 F80.00
G01 X51.1622 Y65.0038 F80.00
G01 X51.1622 Y64.6431 F80.00
G01 X51.0918 Y64.2892 F80.00
G01 X50.9537 Y63.9559 F80.00
G01 X50.7533 Y63.6559 F80.00
G01 X50.4982 Y63.4008 F80.00
G01 X50.1982 Y63.2004 F80.00
G01 X49.8649 Y63.0623 F80.00
G01 X49.5110 Y62.9919 F80.00
G01 X49.1503 Y62.9919 F80.00
G01 X48.7964 Y63.0623 F80.00
G01 X48.4631 Y63.2004 F80.00
G01 X48.1631 Y63.4008 F80.00
G01 X47.9080 Y63.6559 F80.00
G01 X47.7076 Y63.9559 F80.00
G01 X47.5695 Y64.2892 F80.00
G01 X47.4992 Y64.6431 F80.00
G01 X47.4992 Y65.0038 F80.00
G01 X47.5695 Y65.3577 F80.00
G01 X47.7076 Y65.6910 F80.00
G01 X47.9080 Y65.9910 F80.00
G01 X48.1695 Y66.2525 F80.00
G01 X48.1825 Y66.2666 F80.00
G01 X48.1883 Y66.2738 F80.00
G01 X48.1977 Y66.2868 F80.00
G01 X48.2077 Y66.3031 F80.00
G01 X48.2119 Y66.3114 F80.00
G01 X48.2187 Y66.3260 F80.00
G01 X48.2252 Y66.3439 F80.00
G01 X48.2278 Y66.3529 F80.00
G01 X48.2315 Y66.3685 F80.00
G01 X48.2348 Y66.3905 F80.00
G01 X48.2357 Y66.4065 F80.00
G01 X48.2358 Y66.4158 F80.00
G01 X48.2351 Y66.4318 F80.00
G01 X48.2340 Y66.4410 F80.00
G01 X48.2315 Y66.4569 F80.00
G01 X48.2278 Y66.4725 F80.00
G01 X48.2252 Y66.4814 F80.00
G01 X48.2198 Y66.4965 F80.00
G01 X48.2105 Y66.5167 F80.00
G01 X48.2060 Y66.5249 F80.00
G01 X48.1977 Y66.5385 F80.00
G01 X48.1844 Y66.5564 F80.00
G01 X48.1695 Y66.5729 F80.00
G01 X48.1577 Y66.5837 F80.00
G01 X48.1506 Y66.5897 F80.00
G01 X48.1325 Y66.6027 F80.00
G01 X48.1188 Y66.6109 F80.00
G01 X48.1105 Y66.6152 F80.00
G01 X48.0988 Y66.6207 F80.00
G01 X48.0901 Y66.6242 F80.00
G01 X48.0750 Y66.6294 F80.00
G01 X48.0595 Y66.6334 F80.00
G01 X48.0504 Y66.6354 F80.00
G01 X48.0345 Y66.6377 F80.00
G01 X48.0123 Y66.6391 F80.00
G01 X46.9109 Y66.6383 F80.00
G01 X46.8918 Y66.6375 F80.00
G01 X46.8826 Y66.6365 F80.00
G01 X46.8668 Y66.6340 F80.00
G01 X46.8452 Y66.6286 F80.00
G01 X46.8243 Y66.6211 F80.00
G01 X46.8098 Y66.6143 F80.00
G01 X46.8015 Y66.6101 F80.00
G01 X46.7878 Y66.6018 F80.00
G01 X46.7801 Y66.5965 F80.00
G01 X46.7673 Y66.5869 F80.00
G01 X46.7554 Y66.5762 F80.00
G01 X46.7487 Y66.5697 F80.00
G01 X46.7380 Y66.5579 F80.00
G01 X46.7245 Y66.5402 F80.00
G01 X46.7144 Y66.5240 F80.00
G01 X46.7099 Y66.5158 F80.00
G01 X46.7018 Y66.4985 F80.00
G01 X46.6953 Y66.4805 F80.00
G01 X46.6927 Y66.4716 F80.00
G01 X46.6884 Y66.4530 F80.00
G01 X46.6857 Y66.4340 F80.00
G01 X46.6846 Y66.4150 F80.00
G01 X46.6846 Y64.6751 F80.00
G01 X46.6859 Y64.6505 F80.00
G01 X46.6806 Y64.5969 F80.00
G01 X46.6648 Y64.5453 F80.00
G01 X46.6524 Y64.5222 F80.00
G01 X46.6394 Y64.4979 F80.00
G01 X46.6051 Y64.4563 F80.00
G01 X46.5634 Y64.4222 F80.00
G01 X46.5159 Y64.3968 F80.00
G01 X46.4643 Y64.3813 F80.00
G01 X46.4111 Y64.3761 F80.00
G01 X46.3865 Y64.3774 F80.00
G01 X5.8898 Y64.4408 F80.00
G01 X5.8742 Y64.4402 F80.00
G01 X5.6250 Y64.4206 F80.00
G01 X5.6052 Y64.4181 F80.00
G01 X5.5857 Y64.4139 F80.00
G01 X5.2976 Y64.3389 F80.00
G01 X5.2765 Y64.3323 F80.00
G01 X5.2589 Y64.3249 F80.00
G01 X4.9925 Y64.1962 F80.00
G01 X4.9731 Y64.1856 F80.00
G01 X4.9548 Y64.1732 F80.00
G01 X4.7209 Y63.9969 F80.00
G01 X4.7062 Y63.9848 F80.00
G01 X4.6995 Y63.9785 F80.00
G01 X4.6884 Y63.9670 F80.00
G01 X4.4912 Y63.7464 F80.00
G01 X4.4793 Y63.7315 F80.00
G01 X4.4687 Y63.7157 F80.00
G01 X4.3370 Y63.4931 F80.00
G01 X4.3323 Y63.4845 F80.00
G01 X4.3259 Y63.4714 F80.00
G01 X4.3198 Y63.4563 F80.00
G01 X4.3166 Y63.4471 F80.00
G01 X4.3115 Y63.4279 F80.00
G01 X4.1517 Y62.7059 F80.00
G01 X4.1476 Y62.6816 F80.00
G01 X4.1463 Y62.6569 F80.00
G01 X4.1492 Y34.9323 F80.00
G01 X4.1498 Y34.9163 F80.00
G01 X4.1506 Y34.9070 F80.00
G01 X4.1530 Y34.8911 F80.00
G01 X4.1549 Y34.8820 F80.00
G01 X4.1590 Y34.8665 F80.00
G01 X4.1653 Y34.8485 F80.00
G01 X4.1690 Y34.8399 F80.00
G01 X4.1759 Y34.8255 F80.00
G01 X4.1841 Y34.8117 F80.00
G01 X4.1891 Y34.8039 F80.00
G01 X4.1987 Y34.7910 F80.00
G01 X4.2047 Y34.7839 F80.00
G01 X4.2155 Y34.7721 F80.00
G01 X4.2296 Y34.7592 F80.00
G01 X4.2369 Y34.7534 F80.00
G01 X4.2499 Y34.7440 F80.00
G01 X4.2689 Y34.7325 F80.00
G01 X4.2862 Y34.7242 F80.00
G01 X4.3041 Y34.7175 F80.00
G01 X4.3159 Y34.7139 F80.00
G01 X4.3315 Y34.7101 F80.00
G01 X4.3535 Y34.7069 F80.00
G01 X4.3757 Y34.7058 F80.00
G01 X4.3948 Y34.7066 F80.00
G01 X4.4138 Y34.7091 F80.00
G01 X4.4259 Y34.7115 F80.00
G01 X4.4444 Y34.7165 F80.00
G01 X4.4652 Y34.7243 F80.00
G01 X4.4825 Y34.7325 F80.00
G01 X4.5015 Y34.7440 F80.00
G01 X4.5194 Y34.7572 F80.00
G01 X4.5314 Y34.7678 F80.00
G01 X6.8952 Y37.1315 F80.00
G01 X6.9102 Y37.1480 F80.00
G01 X6.9198 Y37.1608 F80.00
G01 X6.9251 Y37.1684 F80.00
G01 X6.9333 Y37.1822 F80.00
G01 X6.9376 Y37.1904 F80.00
G01 X6.9443 Y37.2050 F80.00
G01 X6.9499 Y37.2200 F80.00
G01 X6.9535 Y37.2319 F80.00
G01 X6.9578 Y37.2505 F80.00
G01 X6.9605 Y37.2695 F80.00
G01 X6.9616 Y37.2917 F80.00
G01 X6.9616 Y39.7619 F80.00
G01 X6.9605 Y39.7841 F80.00
G01 X6.9578 Y39.8030 F80.00
G01 X6.9535 Y39.8216 F80.00
G01 X6.9509 Y39.8306 F80.00
G01 X6.9443 Y39.8485 F80.00
G01 X6.9376 Y39.8631 F80.00
G01 X6.9333 Y39.8714 F80.00
G01 X6.9234 Y39.8877 F80.00
G01 X6.9140 Y39.9007 F80.00
G01 X6.9082 Y39.9079 F80.00
G01 X6.8974 Y39.9198 F80.00
G01 X6.8907 Y39.9263 F80.00
G01 X6.8788 Y39.9370 F80.00
G01 X6.8660 Y39.9466 F80.00
G01 X6.7366 Y40.0332 F80.00
G01 X6.5941 Y40.1758 F80.00
G01 X6.4821 Y40.3434 F80.00
G01 X6.4049 Y40.5297 F80.00
G01 X6.3656 Y40.7274 F80.00
G01 X6.3656 Y40.9290 F80.00
G01 X6.4049 Y41.1268 F80.00
G01 X6.4821 Y41.3130 F80.00
G01 X6.5941 Y41.4807 F80.00
G01 X6.7366 Y41.6232 F80.00
G01 X6.9043 Y41.7353 F80.00
G01 X7.0905 Y41.8124 F80.00
G01 X7.2883 Y41.8517 F80.00
G01 X7.4899 Y41.8517 F80.00
G01 X7.6876 Y41.8124 F80.00
G01 X7.8739 Y41.7353 F80.00
G01 X8.0415 Y41.6232 F80.00
G01 X8.1841 Y41.4807 F80.00
G01 X8.2961 Y41.3130 F80.00
G01 X8.3732 Y41.1268 F80.00
G01 X8.4126 Y40.9290 F80.00
G01 X8.4126 Y40.7274 F80.00
G01 X8.3732 Y40.5297 F80.00
G01 X8.2961 Y40.3434 F80.00
G01 X8.1841 Y40.1758 F80.00
G01 X8.0415 Y40.0332 F80.00
G01 X7.9122 Y39.9466 F80.00
G01 X7.8994 Y39.9370 F80.00
G01 X7.8874 Y39.9263 F80.00
G01 X7.8808 Y39.9198 F80.00
G01 X7.8700 Y39.9079 F80.00
G01 X7.8583 Y39.8928 F80.00
G01 X7.8531 Y39.8851 F80.00
G01 X7.8433 Y39.8686 F80.00
G01 X7.8363 Y39.8542 F80.00
G01 X7.8327 Y39.8457 F80.00
G01 X7.8263 Y39.8276 F80.00
G01 X7.8216 Y39.8091 F80.00
G01 X7.8199 Y39.7999 F80.00
G01 X7.8177 Y39.7841 F80.00
G01 X7.8166 Y39.7619 F80.00
G01 X7.8166 Y37.0529 F80.00
G01 X7.8174 Y37.0338 F80.00
G01 X7.8186 Y37.0208 F80.00
G01 X7.8104 Y36.9370 F80.00
G01 X7.7859 Y36.8564 F80.00
G01 X7.7463 Y36.7821 F80.00
G01 X7.6928 Y36.7170 F80.00
G01 X7.6827 Y36.7087 F80.00
G01 X7.6686 Y36.6958 F80.00
G01 X5.2087 Y34.2357 F80.00
G01 X5.1959 Y34.2215 F80.00
G01 X5.1827 Y34.2036 F80.00
G01 X5.1712 Y34.1846 F80.00
G01 X5.1630 Y34.1673 F80.00
G01 X5.1552 Y34.1465 F80.00
G01 X5.1502 Y34.1280 F80.00
G01 X5.1483 Y34.1189 F80.00
G01 X5.1463 Y34.1062 F80.00
G01 X5.1451 Y34.0938 F80.00
G01 X5.1445 Y34.0778 F80.00
G01 X5.1447 Y32.4966 F80.00
G01 X5.1459 Y32.4775 F80.00
G01 X5.1495 Y32.4556 F80.00
G01 X5.1552 Y32.4341 F80.00
G01 X5.1630 Y32.4133 F80.00
G01 X5.1727 Y32.3933 F80.00
G01 X5.1844 Y32.3744 F80.00
G01 X5.1979 Y32.3568 F80.00
G01 X5.2131 Y32.3405 F80.00
G01 X5.2273 Y32.3277 F80.00
G01 X5.2426 Y32.3162 F80.00
G01 X5.2504 Y32.3112 F80.00
G01 X5.2670 Y32.3016 F80.00
G01 X5.2843 Y32.2936 F80.00
G01 X5.3023 Y32.2870 F80.00
G01 X5.3208 Y32.2820 F80.00
G01 X5.3329 Y32.2796 F80.00
G01 X5.3488 Y32.2774 F80.00
G01 X5.3710 Y32.2763 F80.00
G01 X5.3932 Y32.2774 F80.00
G01 X5.4091 Y32.2796 F80.00
G01 X5.4212 Y32.2820 F80.00
G01 X5.4397 Y32.2870 F80.00
G01 X5.4577 Y32.2936 F80.00
G01 X5.4750 Y32.3016 F80.00
G01 X5.4832 Y32.3061 F80.00
G01 X5.4968 Y32.3145 F80.00
G01 X5.5147 Y32.3277 F80.00
G01 X5.5267 Y32.3384 F80.00
G01 X5.5333 Y32.3449 F80.00
G01 X5.5441 Y32.3568 F80.00
G01 X5.5499 Y32.3640 F80.00
G01 X5.5593 Y32.3770 F80.00
G01 X5.5677 Y32.3906 F80.00
G01 X5.5722 Y32.3988 F80.00
G01 X5.5777 Y32.4105 F80.00
G01 X5.6267 Y32.5281 F80.00
G01 X5.7113 Y32.6548 F80.00
G01 X5.8190 Y32.7626 F80.00
G01 X5.9457 Y32.8472 F80.00
G01 X6.0865 Y32.9055 F80.00
G01 X6.2359 Y32.9353 F80.00
G01 X6.3883 Y32.9353 F80.00
G01 X6.5377 Y32.9055 F80.00
G01 X6.6785 Y32.8472 F80.00
G01 X6.8052 Y32.7626 F80.00
G01 X6.9129 Y32.6548 F80.00
G01 X6.9976 Y32.5281 F80.00
G01 X7.0559 Y32.3874 F80.00
G01 X7.0856 Y32.2379 F80.00
G01 X7.0856 Y32.0856 F80.00
G01 X7.0559 Y31.9361 F80.00
G01 X6.9976 Y31.7954 F80.00
G01 X6.9129 Y31.6687 F80.00
G01 X6.8052 Y31.5609 F80.00
G01 X6.6785 Y31.4763 F80.00
G01 X6.5377 Y31.4180 F80.00
G01 X6.3883 Y31.3883 F80.00
G01 X6.2359 Y31.3883 F80.00
G01 X6.0865 Y31.4180 F80.00
G01 X5.9457 Y31.4763 F80.00
G01 X5.8190 Y31.5609 F80.00
G01 X5.7113 Y31.6687 F80.00
G01 X5.6267 Y31.7954 F80.00
G01 X5.5790 Y31.9102 F80.00
G01 X5.5708 Y31.9275 F80.00
G01 X5.5626 Y31.9413 F80.00
G01 X5.5558 Y31.9516 F80.00
G01 X5.5480 Y31.9620 F80.00
G01 X5.5420 Y31.9691 F80.00
G01 X5.5289 Y31.9830 F80.00
G01 X5.5123 Y31.9977 F80.00
G01 X5.4968 Y32.0090 F80.00
G01 X5.4805 Y32.0190 F80.00
G01 X5.4634 Y32.0274 F80.00
G01 X5.4519 Y32.0322 F80.00
G01 X5.4367 Y32.0374 F80.00
G01 X5.4152 Y32.0428 F80.00
G01 X5.3932 Y32.0461 F80.00
G01 X5.3772 Y32.0470 F80.00
G01 X5.3648 Y32.0470 F80.00
G01 X5.3457 Y32.0458 F80.00
G01 X5.3268 Y32.0428 F80.00
G01 X5.3082 Y32.0383 F80.00
G01 X5.2901 Y32.0322 F80.00
G01 X5.2815 Y32.0287 F80.00
G01 X5.2642 Y32.0205 F80.00
G01 X5.2478 Y32.0107 F80.00
G01 X5.2401 Y32.0055 F80.00
G01 X5.2273 Y31.9958 F80.00
G01 X5.2108 Y31.9809 F80.00
G01 X5.2000 Y31.9691 F80.00
G01 X5.1940 Y31.9620 F80.00
G01 X5.1844 Y31.9491 F80.00
G01 X5.1793 Y31.9413 F80.00
G01 X5.1712 Y31.9275 F80.00
G01 X5.1643 Y31.9130 F80.00
G01 X5.1606 Y31.9045 F80.00
G01 X5.1552 Y31.8894 F80.00
G01 X5.1526 Y31.8805 F80.00
G01 X5.1489 Y31.8649 F80.00
G01 X5.1463 Y31.8491 F80.00
G01 X5.1453 Y31.8398 F80.00
G01 X5.1445 Y31.8207 F80.00
G01 X5.1445 Y31.1106 F80.00
G01 X5.1459 Y31.0884 F80.00
G01 X5.1483 Y31.0726 F80.00
G01 X5.1502 Y31.0634 F80.00
G01 X5.1543 Y31.0479 F80.00
G01 X5.1595 Y31.0328 F80.00
G01 X5.1630 Y31.0242 F80.00
G01 X5.1698 Y31.0097 F80.00
G01 X5.1743 Y31.0015 F80.00
G01 X5.1827 Y30.9879 F80.00
G01 X5.1940 Y30.9724 F80.00
G01 X5.2000 Y30.9653 F80.00
G01 X5.2108 Y30.9535 F80.00
G01 X5.2249 Y30.9406 F80.00
G01 X5.2322 Y30.9348 F80.00
G01 X5.2452 Y30.9254 F80.00
G01 X5.2588 Y30.9170 F80.00
G01 X5.2670 Y30.9125 F80.00
G01 X5.2843 Y30.9044 F80.00
G01 X5.2994 Y30.8989 F80.00
G01 X5.3082 Y30.8961 F80.00
G01 X5.3268 Y30.8915 F80.00
G01 X5.3426 Y30.8890 F80.00
G01 X5.3519 Y30.8880 F80.00
G01 X5.3710 Y30.8872 F80.00
G01 X7.5280 Y30.8872 F80.00
G01 X7.5731 Y30.8827 F80.00
G01 X7.6058 Y30.8728 F80.00
G01 X7.6360 Y30.8567 F80.00
G01 X7.6624 Y30.8350 F80.00
G01 X7.6841 Y30.8086 F80.00
G01 X7.7002 Y30.7785 F80.00
G01 X7.7101 Y30.7458 F80.00
G01 X7.7146 Y30.7006 F80.00
G01 X7.7146 Y29.1229 F80.00
G01 X7.7101 Y29.0777 F80.00
G01 X7.7002 Y29.0450 F80.00
G01 X7.6841 Y29.0149 F80.00
G01 X7.6624 Y28.9885 F80.00
G01 X7.6360 Y28.9668 F80.00
G01 X7.6058 Y28.9507 F80.00
G01 X7.5731 Y28.9408 F80.00
G01 X7.5280 Y28.9363 F80.00
G01 X5.3710 Y28.9363 F80.00
G01 X5.3519 Y28.9355 F80.00
G01 X5.3426 Y28.9345 F80.00
G01 X5.3268 Y28.9320 F80.00
G01 X5.3082 Y28.9274 F80.00
G01 X5.2994 Y28.9246 F80.00
G01 X5.2843 Y28.9191 F80.00
G01 X5.2670 Y28.9110 F80.00
G01 X5.2588 Y28.9065 F80.00
G01 X5.2452 Y28.8982 F80.00
G01 X5.2297 Y28.8868 F80.00
G01 X5.2226 Y28.8809 F80.00
G01 X5.2108 Y28.8700 F80.00
G01 X5.2000 Y28.8582 F80.00
G01 X5.1940 Y28.8511 F80.00
G01 X5.1827 Y28.8357 F80.00
G01 X5.1743 Y28.8220 F80.00
G01 X5.1698 Y28.8138 F80.00
G01 X5.1617 Y28.7965 F80.00
G01 X5.1562 Y28.7815 F80.00
G01 X5.1534 Y28.7726 F80.00
G01 X5.1489 Y28.7540 F80.00
G01 X5.1463 Y28.7382 F80.00
G01 X5.1453 Y28.7289 F80.00
G01 X5.1445 Y28.7098 F80.00
G01 X5.1445 Y28.3814 F80.00
G01 X5.1456 Y28.3592 F80.00
G01 X5.1483 Y28.3402 F80.00
G01 X5.1526 Y28.3216 F80.00
G01 X5.1562 Y28.3097 F80.00
G01 X5.1617 Y28.2947 F80.00
G01 X5.1712 Y28.2746 F80.00
G01 X5.1827 Y28.2555 F80.00
G01 X5.1921 Y28.2426 F80.00
G01 X5.1979 Y28.2353 F80.00
G01 X5.2108 Y28.2212 F80.00
G01 X6.9842 Y26.4478 F80.00
G01 X7.0007 Y26.4329 F80.00
G01 X7.0185 Y26.4197 F80.00
G01 X7.0376 Y26.4082 F80.00
G01 X7.0520 Y26.4013 F80.00
G01 X7.0606 Y26.3976 F80.00
G01 X7.0786 Y26.3913 F80.00
G01 X7.1002 Y26.3859 F80.00
G01 X7.1222 Y26.3826 F80.00
G01 X7.1444 Y26.3815 F80.00
G01 X8.2919 Y26.3815 F80.00
G01 X8.3110 Y26.3823 F80.00
G01 X8.3203 Y26.3833 F80.00
G01 X8.3361 Y26.3859 F80.00
G01 X8.3577 Y26.3913 F80.00
G01 X8.3757 Y26.3976 F80.00
G01 X8.3843 Y26.4013 F80.00
G01 X8.3987 Y26.4082 F80.00
G01 X8.4177 Y26.4197 F80.00
G01 X8.4356 Y26.4329 F80.00
G01 X8.4476 Y26.4436 F80.00
G01 X8.4563 Y26.4523 F80.00
G01 X8.4689 Y26.4667 F80.00
G01 X8.4802 Y26.4822 F80.00
G01 X8.4917 Y26.5012 F80.00
G01 X8.4999 Y26.5185 F80.00
G01 X8.5160 Y26.5572 F80.00
G01 X8.6554 Y26.7658 F80.00
G01 X8.8328 Y26.9432 F80.00
G01 X9.0414 Y27.0826 F80.00
G01 X9.2731 Y27.1786 F80.00
G01 X9.5192 Y27.2275 F80.00
G01 X9.7700 Y27.2275 F80.00
G01 X10.0161 Y27.1786 F80.00
G01 X10.2478 Y27.0826 F80.00
G01 X10.4564 Y26.9432 F80.00
G01 X10.6338 Y26.7658 F80.00
G01 X10.7732 Y26.5572 F80.00
G01 X10.8692 Y26.3255 F80.00
G01 X10.9181 Y26.0794 F80.00
G01 X10.9181 Y25.8286 F80.00
G01 X10.8692 Y25.5825 F80.00
G01 X10.7732 Y25.3508 F80.00
G01 X10.6338 Y25.1422 F80.00
G01 X10.4564 Y24.9648 F80.00
G01 X10.2478 Y24.8254 F80.00
G01 X10.0161 Y24.7294 F80.00
G01 X9.7700 Y24.6805 F80.00
G01 X9.5192 Y24.6805 F80.00
G01 X9.2731 Y24.7294 F80.00
G01 X9.0414 Y24.8254 F80.00
G01 X8.8328 Y24.9648 F80.00
G01 X8.6554 Y25.1422 F80.00
G01 X8.5160 Y25.3508 F80.00
G01 X8.4999 Y25.3895 F80.00
G01 X8.4917 Y25.4068 F80.00
G01 X8.4802 Y25.4258 F80.00
G01 X8.4708 Y25.4388 F80.00
G01 X8.4650 Y25.4461 F80.00
G01 X8.4521 Y25.4602 F80.00
G01 X8.4403 Y25.4710 F80.00
G01 X8.4332 Y25.4770 F80.00
G01 X8.4177 Y25.4883 F80.00
G01 X8.4014 Y25.4983 F80.00
G01 X8.3931 Y25.5025 F80.00
G01 X8.3786 Y25.5093 F80.00
G01 X8.3606 Y25.5158 F80.00
G01 X8.3421 Y25.5208 F80.00
G01 X8.3300 Y25.5232 F80.00
G01 X8.3141 Y25.5254 F80.00
G01 X8.2919 Y25.5265 F80.00
G01 X6.9056 Y25.5265 F80.00
G01 X6.8865 Y25.5257 F80.00
G01 X6.8735 Y25.5244 F80.00
G01 X6.7897 Y25.5327 F80.00
G01 X6.7091 Y25.5571 F80.00
G01 X6.6348 Y25.5968 F80.00
G01 X6.5697 Y25.6502 F80.00
G01 X6.5614 Y25.6603 F80.00
G01 X6.5485 Y25.6744 F80.00
G01 X4.5366 Y27.6863 F80.00
G01 X4.5249 Y27.6971 F80.00
G01 X4.5177 Y27.7031 F80.00
G01 X4.5049 Y27.7127 F80.00
G01 X4.4971 Y27.7177 F80.00
G01 X4.4832 Y27.7258 F80.00
G01 X4.4660 Y27.7341 F80.00
G01 X4.4574 Y27.7376 F80.00
G01 X4.4422 Y27.7428 F80.00
G01 X4.4237 Y27.7476 F80.00
G01 X4.4145 Y27.7493 F80.00
G01 X4.3987 Y27.7515 F80.00
G01 X4.3796 Y27.7526 F80.00
G01 X4.3703 Y27.7524 F80.00
G01 X4.3543 Y27.7515 F80.00
G01 X4.3384 Y27.7493 F80.00
G01 X4.3292 Y27.7476 F80.00
G01 X4.3107 Y27.7428 F80.00
G01 X4.2956 Y27.7376 F80.00
G01 X4.2869 Y27.7341 F80.00
G01 X4.2697 Y27.7258 F80.00
G01 X4.2559 Y27.7177 F80.00
G01 X4.2481 Y27.7127 F80.00
G01 X4.2352 Y27.7031 F80.00
G01 X4.2281 Y27.6971 F80.00
G01 X4.2163 Y27.6862 F80.00
G01 X4.2034 Y27.6721 F80.00
G01 X4.1976 Y27.6649 F80.00
G01 X4.1881 Y27.6519 F80.00
G01 X4.1798 Y27.6382 F80.00
G01 X4.1753 Y27.6301 F80.00
G01 X4.1684 Y27.6156 F80.00
G01 X4.1650 Y27.6070 F80.00
G01 X4.1597 Y27.5918 F80.00
G01 X4.1550 Y27.5733 F80.00
G01 X4.1533 Y27.5641 F80.00
G01 X4.1511 Y27.5483 F80.00
G01 X4.1500 Y27.5261 F80.00
G01 X4.1523 Y5.2065 F80.00
G01 X4.1530 Y5.1881 F80.00
G01 X4.1548 Y5.1730 F80.00
G01 X4.1994 Y4.8743 F80.00
G01 X4.2037 Y4.8526 F80.00
G01 X4.2101 Y4.8314 F80.00
G01 X4.3067 Y4.5615 F80.00
G01 X4.3151 Y4.5411 F80.00
G01 X4.3255 Y4.5215 F80.00
G01 X4.4727 Y4.2756 F80.00
G01 X4.4849 Y4.2572 F80.00
G01 X4.4990 Y4.2400 F80.00
G01 X4.6911 Y4.0273 F80.00
G01 X4.7022 Y4.0159 F80.00
G01 X4.7090 Y4.0096 F80.00
G01 X4.7238 Y3.9976 F80.00
G01 X4.9746 Y3.8105 F80.00
G01 X4.9892 Y3.8005 F80.00
G01 X5.8595 Y3.2668 F80.00
G01 X5.8802 Y3.2555 F80.00
G01 X5.9021 Y3.2465 F80.00
G01 X5.9247 Y3.2397 F80.00
G01 X6.5267 Y3.0944 F80.00
G01 X6.5516 Y3.0899 F80.00
G01 X6.5606 Y3.0890 F80.00
G01 X6.5799 Y3.0881 F80.00
G00 Z2.0000
G00 X9.7737 Y7.9726
G01 F60.00
G01 Z-0.1500
G01 F80.00
G01 X10.0540 Y7.9726 F80.00
G01 X10.3290 Y8.0272 F80.00
G01 X10.5880 Y8.1345 F80.00
G01 X10.8211 Y8.2903 F80.00
G01 X11.0193 Y8.4885 F80.00
G01 X11.1750 Y8.7216 F80.00
G01 X11.2823 Y8.9806 F80.00
G01 X11.3370 Y9.2556 F80.00
G01 X11.3370 Y9.5359 F80.00
G01 X11.2823 Y9.8109 F80.00
G01 X11.1750 Y10.0699 F80.00
G01 X11.0193 Y10.3030 F80.00
G01 X10.8211 Y10.5012 F80.00
G01 X10.5880 Y10.6569 F80.00
G01 X10.3290 Y10.7642 F80.00
G01 X10.0540 Y10.8189 F80.00
G01 X9.7737 Y10.8189 F80.00
G01 X9.4987 Y10.7642 F80.00
G01 X9.2397 Y10.6569 F80.00
G01 X9.0066 Y10.5012 F80.00
G01 X8.8084 Y10.3030 F80.00
G01 X8.6526 Y10.0699 F80.00
G01 X8.5453 Y9.8109 F80.00
G01 X8.4907 Y9.5359 F80.00
G01 X8.4907 Y9.2556 F80.00
G01 X8.5453 Y8.9806 F80.00
G01 X8.6526 Y8.7216 F80.00
G01 X8.8084 Y8.4885 F80.00
G01 X9.0066 Y8.2903 F80.00
G01 X9.2397 Y8.1345 F80.00
G01 X9.4987 Y8.0272 F80.00
G01 X9.7737 Y7.9726 F80.00
G00 Z2.0000
G00 X9.9076 Y10.7717
G01 F60.00
G01 Z-0.1500
G01 F80.00
G01 X9.7790 Y10.7652 F80.00
G01 X9.6454 Y10.7454 F80.00
G01 X9.5144 Y10.7126 F80.00
G01 X9.3872 Y10.6671 F80.00
G01 X9.2651 Y10.6094 F80.00
G01 X9.1493 Y10.5399 F80.00
G01 X9.0408 Y10.4595 F80.00
G01 X8.9408 Y10.3688 F80.00
G01 X8.8501 Y10.2687 F80.00
G01 X8.7696 Y10.1603 F80.00
G01 X8.7002 Y10.0444 F80.00
G01 X8.6425 Y9.9224 F80.00
G01 X8.5970 Y9.7952 F80.00
G01 X8.5642 Y9.6642 F80.00
G01 X8.5443 Y9.5306 F80.00
G01 X8.5377 Y9.3957 F80.00
G01 X8.5443 Y9.2609 F80.00
G01 X8.5642 Y9.1273 F80.00
G01 X8.5970 Y8.9963 F80.00
G01 X8.6425 Y8.8691 F80.00
G01 X8.7002 Y8.7470 F80.00
G01 X8.7696 Y8.6312 F80.00
G01 X8.8501 Y8.5227 F80.00
G01 X8.9408 Y8.4227 F80.00
G01 X9.0408 Y8.3320 F80.00
G01 X9.1493 Y8.2515 F80.00
G01 X9.2651 Y8.1821 F80.00
G01 X9.3872 Y8.1244 F80.00
G01 X9.5144 Y8.0789 F80.00
G01 X9.6454 Y8.0461 F80.00
G01 X9.7790 Y8.0262 F80.00
G01 X9.9138 Y8.0196 F80.00
G01 X10.0487 Y8.0262 F80.00
G01 X10.1823 Y8.0461 F80.00
G01 X10.3133 Y8.0789 F80.00
G01 X10.4405 Y8.1244 F80.00
G01 X10.5625 Y8.1821 F80.00
G01 X10.6784 Y8.2515 F80.00
G01 X10.7868 Y8.3320 F80.00
G01 X10.8869 Y8.4227 F80.00
G01 X10.9776 Y8.5227 F80.00
G01 X11.0580 Y8.6312 F80.00
G01 X11.1275 Y8.7470 F80.00
G01 X11.1852 Y8.8691 F80.00
G01 X11.2307 Y8.9963 F80.00
G01 X11.2635 Y9.1273 F80.00
G01 X11.2833 Y9.2609 F80.00
G01 X11.2900 Y9.3957 F80.00
G01 X11.2833 Y9.5306 F80.00
G01 X11.2635 Y9.6642 F80.00
G01 X11.2307 Y9.7952 F80.00
G01 X11.1852 Y9.9224 F80.00
G01 X11.1275 Y10.0444 F80.00
G01 X11.0580 Y10.1603 F80.00
G01 X10.9776 Y10.2687 F80.00
G01 X10.8869 Y10.3688 F80.00
G01 X10.7868 Y10.4595 F80.00
G01 X10.6784 Y10.5399 F80.00
G01 X10.5625 Y10.6094 F80.00
G01 X10.4405 Y10.6671 F80.00
G01 X10.3133 Y10.7126 F80.00
G01 X10.1823 Y10.7454 F80.00
G01 X10.0487 Y10.7652 F80.00
G01 X9.9200 Y10.7717 F80.00
G01 X9.9076 Y10.7717 F80.00
G00 Z2.0000
G00 X9.4905 Y11.5726
G01 F60.00
G01 Z-0.1500
G01 F80.00
G01 X9.6921 Y11.5726 F80.00
G01 X9.8898 Y11.6120 F80.00
G01 X10.0761 Y11.6891 F80.00
G01 X10.2437 Y11.8011 F80.00
G01 X10.3863 Y11.9437 F80.00
G01 X10.4983 Y12.1113 F80.00
G01 X10.5754 Y12.2976 F80.00
G01 X10.6148 Y12.4953 F80.00
G01 X10.6148 Y12.6969 F80.00
G01 X10.5754 Y12.8947 F80.00
G01 X10.4983 Y13.0809 F80.00
G01 X10.3863 Y13.2486 F80.00
G01 X10.2437 Y13.3911 F80.00
G01 X10.0761 Y13.5032 F80.00
G01 X9.8898 Y13.5803 F80.00
G01 X9.6921 Y13.6196 F80.00
G01 X9.4905 Y13.6196 F80.00
G01 X9.2927 Y13.5803 F80.00
G01 X9.1064 Y13.5032 F80.00
G01 X8.9388 Y13.3911 F80.00
G01 X8.7963 Y13.2486 F80.00
G01 X8.6842 Y13.0809 F80.00
G01 X8.6071 Y12.8947 F80.00
G01 X8.5678 Y12.6969 F80.00
G01 X8.5678 Y12.4953 F80.00
G01 X8.6071 Y12.2976 F80.00
G01 X8.6842 Y12.1113 F80.00
G01 X8.7963 Y11.9437 F80.00
G01 X8.9388 Y11.8011 F80.00
G01 X9.1064 Y11.6891 F80.00
G01 X9.2927 Y11.6120 F80.00
G01 X9.4905 Y11.5726 F80.00
G00 Z2.0000
G00 X10.5676 Y12.6023
G01 F60.00
G01 Z-0.1500
G01 F80.00
G01 X10.5630 Y12.6918 F80.00
G01 X10.5489 Y12.7866 F80.00
G01 X10.5257 Y12.8796 F80.00
G01 X10.4934 Y12.9698 F80.00
G01 X10.4524 Y13.0564 F80.00
G01 X10.4031 Y13.1386 F80.00
G01 X10.3461 Y13.2156 F80.00
G01 X10.2817 Y13.2866 F80.00
G01 X10.2107 Y13.3509 F80.00
G01 X10.1337 Y13.4080 F80.00
G01 X10.0516 Y13.4573 F80.00
G01 X9.9649 Y13.4983 F80.00
G01 X9.8747 Y13.5305 F80.00
G01 X9.7818 Y13.5538 F80.00
G01 X9.6870 Y13.5679 F80.00
G01 X9.5913 Y13.5726 F80.00
G01 X9.4955 Y13.5679 F80.00
G01 X9.4008 Y13.5538 F80.00
G01 X9.3078 Y13.5305 F80.00
G01 X9.2176 Y13.4983 F80.00
G01 X9.1310 Y13.4573 F80.00
G01 X9.0488 Y13.4080 F80.00
G01 X8.9718 Y13.3509 F80.00
G01 X8.9008 Y13.2866 F80.00
G01 X8.8365 Y13.2156 F80.00
G01 X8.7794 Y13.1386 F80.00
G01 X8.7301 Y13.0564 F80.00
G01 X8.6891 Y12.9698 F80.00
G01 X8.6569 Y12.8796 F80.00
G01 X8.6336 Y12.7866 F80.00
G01 X8.6195 Y12.6918 F80.00
G01 X8.6148 Y12.5961 F80.00
G01 X8.6195 Y12.5004 F80.00
G01 X8.6336 Y12.4056 F80.00
G01 X8.6569 Y12.3127 F80.00
G01 X8.6891 Y12.2225 F80.00
G01 X8.7301 Y12.1358 F80.00
G01 X8.7794 Y12.0537 F80.00
G01 X8.8365 Y11.9767 F80.00
G01 X8.9008 Y11.9057 F80.00
G01 X8.9718 Y11.8413 F80.00
G01 X9.0488 Y11.7842 F80.00
G01 X9.1310 Y11.7350 F80.00
G01 X9.2176 Y11.6940 F80.00
G01 X9.3078 Y11.6617 F80.00
G01 X9.4008 Y11.6385 F80.00
G01 X9.4955 Y11.6244 F80.00
G01 X9.5913 Y11.6197 F80.00
G01 X9.6870 Y11.6244 F80.00
G01 X9.7818 Y11.6385 F80.00
G01 X9.8747 Y11.6617 F80.00
G01 X9.9649 Y11.6940 F80.00
G01 X10.0516 Y11.7350 F80.00
G01 X10.1337 Y11.7842 F80.00
G01 X10.2107 Y11.8413 F80.00
G01 X10.2817 Y11.9057 F80.00
G01 X10.3461 Y11.9767 F80.00
G01 X10.4031 Y12.0537 F80.00
G01 X10.4524 Y12.1358 F80.00
G01 X10.4934 Y12.2225 F80.00
G01 X10.5257 Y12.3127 F80.00
G01 X10.5489 Y12.4056 F80.00
G01 X10.5630 Y12.5004 F80.00
G01 X10.5676 Y12.5899 F80.00
G01 X10.5676 Y12.6023 F80.00
G00 Z2.0000
G00 X10.5677 Y14.2861
G01 F60.00
G01 Z-0.1500
G01 F80.00
G01 X10.5677 Y15.9861 F80.00
G01 X10.5671 Y15.9985 F80.00
G01 X10.5658 Y16.0078 F80.00
G01 X10.5639 Y16.0169 F80.00
G01 X10.5613 Y16.0258 F80.00
G01 X10.5556 Y16.0402 F80.00
G01 X10.5513 Y16.0485 F80.00
G01 X10.5464 Y16.0564 F80.00
G01 X10.5409 Y16.0639 F80.00
G01 X10.5350 Y16.0711 F80.00
G01 X10.5285 Y16.0777 F80.00
G01 X10.5215 Y16.0839 F80.00
G01 X10.5089 Y16.0930 F80.00
G01 X10.5009 Y16.0977 F80.00
G01 X10.4925 Y16.1017 F80.00
G01 X10.4780 Y16.1071 F80.00
G01 X10.4690 Y16.1095 F80.00
G01 X10.4598 Y16.1112 F80.00
G01 X10.4506 Y16.1122 F80.00
G01 X10.4413 Y16.1126 F80.00
G01 X9.9744 Y16.1126 F80.00
G01 X9.9744 Y22.1007 F80.00
G01 X11.2874 Y23.4137 F80.00
G01 X11.2963 Y23.4194 F80.00
G01 X11.3237 Y23.4399 F80.00
G01 X11.3514 Y23.4650 F80.00
G01 X12.2124 Y24.3260 F80.00
G01 X12.2375 Y24.3537 F80.00
G01 X12.2562 Y24.3786 F80.00
G01 X12.2631 Y24.3889 F80.00
G01 X12.2804 Y24.4185 F80.00
G01 X12.2937 Y24.4466 F80.00
G01 X12.2971 Y24.4552 F80.00
G01 X12.3075 Y24.4846 F80.00
G01 X12.3152 Y24.5148 F80.00
G01 X12.3171 Y24.5239 F80.00
G01 X12.3217 Y24.5547 F80.00
G01 X12.3225 Y24.5640 F80.00
G01 X12.3238 Y24.5920 F80.00
G01 X12.3238 Y26.7370 F80.00
G01 X12.3220 Y26.7712 F80.00
G01 X12.3166 Y26.8081 F80.00
G01 X12.3075 Y26.8444 F80.00
G01 X12.2949 Y26.8795 F80.00
G01 X12.2789 Y26.9133 F80.00
G01 X12.2597 Y26.9453 F80.00
G01 X12.2375 Y26.9753 F80.00
G01 X12.2146 Y27.0008 F80.00
G01 X10.0760 Y29.1394 F80.00
G01 X10.0760 Y32.8882 F80.00
G01 X10.3404 Y33.1526 F80.00
G01 X10.3635 Y33.1779 F80.00
G01 X10.3693 Y33.1852 F80.00
G01 X10.3878 Y33.2103 F80.00
G01 X10.4070 Y33.2424 F80.00
G01 X10.4229 Y33.2761 F80.00
G01 X10.4346 Y33.3083 F80.00
G01 X10.4432 Y33.3415 F80.00
G01 X10.4456 Y33.3536 F80.00
G01 X10.4501 Y33.3845 F80.00
G01 X10.4519 Y33.4187 F80.00
G01 X10.4519 Y34.0006 F80.00
G01 X12.7404 Y36.2891 F80.00
G01 X12.7613 Y36.3121 F80.00
G01 X12.7671 Y36.3194 F80.00
G01 X12.7855 Y36.3445 F80.00
G01 X12.8017 Y36.3712 F80.00
G01 X12.8075 Y36.3821 F80.00
G01 X12.8207 Y36.4103 F80.00
G01 X12.8313 Y36.4396 F80.00
G01 X12.8341 Y36.4485 F80.00
G01 X12.8423 Y36.4817 F80.00
G01 X12.8471 Y36.5125 F80.00
G01 X12.8483 Y36.5248 F80.00
G01 X12.8497 Y36.5560 F80.00
G01 X12.8497 Y39.9292 F80.00
G01 X12.9294 Y39.9671 F80.00
G01 X13.0116 Y40.0163 F80.00
G01 X13.0885 Y40.0734 F80.00
G01 X13.1550 Y40.1335 F80.00
G01 X13.1638 Y40.1423 F80.00
G01 X13.2198 Y40.2041 F80.00
G01 X13.2277 Y40.2137 F80.00
G01 X13.2810 Y40.2858 F80.00
G01 X13.3272 Y40.3625 F80.00
G01 X13.3330 Y40.3735 F80.00
G01 X13.3687 Y40.4489 F80.00
G01 X13.3734 Y40.4604 F80.00
G01 X13.4035 Y40.5448 F80.00
G01 X13.4268 Y40.6377 F80.00
G01 X13.4401 Y40.7264 F80.00
G01 X13.4413 Y40.7387 F80.00
G01 X13.4455 Y40.8282 F80.00
G01 X13.4413 Y40.9178 F80.00
G01 X13.4401 Y40.9301 F80.00
G01 X13.4268 Y41.0187 F80.00
G01 X13.4051 Y41.1057 F80.00
G01 X13.4015 Y41.1176 F80.00
G01 X13.3734 Y41.1961 F80.00
G01 X13.3687 Y41.2076 F80.00
G01 X13.3302 Y41.2885 F80.00
G01 X13.2810 Y41.3707 F80.00
G01 X13.2239 Y41.4477 F80.00
G01 X13.1595 Y41.5187 F80.00
G01 X13.0885 Y41.5830 F80.00
G01 X13.0116 Y41.6401 F80.00
G01 X12.9294 Y41.6894 F80.00
G01 X12.8484 Y41.7278 F80.00
G01 X12.8370 Y41.7326 F80.00
G01 X12.7584 Y41.7607 F80.00
G01 X12.7465 Y41.7643 F80.00
G01 X12.6596 Y41.7859 F80.00
G01 X12.5709 Y41.7992 F80.00
G01 X12.5617 Y41.8003 F80.00
G01 X12.4691 Y41.8047 F80.00
G01 X12.3734 Y41.8000 F80.00
G01 X12.2786 Y41.7859 F80.00
G01 X12.1856 Y41.7626 F80.00
G01 X12.0954 Y41.7304 F80.00
G01 X12.0088 Y41.6894 F80.00
G01 X11.9266 Y41.6401 F80.00
G01 X11.8496 Y41.5830 F80.00
G01 X11.7786 Y41.5187 F80.00
G01 X11.7143 Y41.4477 F80.00
G01 X11.6572 Y41.3707 F80.00
G01 X11.6079 Y41.2885 F80.00
G01 X11.5670 Y41.2019 F80.00
G01 X11.5347 Y41.1117 F80.00
G01 X11.5114 Y41.0187 F80.00
G01 X11.4973 Y40.9239 F80.00
G01 X11.4926 Y40.8282 F80.00
G01 X11.4969 Y40.7387 F80.00
G01 X11.4981 Y40.7264 F80.00
G01 X11.5114 Y40.6377 F80.00
G01 X11.5347 Y40.5448 F80.00
G01 X11.5647 Y40.4604 F80.00
G01 X11.5695 Y40.4489 F80.00
G01 X11.6051 Y40.3735 F80.00
G01 X11.6110 Y40.3625 F80.00
G01 X11.6572 Y40.2858 F80.00
G01 X11.7105 Y40.2137 F80.00
G01 X11.7183 Y40.2041 F80.00
G01 X11.7743 Y40.1423 F80.00
G01 X11.7831 Y40.1335 F80.00
G01 X11.8496 Y40.0734 F80.00
G01 X11.9266 Y40.0163 F80.00
G01 X12.0088 Y39.9671 F80.00
G01 X12.0885 Y39.9292 F80.00
G01 X12.0885 Y36.7136 F80.00
G01 X9.8022 Y34.4273 F80.00
G01 X9.7812 Y34.4043 F80.00
G01 X9.7752 Y34.3972 F80.00
G01 X9.7549 Y34.3696 F80.00
G01 X9.7387 Y34.3430 F80.00
G01 X9.7329 Y34.3321 F80.00
G01 X9.7197 Y34.3038 F80.00
G01 X9.7071 Y34.2687 F80.00
G01 X9.6994 Y34.2385 F80.00
G01 X9.6970 Y34.2263 F80.00
G01 X9.6926 Y34.1955 F80.00
G01 X9.6907 Y34.1582 F80.00
G01 X9.6907 Y33.5794 F80.00
G01 X9.4263 Y33.3149 F80.00
G01 X9.4053 Y33.2920 F80.00
G01 X9.3974 Y33.2824 F80.00
G01 X9.3790 Y33.2573 F80.00
G01 X9.3628 Y33.2306 F80.00
G01 X9.3570 Y33.2197 F80.00
G01 X9.3438 Y33.1915 F80.00
G01 X9.3312 Y33.1563 F80.00
G01 X9.3235 Y33.1261 F80.00
G01 X9.3211 Y33.1140 F80.00
G01 X9.3164 Y33.0800 F80.00
G01 X9.3148 Y33.0458 F80.00
G01 X9.3148 Y28.9818 F80.00
G01 X9.3162 Y28.9507 F80.00
G01 X9.3174 Y28.9383 F80.00
G01 X9.3221 Y28.9076 F80.00
G01 X9.3303 Y28.8743 F80.00
G01 X9.3332 Y28.8654 F80.00
G01 X9.3438 Y28.8362 F80.00
G01 X9.3570 Y28.8079 F80.00
G01 X9.3628 Y28.7970 F80.00
G01 X9.3790 Y28.7704 F80.00
G01 X9.3974 Y28.7453 F80.00
G01 X9.4032 Y28.7380 F80.00
G01 X9.4241 Y28.7149 F80.00
G01 X11.5627 Y26.5763 F80.00
G01 X11.5627 Y24.7527 F80.00
G01 X10.8645 Y24.0545 F80.00
G01 X10.8556 Y24.0488 F80.00
G01 X10.8282 Y24.0283 F80.00
G01 X10.8005 Y24.0032 F80.00
G01 X9.3247 Y22.5274 F80.00
G01 X9.3037 Y22.5044 F80.00
G01 X9.2958 Y22.4948 F80.00
G01 X9.2774 Y22.4697 F80.00
G01 X9.2612 Y22.4431 F80.00
G01 X9.2554 Y22.4322 F80.00
G01 X9.2422 Y22.4039 F80.00
G01 X9.2316 Y22.3747 F80.00
G01 X9.2287 Y22.3658 F80.00
G01 X9.2205 Y22.3325 F80.00
G01 X9.2158 Y22.3018 F80.00
G01 X9.2146 Y22.2894 F80.00
G01 X9.2132 Y22.2583 F80.00
G01 X9.2132 Y16.1126 F80.00
G01 X8.7413 Y16.1126 F80.00
G01 X8.7320 Y16.1122 F80.00
G01 X8.7227 Y16.1112 F80.00
G01 X8.7075 Y16.1080 F80.00
G01 X8.6987 Y16.1052 F80.00
G01 X8.6900 Y16.1017 F80.00
G01 X8.6816 Y16.0977 F80.00
G01 X8.6736 Y16.0930 F80.00
G01 X8.6659 Y16.0877 F80.00
G01 X8.6587 Y16.0819 F80.00
G01 X8.6476 Y16.0711 F80.00
G01 X8.6416 Y16.0639 F80.00
G01 X8.6361 Y16.0564 F80.00
G01 X8.6283 Y16.0430 F80.00
G01 X8.6244 Y16.0345 F80.00
G01 X8.6212 Y16.0258 F80.00
G01 X8.6186 Y16.0169 F80.00
G01 X8.6167 Y16.0078 F80.00
G01 X8.6152 Y15.9954 F80.00
G01 X8.6148 Y15.9861 F80.00
G01 X8.6148 Y14.2861 F80.00
G01 X8.6152 Y14.2768 F80.00
G01 X8.6167 Y14.2645 F80.00
G01 X8.6194 Y14.2524 F80.00
G01 X8.6233 Y14.2406 F80.00
G01 X8.6269 Y14.2321 F80.00
G01 X8.6312 Y14.2238 F80.00
G01 X8.6379 Y14.2133 F80.00
G01 X8.6455 Y14.2035 F80.00
G01 X8.6518 Y14.1967 F80.00
G01 X8.6610 Y14.1884 F80.00
G01 X8.6710 Y14.1810 F80.00
G01 X8.6816 Y14.1746 F80.00
G01 X8.6900 Y14.1705 F80.00
G01 X8.6987 Y14.1671 F80.00
G01 X8.7105 Y14.1635 F80.00
G01 X8.7196 Y14.1615 F80.00
G01 X8.7320 Y14.1600 F80.00
G01 X8.7413 Y14.1597 F80.00
G01 X10.4413 Y14.1597 F80.00
G01 X10.4537 Y14.1603 F80.00
G01 X10.4659 Y14.1621 F80.00
G01 X10.4780 Y14.1651 F80.00
G01 X10.4896 Y14.1693 F80.00
G01 X10.5009 Y14.1746 F80.00
G01 X10.5115 Y14.1810 F80.00
G01 X10.5215 Y14.1884 F80.00
G01 X10.5307 Y14.1967 F80.00
G01 X10.5390 Y14.2059 F80.00
G01 X10.5464 Y14.2159 F80.00
G01 X10.5528 Y14.2265 F80.00
G01 X10.5581 Y14.2377 F80.00
G01 X10.5623 Y14.2494 F80.00
G01 X10.5653 Y14.2615 F80.00
G01 X10.5671 Y14.2737 F80.00
G01 X10.5677 Y14.2861 F80.00
G00 Z2.0000
G00 X13.7880 Y11.9793
G01 F60.00
G01 Z-0.1500
G01 F80.00
G01 X14.5214 Y11.9793 F80.00
G01 X14.5525 Y11.9807 F80.00
G01 X14.5649 Y11.9819 F80.00
G01 X14.5956 Y11.9867 F80.00
G01 X14.6319 Y11.9957 F80.00
G01 X14.6670 Y12.0083 F80.00
G01 X14.7008 Y12.0243 F80.00
G01 X14.7276 Y12.0402 F80.00
G01 X14.7379 Y12.0471 F80.00
G01 X14.7628 Y12.0657 F80.00
G01 X14.7883 Y12.0886 F80.00
G01 X15.4687 Y12.7690 F80.00
G01 X15.4938 Y12.7967 F80.00
G01 X15.5160 Y12.8267 F80.00
G01 X15.5352 Y12.8587 F80.00
G01 X15.5487 Y12.8868 F80.00
G01 X15.5523 Y12.8953 F80.00
G01 X15.5638 Y12.9276 F80.00
G01 X15.5728 Y12.9639 F80.00
G01 X15.5783 Y13.0008 F80.00
G01 X15.5801 Y13.0350 F80.00
G01 X15.5802 Y14.7191 F80.00
G01 X15.6363 Y14.7458 F80.00
G01 X15.7117 Y14.7909 F80.00
G01 X15.7194 Y14.7961 F80.00
G01 X15.7824 Y14.8429 F80.00
G01 X15.7897 Y14.8487 F80.00
G01 X15.8547 Y14.9078 F80.00
G01 X15.9117 Y14.9704 F80.00
G01 X15.9196 Y14.9800 F80.00
G01 X15.9663 Y15.0431 F80.00
G01 X15.9716 Y15.0508 F80.00
G01 X16.0166 Y15.1261 F80.00
G01 X16.0530 Y15.2026 F80.00
G01 X16.0577 Y15.2141 F80.00
G01 X16.0861 Y15.2939 F80.00
G01 X16.1069 Y15.3761 F80.00
G01 X16.1093 Y15.3882 F80.00
G01 X16.1216 Y15.4721 F80.00
G01 X16.1260 Y15.5629 F80.00
G01 X16.1216 Y15.6537 F80.00
G01 X16.1093 Y15.7375 F80.00
G01 X16.1069 Y15.7497 F80.00
G01 X16.0861 Y15.8318 F80.00
G01 X16.0555 Y15.9174 F80.00
G01 X16.0194 Y15.9940 F80.00
G01 X16.0136 Y16.0050 F80.00
G01 X15.9699 Y16.0776 F80.00
G01 X15.9196 Y16.1457 F80.00
G01 X15.9117 Y16.1553 F80.00
G01 X15.8547 Y16.2180 F80.00
G01 X15.7873 Y16.2790 F80.00
G01 X15.7143 Y16.3332 F80.00
G01 X15.6417 Y16.3769 F80.00
G01 X15.6308 Y16.3827 F80.00
G01 X15.5598 Y16.4163 F80.00
G01 X15.5512 Y16.4199 F80.00
G01 X15.4685 Y16.4494 F80.00
G01 X15.3864 Y16.4701 F80.00
G01 X15.3742 Y16.4726 F80.00
G01 X15.2904 Y16.4848 F80.00
G01 X15.2058 Y16.4892 F80.00
G01 X15.1934 Y16.4892 F80.00
G01 X15.1150 Y16.4853 F80.00
G01 X15.1026 Y16.4841 F80.00
G01 X15.0188 Y16.4715 F80.00
G01 X14.9306 Y16.4494 F80.00
G01 X14.8450 Y16.4188 F80.00
G01 X14.7629 Y16.3799 F80.00
G01 X14.6849 Y16.3332 F80.00
G01 X14.6118 Y16.2790 F80.00
G01 X14.5445 Y16.2180 F80.00
G01 X14.4875 Y16.1553 F80.00
G01 X14.4796 Y16.1457 F80.00
G01 X14.4293 Y16.0776 F80.00
G01 X14.3856 Y16.0050 F80.00
G01 X14.3797 Y15.9940 F80.00
G01 X14.3462 Y15.9231 F80.00
G01 X14.3414 Y15.9116 F80.00
G01 X14.3130 Y15.8318 F80.00
G01 X14.2916 Y15.7466 F80.00
G01 X14.2899 Y15.7375 F80.00
G01 X14.2776 Y15.6537 F80.00
G01 X14.2733 Y15.5691 F80.00
G01 X14.2733 Y15.5567 F80.00
G01 X14.2771 Y15.4782 F80.00
G01 X14.2783 Y15.4659 F80.00
G01 X14.2909 Y15.3821 F80.00
G01 X14.3130 Y15.2939 F80.00
G01 X14.3436 Y15.2083 F80.00
G01 X14.3811 Y15.1289 F80.00
G01 X14.3856 Y15.1207 F80.00
G01 X14.4293 Y15.0482 F80.00
G01 X14.4796 Y14.9800 F80.00
G01 X14.4875 Y14.9704 F80.00
G01 X14.5402 Y14.9123 F80.00
G01 X14.5467 Y14.9056 F80.00
G01 X14.6118 Y14.8467 F80.00
G01 X14.6849 Y14.7925 F80.00
G01 X14.7629 Y14.7458 F80.00
G01 X14.8190 Y14.7191 F80.00
G01 X14.8190 Y13.1957 F80.00
G01 X14.3638 Y12.7405 F80.00
G01 X13.5021 Y12.7405 F80.00
G01 X13.4833 Y12.7658 F80.00
G01 X13.4775 Y12.7730 F80.00
G01 X13.3931 Y12.8662 F80.00
G01 X13.3866 Y12.8729 F80.00
G01 X13.2887 Y12.9614 F80.00
G01 X13.1853 Y13.0383 F80.00
G01 X13.1777 Y13.0435 F80.00
G01 X13.0644 Y13.1113 F80.00
G01 X12.9424 Y13.1690 F80.00
G01 X12.8152 Y13.2145 F80.00
G01 X12.6903 Y13.2460 F80.00
G01 X12.6812 Y13.2479 F80.00
G01 X12.5506 Y13.2671 F80.00
G01 X12.4219 Y13.2736 F80.00
G01 X12.4095 Y13.2736 F80.00
G01 X12.2809 Y13.2671 F80.00
G01 X12.1534 Y13.2484 F80.00
G01 X12.1412 Y13.2460 F80.00
G01 X12.0163 Y13.2145 F80.00
G01 X11.8920 Y13.1702 F80.00
G01 X11.8834 Y13.1665 F80.00
G01 X11.7726 Y13.1141 F80.00
G01 X11.7616 Y13.1082 F80.00
G01 X11.6512 Y13.0418 F80.00
G01 X11.5427 Y12.9614 F80.00
G01 X11.4427 Y12.8707 F80.00
G01 X11.3560 Y12.7753 F80.00
G01 X11.3482 Y12.7658 F80.00
G01 X11.2751 Y12.6672 F80.00
G01 X11.2682 Y12.6569 F80.00
G01 X11.2021 Y12.5463 F80.00
G01 X11.1444 Y12.4243 F80.00
G01 X11.0989 Y12.2971 F80.00
G01 X11.0674 Y12.1722 F80.00
G01 X11.0650 Y12.1600 F80.00
G01 X11.0470 Y12.0387 F80.00
G01 X11.0458 Y12.0263 F80.00
G01 X11.0396 Y11.8976 F80.00
G01 X11.0460 Y11.7658 F80.00
G01 X11.0470 Y11.7566 F80.00
G01 X11.0661 Y11.6292 F80.00
G01 X11.0989 Y11.4982 F80.00
G01 X11.1444 Y11.3710 F80.00
G01 X11.2021 Y11.2489 F80.00
G01 X11.2715 Y11.1331 F80.00
G01 X11.3520 Y11.0246 F80.00
G01 X11.4427 Y10.9246 F80.00
G01 X11.5427 Y10.8339 F80.00
G01 X11.6512 Y10.7534 F80.00
G01 X11.7670 Y10.6840 F80.00
G01 X11.8891 Y10.6263 F80.00
G01 X12.0163 Y10.5808 F80.00
G01 X12.1473 Y10.5480 F80.00
G01 X12.2809 Y10.5281 F80.00
G01 X12.4157 Y10.5215 F80.00
G01 X12.5475 Y10.5279 F80.00
G01 X12.5568 Y10.5289 F80.00
G01 X12.6842 Y10.5480 F80.00
G01 X12.8152 Y10.5808 F80.00
G01 X12.9424 Y10.6263 F80.00
G01 X13.0644 Y10.6840 F80.00
G01 X13.1803 Y10.7534 F80.00
G01 X13.2887 Y10.8339 F80.00
G01 X13.3888 Y10.9246 F80.00
G01 X13.4775 Y11.0223 F80.00
G01 X13.4833 Y11.0295 F80.00
G01 X13.5599 Y11.1331 F80.00
G01 X13.6294 Y11.2489 F80.00
G01 X13.6871 Y11.3710 F80.00
G01 X13.7317 Y11.4952 F80.00
G01 X13.7343 Y11.5042 F80.00
G01 X13.7654 Y11.6292 F80.00
G01 X13.7849 Y11.7597 F80.00
G01 X13.7857 Y11.7689 F80.00
G01 X13.7918 Y11.8945 F80.00
G01 X13.7917 Y11.9038 F80.00
G01 X13.7880 Y11.9793 F80.00
G00 Z2.0000
G00 X12.2756 Y10.4745
G01 F60.00
G01 Z-0.1500
G01 F80.00
G01 X12.5559 Y10.4745 F80.00
G01 X12.8309 Y10.5291 F80.00
G01 X13.0899 Y10.6364 F80.00
G01 X13.3230 Y10.7922 F80.00
G01 X13.5212 Y10.9904 F80.00
G01 X13.6769 Y11.2235 F80.00
G01 X13.7842 Y11.4825 F80.00
G01 X13.8375 Y11.7501 F80.00
G01 X13.8429 Y11.7717 F80.00
G01 X13.8481 Y11.7868 F80.00
G01 X13.8516 Y11.7954 F80.00
G01 X13.8598 Y11.8127 F80.00
G01 X13.8680 Y11.8265 F80.00
G01 X13.8730 Y11.8343 F80.00
G01 X13.8826 Y11.8472 F80.00
G01 X13.8886 Y11.8543 F80.00
G01 X13.8994 Y11.8661 F80.00
G01 X13.9112 Y11.8770 F80.00
G01 X13.9208 Y11.8848 F80.00
G01 X13.9364 Y11.8959 F80.00
G01 X13.9528 Y11.9057 F80.00
G01 X13.9701 Y11.9140 F80.00
G01 X13.9880 Y11.9207 F80.00
G01 X13.9998 Y11.9243 F80.00
G01 X14.0154 Y11.9281 F80.00
G01 X14.0374 Y11.9313 F80.00
G01 X14.0596 Y11.9324 F80.00
G01 X14.4893 Y11.9324 F80.00
G01 X14.5084 Y11.9316 F80.00
G01 X14.5214 Y11.9304 F80.00
G01 X14.6052 Y11.9386 F80.00
G01 X14.6858 Y11.9630 F80.00
G01 X14.7601 Y12.0027 F80.00
G01 X14.8251 Y12.0562 F80.00
G01 X14.8335 Y12.0662 F80.00
G01 X14.8464 Y12.0803 F80.00
G01 X15.4792 Y12.7131 F80.00
G01 X15.4932 Y12.7260 F80.00
G01 X15.5033 Y12.7343 F80.00
G01 X15.5568 Y12.7994 F80.00
G01 X15.5964 Y12.8737 F80.00
G01 X15.6209 Y12.9543 F80.00
G01 X15.6291 Y13.0381 F80.00
G01 X15.6279 Y13.0511 F80.00
G01 X15.6271 Y13.0702 F80.00
G01 X15.6271 Y14.5566 F80.00
G01 X15.6282 Y14.5788 F80.00
G01 X15.6304 Y14.5947 F80.00
G01 X15.6321 Y14.6038 F80.00
G01 X15.6368 Y14.6224 F80.00
G01 X15.6421 Y14.6375 F80.00
G01 X15.6455 Y14.6461 F80.00
G01 X15.6524 Y14.6606 F80.00
G01 X15.6569 Y14.6688 F80.00
G01 X15.6653 Y14.6825 F80.00
G01 X15.6747 Y14.6954 F80.00
G01 X15.6805 Y14.7027 F80.00
G01 X15.6956 Y14.7189 F80.00
G01 X15.7075 Y14.7297 F80.00
G01 X15.7148 Y14.7355 F80.00
G01 X15.7277 Y14.7449 F80.00
G01 X15.8201 Y14.8067 F80.00
G01 X15.9557 Y14.9423 F80.00
G01 X16.0623 Y15.1017 F80.00
G01 X16.1357 Y15.2789 F80.00
G01 X16.1731 Y15.4670 F80.00
G01 X16.1731 Y15.6587 F80.00
G01 X16.1357 Y15.8468 F80.00
G01 X16.0623 Y16.0240 F80.00
G01 X15.9557 Y16.1834 F80.00
G01 X15.8201 Y16.3190 F80.00
G01 X15.6607 Y16.4256 F80.00
G01 X15.4835 Y16.4989 F80.00
G01 X15.2955 Y16.5364 F80.00
G01 X15.1037 Y16.5364 F80.00
G01 X14.9156 Y16.4989 F80.00
G01 X14.7385 Y16.4256 F80.00
G01 X14.5790 Y16.3190 F80.00
G01 X14.4434 Y16.1834 F80.00
G01 X14.3369 Y16.0240 F80.00
G01 X14.2635 Y15.8468 F80.00
G01 X14.2261 Y15.6587 F80.00
G01 X14.2261 Y15.4670 F80.00
G01 X14.2635 Y15.2789 F80.00
G01 X14.3369 Y15.1017 F80.00
G01 X14.4434 Y14.9423 F80.00
G01 X14.5790 Y14.8067 F80.00
G01 X14.6714 Y14.7449 F80.00
G01 X14.6844 Y14.7355 F80.00
G01 X14.6916 Y14.7297 F80.00
G01 X14.7035 Y14.7189 F80.00
G01 X14.7187 Y14.7027 F80.00
G01 X14.7322 Y14.6850 F80.00
G01 X14.7423 Y14.6688 F80.00
G01 X14.7481 Y14.6578 F80.00
G01 X14.7560 Y14.6404 F80.00
G01 X14.7623 Y14.6224 F80.00
G01 X14.7677 Y14.6008 F80.00
G01 X14.7710 Y14.5788 F80.00
G01 X14.7719 Y14.5628 F80.00
G01 X14.7721 Y13.3090 F80.00
G01 X14.7710 Y13.2868 F80.00
G01 X14.7688 Y13.2709 F80.00
G01 X14.7671 Y13.2618 F80.00
G01 X14.7623 Y13.2432 F80.00
G01 X14.7571 Y13.2281 F80.00
G01 X14.7536 Y13.2195 F80.00
G01 X14.7468 Y13.2050 F80.00
G01 X14.7423 Y13.1968 F80.00
G01 X14.7339 Y13.1832 F80.00
G01 X14.7245 Y13.1702 F80.00
G01 X14.7187 Y13.1629 F80.00
G01 X14.7057 Y13.1488 F80.00
G01 X14.4107 Y12.8538 F80.00
G01 X14.3966 Y12.8408 F80.00
G01 X14.3814 Y12.8292 F80.00
G01 X14.3711 Y12.8223 F80.00
G01 X14.3573 Y12.8142 F80.00
G01 X14.3372 Y12.8047 F80.00
G01 X14.3163 Y12.7972 F80.00
G01 X14.2977 Y12.7924 F80.00
G01 X14.2789 Y12.7893 F80.00
G01 X14.2665 Y12.7881 F80.00
G01 X14.2505 Y12.7874 F80.00
G01 X13.6325 Y12.7874 F80.00
G01 X13.6103 Y12.7885 F80.00
G01 X13.5944 Y12.7907 F80.00
G01 X13.5852 Y12.7924 F80.00
G01 X13.5637 Y12.7981 F80.00
G01 X13.5429 Y12.8059 F80.00
G01 X13.5230 Y12.8157 F80.00
G01 X13.5092 Y12.8239 F80.00
G01 X13.5015 Y12.8292 F80.00
G01 X13.4888 Y12.8388 F80.00
G01 X13.4745 Y12.8516 F80.00
G01 X13.3230 Y13.0031 F80.00
G01 X13.0899 Y13.1588 F80.00
G01 X12.8309 Y13.2661 F80.00
G01 X12.5559 Y13.3208 F80.00
G01 X12.2756 Y13.3208 F80.00
G01 X12.0006 Y13.2661 F80.00
G01 X11.7416 Y13.1588 F80.00
G01 X11.5085 Y13.0031 F80.00
G01 X11.3103 Y12.8049 F80.00
G01 X11.1545 Y12.5718 F80.00
G01 X11.0472 Y12.3128 F80.00
G01 X10.9926 Y12.0378 F80.00
G01 X10.9926 Y11.7575 F80.00
G01 X11.0472 Y11.4825 F80.00
G01 X11.1545 Y11.2235 F80.00
G01 X11.3103 Y10.9904 F80.00
G01 X11.5085 Y10.7922 F80.00
G01 X11.7416 Y10.6364 F80.00
G01 X12.0006 Y10.5291 F80.00
G01 X12.2756 Y10.4745 F80.00
G00 Z2.0000
G00 X17.4057 Y10.7743
G01 F60.00
G01 Z-0.1500
G01 F80.00
G01 X17.2770 Y10.7678 F80.00
G01 X17.1434 Y10.7480 F80.00
G01 X17.0124 Y10.7152 F80.00
G01 X16.8853 Y10.6697 F80.00
G01 X16.7632 Y10.6119 F80.00
G01 X16.6474 Y10.5425 F80.00
G01 X16.5389 Y10.4620 F80.00
G01 X16.4388 Y10.3713 F80.00
G01 X16.3482 Y10.2713 F80.00
G01 X16.2677 Y10.1628 F80.00
G01 X16.1983 Y10.0470 F80.00
G01 X16.1405 Y9.9249 F80.00
G01 X16.0950 Y9.7977 F80.00
G01 X16.0622 Y9.6667 F80.00
G01 X16.0424 Y9.5332 F80.00
G01 X16.0358 Y9.3983 F80.00
G01 X16.0424 Y9.2634 F80.00
G01 X16.0622 Y9.1298 F80.00
G01 X16.0950 Y8.9988 F80.00
G01 X16.1405 Y8.8717 F80.00
G01 X16.1983 Y8.7496 F80.00
G01 X16.2677 Y8.6337 F80.00
G01 X16.3482 Y8.5253 F80.00
G01 X16.4388 Y8.4252 F80.00
G01 X16.5389 Y8.3345 F80.00
G01 X16.6474 Y8.2541 F80.00
G01 X16.7632 Y8.1846 F80.00
G01 X16.8853 Y8.1269 F80.00
G01 X17.0124 Y8.0814 F80.00
G01 X17.1434 Y8.0486 F80.00
G01 X17.2770 Y8.0288 F80.00
G01 X17.4119 Y8.0221 F80.00
G01 X17.5468 Y8.0288 F80.00
G01 X17.6804 Y8.0486 F80.00
G01 X17.8114 Y8.0814 F80.00
G01 X17.9385 Y8.1269 F80.00
G01 X18.0606 Y8.1846 F80.00
G01 X18.1765 Y8.2541 F80.00
G01 X18.2849 Y8.3345 F80.00
G01 X18.3850 Y8.4252 F80.00
G01 X18.4757 Y8.5253 F80.00
G01 X18.5561 Y8.6337 F80.00
G01 X18.6256 Y8.7496 F80.00
G01 X18.6833 Y8.8717 F80.00
G01 X18.7288 Y8.9988 F80.00
G01 X18.7616 Y9.1298 F80.00
G01 X18.7814 Y9.2634 F80.00
G01 X18.7880 Y9.3983 F80.00
G01 X18.7814 Y9.5332 F80.00
G01 X18.7616 Y9.6667 F80.00
G01 X18.7288 Y9.7977 F80.00
G01 X18.6833 Y9.9249 F80.00
G01 X18.6256 Y10.0470 F80.00
G01 X18.5561 Y10.1628 F80.00
G01 X18.4757 Y10.2713 F80.00
G01 X18.3850 Y10.3713 F80.00
G01 X18.2849 Y10.4620 F80.00
G01 X18.1765 Y10.5425 F80.00
G01 X18.0606 Y10.6119 F80.00
G01 X17.9385 Y10.6697 F80.00
G01 X17.8114 Y10.7152 F80.00
G01 X17.6804 Y10.7480 F80.00
G01 X17.5468 Y10.7678 F80.00
G01 X17.4181 Y10.7743 F80.00
G01 X17.4057 Y10.7743 F80.00
G00 Z2.0000
G00 X17.2717 Y7.9751
G01 F60.00
G01 Z-0.1500
G01 F80.00
G01 X17.5521 Y7.9751 F80.00
G01 X17.8270 Y8.0298 F80.00
G01 X18.0860 Y8.1371 F80.00
G01 X18.3191 Y8.2928 F80.00
G01 X18.5174 Y8.4911 F80.00
G01 X18.6731 Y8.7241 F80.00
G01 X18.7804 Y8.9832 F80.00
G01 X18.8351 Y9.2581 F80.00
G01 X18.8351 Y9.5384 F80.00
G01 X18.7804 Y9.8134 F80.00
G01 X18.6731 Y10.0724 F80.00
G01 X18.5174 Y10.3055 F80.00
G01 X18.3191 Y10.5037 F80.00
G01 X18.0860 Y10.6595 F80.00
G01 X17.8270 Y10.7668 F80.00
G01 X17.5521 Y10.8215 F80.00
G01 X17.2717 Y10.8215 F80.00
G01 X16.9968 Y10.7668 F80.00
G01 X16.7378 Y10.6595 F80.00
G01 X16.5047 Y10.5037 F80.00
G01 X16.3065 Y10.3055 F80.00
G01 X16.1507 Y10.0724 F80.00
G01 X16.0434 Y9.8134 F80.00
G01 X15.9887 Y9.5384 F80.00
G01 X15.9887 Y9.2581 F80.00
G01 X16.0434 Y8.9832 F80.00
G01 X16.1507 Y8.7241 F80.00
G01 X16.3065 Y8.4911 F80.00
G01 X16.5047 Y8.2928 F80.00
G01 X16.7378 Y8.1371 F80.00
G01 X16.9968 Y8.0298 F80.00
G01 X17.2717 Y7.9751 F80.00
G00 Z2.0000
G00 X18.1439 Y14.7826
G01 F60.00
G01 Z-0.1500
G01 F80.00
G01 X18.1439 Y13.3550 F80.00
G01 X18.1457 Y13.3208 F80.00
G01 X18.1512 Y13.2839 F80.00
G01 X18.1602 Y13.2477 F80.00
G01 X18.1728 Y13.2125 F80.00
G01 X18.1888 Y13.1787 F80.00
G01 X18.2080 Y13.1467 F80.00
G01 X18.2302 Y13.1167 F80.00
G01 X18.2532 Y13.0913 F80.00
G01 X19.2535 Y12.0908 F80.00
G01 X19.2812 Y12.0657 F80.00
G01 X19.3112 Y12.0435 F80.00
G01 X19.3433 Y12.0243 F80.00
G01 X19.3713 Y12.0108 F80.00
G01 X19.3828 Y12.0061 F80.00
G01 X19.4122 Y11.9957 F80.00
G01 X19.4424 Y11.9880 F80.00
G01 X19.4545 Y11.9856 F80.00
G01 X19.4854 Y11.9812 F80.00
G01 X19.5165 Y11.9795 F80.00
G01 X21.0358 Y11.9793 F80.00
G01 X21.0321 Y11.9038 F80.00
G01 X21.0320 Y11.8945 F80.00
G01 X21.0381 Y11.7689 F80.00
G01 X21.0389 Y11.7597 F80.00
G01 X21.0584 Y11.6292 F80.00
G01 X21.0896 Y11.5042 F80.00
G01 X21.0922 Y11.4952 F80.00
G01 X21.1367 Y11.3710 F80.00
G01 X21.1945 Y11.2489 F80.00
G01 X21.2639 Y11.1331 F80.00
G01 X21.3424 Y11.0271 F80.00
G01 X21.3484 Y11.0199 F80.00
G01 X21.4350 Y10.9246 F80.00
G01 X21.5304 Y10.8379 F80.00
G01 X21.5400 Y10.8301 F80.00
G01 X21.6385 Y10.7570 F80.00
G01 X21.6488 Y10.7501 F80.00
G01 X21.7594 Y10.6840 F80.00
G01 X21.8815 Y10.6263 F80.00
G01 X22.0086 Y10.5808 F80.00
G01 X22.1366 Y10.5486 F80.00
G01 X22.1457 Y10.5469 F80.00
G01 X22.2671 Y10.5289 F80.00
G01 X22.2794 Y10.5277 F80.00
G01 X22.4081 Y10.5215 F80.00
G01 X22.5430 Y10.5281 F80.00
G01 X22.6766 Y10.5480 F80.00
G01 X22.8016 Y10.5791 F80.00
G01 X22.8135 Y10.5827 F80.00
G01 X22.9347 Y10.6263 F80.00
G01 X23.0513 Y10.6812 F80.00
G01 X23.0622 Y10.6871 F80.00
G01 X23.1726 Y10.7534 F80.00
G01 X23.2811 Y10.8339 F80.00
G01 X23.3812 Y10.9246 F80.00
G01 X23.4678 Y11.0199 F80.00
G01 X23.4757 Y11.0295 F80.00
G01 X23.5523 Y11.1331 F80.00
G01 X23.6217 Y11.2489 F80.00
G01 X23.6795 Y11.3710 F80.00
G01 X23.7250 Y11.4982 F80.00
G01 X23.7564 Y11.6231 F80.00
G01 X23.7588 Y11.6353 F80.00
G01 X23.7776 Y11.7628 F80.00
G01 X23.7841 Y11.8914 F80.00
G01 X23.7841 Y11.9038 F80.00
G01 X23.7776 Y12.0325 F80.00
G01 X23.7588 Y12.1600 F80.00
G01 X23.7564 Y12.1722 F80.00
G01 X23.7266 Y12.2911 F80.00
G01 X23.7230 Y12.3030 F80.00
G01 X23.6795 Y12.4243 F80.00
G01 X23.6217 Y12.5463 F80.00
G01 X23.5523 Y12.6622 F80.00
G01 X23.4719 Y12.7706 F80.00
G01 X23.3812 Y12.8707 F80.00
G01 X23.2811 Y12.9614 F80.00
G01 X23.1726 Y13.0418 F80.00
G01 X23.0622 Y13.1082 F80.00
G01 X23.0540 Y13.1127 F80.00
G01 X22.9347 Y13.1690 F80.00
G01 X22.8135 Y13.2126 F80.00
G01 X22.8016 Y13.2162 F80.00
G01 X22.6766 Y13.2473 F80.00
G01 X22.5430 Y13.2671 F80.00
G01 X22.4143 Y13.2736 F80.00
G01 X22.4019 Y13.2736 F80.00
G01 X22.2732 Y13.2671 F80.00
G01 X22.1396 Y13.2473 F80.00
G01 X22.0086 Y13.2145 F80.00
G01 X21.8815 Y13.1690 F80.00
G01 X21.7649 Y13.1141 F80.00
G01 X21.7567 Y13.1098 F80.00
G01 X21.6436 Y13.0418 F80.00
G01 X21.5400 Y12.9652 F80.00
G01 X21.5327 Y12.9594 F80.00
G01 X21.4395 Y12.8750 F80.00
G01 X21.4329 Y12.8685 F80.00
G01 X21.3463 Y12.7730 F80.00
G01 X21.3405 Y12.7658 F80.00
G01 X21.3218 Y12.7405 F80.00
G01 X19.6803 Y12.7405 F80.00
G01 X18.9050 Y13.5158 F80.00
G01 X18.9050 Y14.7826 F80.00
G01 X18.9612 Y14.8093 F80.00
G01 X19.0365 Y14.8544 F80.00
G01 X19.0442 Y14.8596 F80.00
G01 X19.1073 Y14.9064 F80.00
G01 X19.1145 Y14.9122 F80.00
G01 X19.1795 Y14.9713 F80.00
G01 X19.2365 Y15.0339 F80.00
G01 X19.2444 Y15.0435 F80.00
G01 X19.2912 Y15.1066 F80.00
G01 X19.2964 Y15.1143 F80.00
G01 X19.3415 Y15.1896 F80.00
G01 X19.3779 Y15.2661 F80.00
G01 X19.3826 Y15.2776 F80.00
G01 X19.4110 Y15.3574 F80.00
G01 X19.4317 Y15.4396 F80.00
G01 X19.4341 Y15.4517 F80.00
G01 X19.4464 Y15.5356 F80.00
G01 X19.4509 Y15.6264 F80.00
G01 X19.4464 Y15.7172 F80.00
G01 X19.4341 Y15.8010 F80.00
G01 X19.4317 Y15.8132 F80.00
G01 X19.4110 Y15.8953 F80.00
G01 X19.3804 Y15.9809 F80.00
G01 X19.3443 Y16.0575 F80.00
G01 X19.3384 Y16.0685 F80.00
G01 X19.2948 Y16.1411 F80.00
G01 X19.2444 Y16.2092 F80.00
G01 X19.2365 Y16.2188 F80.00
G01 X19.1795 Y16.2815 F80.00
G01 X19.1122 Y16.3425 F80.00
G01 X19.0442 Y16.3931 F80.00
G01 X19.0339 Y16.4000 F80.00
G01 X18.9612 Y16.4434 F80.00
G01 X18.8818 Y16.4811 F80.00
G01 X18.8732 Y16.4845 F80.00
G01 X18.7934 Y16.5129 F80.00
G01 X18.7052 Y16.5350 F80.00
G01 X18.6152 Y16.5483 F80.00
G01 X18.5244 Y16.5528 F80.00
G01 X18.4336 Y16.5483 F80.00
G01 X18.3437 Y16.5350 F80.00
G01 X18.2555 Y16.5129 F80.00
G01 X18.1699 Y16.4823 F80.00
G01 X18.0877 Y16.4434 F80.00
G01 X18.0097 Y16.3967 F80.00
G01 X17.9367 Y16.3425 F80.00
G01 X17.8693 Y16.2815 F80.00
G01 X17.8083 Y16.2141 F80.00
G01 X17.7541 Y16.1411 F80.00
G01 X17.7074 Y16.0631 F80.00
G01 X17.6697 Y15.9837 F80.00
G01 X17.6663 Y15.9751 F80.00
G01 X17.6379 Y15.8953 F80.00
G01 X17.6158 Y15.8071 F80.00
G01 X17.6024 Y15.7172 F80.00
G01 X17.5980 Y15.6264 F80.00
G01 X17.6024 Y15.5356 F80.00
G01 X17.6158 Y15.4456 F80.00
G01 X17.6379 Y15.3574 F80.00
G01 X17.6674 Y15.2747 F80.00
G01 X17.6710 Y15.2661 F80.00
G01 X17.7074 Y15.1896 F80.00
G01 X17.7541 Y15.1117 F80.00
G01 X17.8083 Y15.0386 F80.00
G01 X17.8672 Y14.9735 F80.00
G01 X17.8738 Y14.9670 F80.00
G01 X17.9367 Y14.9102 F80.00
G01 X18.0072 Y14.8578 F80.00
G01 X18.0150 Y14.8527 F80.00
G01 X18.0877 Y14.8093 F80.00
G01 X18.1439 Y14.7826 F80.00
G00 Z2.0000
G00 X24.9319 Y18.0476
G01 F60.00
G01 Z-0.1500
G01 F80.00
G01 X24.9040 Y18.0407 F80.00
G01 X24.8894 Y18.0378 F80.00
G01 X24.7970 Y18.0241 F80.00
G01 X24.7747 Y18.0221 F80.00
G01 X24.6963 Y18.0183 F80.00
G01 X24.6814 Y18.0179 F80.00
G01 X24.6665 Y18.0183 F80.00
G01 X24.5881 Y18.0221 F80.00
G01 X24.5658 Y18.0241 F80.00
G01 X24.4734 Y18.0378 F80.00
G01 X24.4588 Y18.0407 F80.00
G01 X24.4309 Y18.0476 F80.00
G01 X24.4284 Y18.0330 F80.00
G01 X24.4243 Y18.0153 F80.00
G01 X24.9385 Y18.0153 F80.00
G01 X24.9344 Y18.0330 F80.00
G01 X24.9319 Y18.0476 F80.00
G00 Z2.0000
G00 X25.6077 Y19.1276
G01 F60.00
G01 Z-0.1500
G01 F80.00
G01 X25.6034 Y19.2122 F80.00
G01 X25.5900 Y19.3021 F80.00
G01 X25.5680 Y19.3903 F80.00
G01 X25.5373 Y19.4759 F80.00
G01 X25.4985 Y19.5581 F80.00
G01 X25.4517 Y19.6361 F80.00
G01 X25.3976 Y19.7091 F80.00
G01 X25.3365 Y19.7765 F80.00
G01 X25.2691 Y19.8376 F80.00
G01 X25.1961 Y19.8917 F80.00
G01 X25.1181 Y19.9385 F80.00
G01 X25.0359 Y19.9773 F80.00
G01 X24.9503 Y20.0080 F80.00
G01 X24.8621 Y20.0300 F80.00
G01 X24.7722 Y20.0434 F80.00
G01 X24.6814 Y20.0478 F80.00
G01 X24.5906 Y20.0434 F80.00
G01 X24.5007 Y20.0300 F80.00
G01 X24.4125 Y20.0080 F80.00
G01 X24.3269 Y19.9773 F80.00
G01 X24.2447 Y19.9385 F80.00
G01 X24.1667 Y19.8917 F80.00
G01 X24.0937 Y19.8376 F80.00
G01 X24.0263 Y19.7765 F80.00
G01 X23.9652 Y19.7091 F80.00
G01 X23.9111 Y19.6361 F80.00
G01 X23.8643 Y19.5581 F80.00
G01 X23.8255 Y19.4759 F80.00
G01 X23.7948 Y19.3903 F80.00
G01 X23.7727 Y19.3021 F80.00
G01 X23.7594 Y19.2122 F80.00
G01 X23.7549 Y19.1214 F80.00
G01 X23.7594 Y19.0306 F80.00
G01 X23.7727 Y18.9407 F80.00
G01 X23.7948 Y18.8525 F80.00
G01 X23.8255 Y18.7669 F80.00
G01 X23.8643 Y18.6847 F80.00
G01 X23.9111 Y18.6067 F80.00
G01 X23.9652 Y18.5337 F80.00
G01 X24.0263 Y18.4663 F80.00
G01 X24.0937 Y18.4052 F80.00
G01 X24.1667 Y18.3511 F80.00
G01 X24.2447 Y18.3043 F80.00
G01 X24.3269 Y18.2655 F80.00
G01 X24.4125 Y18.2348 F80.00
G01 X24.5007 Y18.2127 F80.00
G01 X24.5906 Y18.1994 F80.00
G01 X24.6814 Y18.1949 F80.00
G01 X24.7722 Y18.1994 F80.00
G01 X24.8621 Y18.2127 F80.00
G01 X24.9503 Y18.2348 F80.00
G01 X25.0359 Y18.2655 F80.00
G01 X25.1181 Y18.3043 F80.00
G01 X25.1961 Y18.3511 F80.00
G01 X25.2691 Y18.4052 F80.00
G01 X25.3365 Y18.4663 F80.00
G01 X25.3976 Y18.5337 F80.00
G01 X25.4517 Y18.6067 F80.00
G01 X25.4985 Y18.6847 F80.00
G01 X25.5373 Y18.7669 F80.00
G01 X25.5680 Y18.8525 F80.00
G01 X25.5900 Y18.9407 F80.00
G01 X25.6034 Y19.0306 F80.00
G01 X25.6077 Y19.1152 F80.00
G01 X25.6077 Y19.1276 F80.00
G00 Z2.0000
G00 X25.6077 Y21.6676
G01 F60.00
G01 Z-0.1500
G01 F80.00
G01 X25.6034 Y21.7522 F80.00
G01 X25.5900 Y21.8421 F80.00
G01 X25.5680 Y21.9303 F80.00
G01 X25.5373 Y22.0159 F80.00
G01 X25.4985 Y22.0981 F80.00
G01 X25.4517 Y22.1761 F80.00
G01 X25.3976 Y22.2491 F80.00
G01 X25.3365 Y22.3165 F80.00
G01 X25.2691 Y22.3776 F80.00
G01 X25.1961 Y22.4317 F80.00
G01 X25.1181 Y22.4785 F80.00
G01 X25.0359 Y22.5173 F80.00
G01 X24.9503 Y22.5480 F80.00
G01 X24.8621 Y22.5700 F80.00
G01 X24.7722 Y22.5834 F80.00
G01 X24.6814 Y22.5878 F80.00
G01 X24.5906 Y22.5834 F80.00
G01 X24.5007 Y22.5700 F80.00
G01 X24.4125 Y22.5480 F80.00
G01 X24.3269 Y22.5173 F80.00
G01 X24.2447 Y22.4785 F80.00
G01 X24.1667 Y22.4317 F80.00
G01 X24.0937 Y22.3776 F80.00
G01 X24.0263 Y22.3165 F80.00
G01 X23.9652 Y22.2491 F80.00
G01 X23.9111 Y22.1761 F80.00
G01 X23.8643 Y22.0981 F80.00
G01 X23.8255 Y22.0159 F80.00
G01 X23.7948 Y21.9303 F80.00
G01 X23.7727 Y21.8421 F80.00
G01 X23.7594 Y21.7522 F80.00
G01 X23.7549 Y21.6614 F80.00
G01 X23.7594 Y21.5706 F80.00
G01 X23.7727 Y21.4807 F80.00
G01 X23.7948 Y21.3925 F80.00
G01 X23.8255 Y21.3069 F80.00
G01 X23.8643 Y21.2247 F80.00
G01 X23.9111 Y21.1467 F80.00
G01 X23.9652 Y21.0737 F80.00
G01 X24.0263 Y21.0063 F80.00
G01 X24.0937 Y20.9452 F80.00
G01 X24.1667 Y20.8911 F80.00
G01 X24.2447 Y20.8443 F80.00
G01 X24.3269 Y20.8055 F80.00
G01 X24.4125 Y20.7748 F80.00
G01 X24.5007 Y20.7527 F80.00
G01 X24.5906 Y20.7394 F80.00
G01 X24.6814 Y20.7349 F80.00
G01 X24.7722 Y20.7394 F80.00
G01 X24.8621 Y20.7527 F80.00
G01 X24.9503 Y20.7748 F80.00
G01 X25.0359 Y20.8055 F80.00
G01 X25.1181 Y20.8443 F80.00
G01 X25.1961 Y20.8911 F80.00
G01 X25.2691 Y20.9452 F80.00
G01 X25.3365 Y21.0063 F80.00
G01 X25.3976 Y21.0737 F80.00
G01 X25.4517 Y21.1467 F80.00
G01 X25.4985 Y21.2247 F80.00
G01 X25.5373 Y21.3069 F80.00
G01 X25.5680 Y21.3925 F80.00
G01 X25.5900 Y21.4807 F80.00
G01 X25.6034 Y21.5706 F80.00
G01 X25.6077 Y21.6552 F80.00
G01 X25.6077 Y21.6676 F80.00
G00 Z2.0000
G00 X24.5855 Y22.6349
G01 F60.00
G01 Z-0.1500
G01 F80.00
G01 X24.3974 Y22.5975 F80.00
G01 X24.2203 Y22.5241 F80.00
G01 X24.0608 Y22.4176 F80.00
G01 X23.9252 Y22.2820 F80.00
G01 X23.8187 Y22.1225 F80.00
G01 X23.7453 Y21.9454 F80.00
G01 X23.7079 Y21.7573 F80.00
G01 X23.7079 Y21.5655 F80.00
G01 X23.7453 Y21.3774 F80.00
G01 X23.8187 Y21.2003 F80.00
G01 X23.9252 Y21.0408 F80.00
G01 X24.0608 Y20.9052 F80.00
G01 X24.2203 Y20.7987 F80.00
G01 X24.3974 Y20.7253 F80.00
G01 X24.5855 Y20.6879 F80.00
G01 X24.7773 Y20.6879 F80.00
G01 X24.9654 Y20.7253 F80.00
G01 X25.1425 Y20.7987 F80.00
G01 X25.3020 Y20.9052 F80.00
G01 X25.4376 Y21.0408 F80.00
G01 X25.5441 Y21.2003 F80.00
G01 X25.6175 Y21.3774 F80.00
G01 X25.6549 Y21.5655 F80.00
G01 X25.6549 Y21.7573 F80.00
G01 X25.6175 Y21.9454 F80.00
G01 X25.5441 Y22.1225 F80.00
G01 X25.4376 Y22.2820 F80.00
G01 X25.3020 Y22.4176 F80.00
G01 X25.1425 Y22.5241 F80.00
G01 X24.9654 Y22.5975 F80.00
G01 X24.7773 Y22.6349 F80.00
G01 X24.5855 Y22.6349 F80.00
G00 Z2.0000
G00 X24.5855 Y23.2279
G01 F60.00
G01 Z-0.1500
G01 F80.00
G01 X24.7773 Y23.2279 F80.00
G01 X24.9654 Y23.2653 F80.00
G01 X25.1425 Y23.3387 F80.00
G01 X25.3020 Y23.4452 F80.00
G01 X25.4376 Y23.5808 F80.00
G01 X25.5441 Y23.7403 F80.00
G01 X25.6175 Y23.9174 F80.00
G01 X25.6549 Y24.1055 F80.00
G01 X25.6549 Y24.2973 F80.00
G01 X25.6175 Y24.4854 F80.00
G01 X25.5441 Y24.6625 F80.00
G01 X25.4376 Y24.8220 F80.00
G01 X25.3020 Y24.9576 F80.00
G01 X25.1425 Y25.0641 F80.00
G01 X24.9654 Y25.1375 F80.00
G01 X24.7773 Y25.1749 F80.00
G01 X24.5855 Y25.1749 F80.00
G01 X24.3974 Y25.1375 F80.00
G01 X24.2203 Y25.0641 F80.00
G01 X24.0608 Y24.9576 F80.00
G01 X23.9252 Y24.8220 F80.00
G01 X23.8187 Y24.6625 F80.00
G01 X23.7453 Y24.4854 F80.00
G01 X23.7079 Y24.2973 F80.00
G01 X23.7079 Y24.1055 F80.00
G01 X23.7453 Y23.9174 F80.00
G01 X23.8187 Y23.7403 F80.00
G01 X23.9252 Y23.5808 F80.00
G01 X24.0608 Y23.4452 F80.00
G01 X24.2203 Y23.3387 F80.00
G01 X24.3974 Y23.2653 F80.00
G01 X24.5855 Y23.2279 F80.00
G00 Z2.0000
G00 X25.6077 Y24.2076
G01 F60.00
G01 Z-0.1500
G01 F80.00
G01 X25.6034 Y24.2922 F80.00
G01 X25.5900 Y24.3821 F80.00
G01 X25.5680 Y24.4703 F80.00
G01 X25.5373 Y24.5559 F80.00
G01 X25.4985 Y24.6381 F80.00
G01 X25.4517 Y24.7161 F80.00
G01 X25.3976 Y24.7891 F80.00
G01 X25.3365 Y24.8565 F80.00
G01 X25.2691 Y24.9176 F80.00
G01 X25.1961 Y24.9717 F80.00
G01 X25.1181 Y25.0185 F80.00
G01 X25.0359 Y25.0573 F80.00
G01 X24.9503 Y25.0880 F80.00
G01 X24.8621 Y25.1100 F80.00
G01 X24.7722 Y25.1234 F80.00
G01 X24.6814 Y25.1278 F80.00
G01 X24.5906 Y25.1234 F80.00
G01 X24.5007 Y25.1100 F80.00
G01 X24.4125 Y25.0880 F80.00
G01 X24.3269 Y25.0573 F80.00
G01 X24.2447 Y25.0185 F80.00
G01 X24.1667 Y24.9717 F80.00
G01 X24.0937 Y24.9176 F80.00
G01 X24.0263 Y24.8565 F80.00
G01 X23.9652 Y24.7891 F80.00
G01 X23.9111 Y24.7161 F80.00
G01 X23.8643 Y24.6381 F80.00
G01 X23.8255 Y24.5559 F80.00
G01 X23.7948 Y24.4703 F80.00
G01 X23.7727 Y24.3821 F80.00
G01 X23.7594 Y24.2922 F80.00
G01 X23.7549 Y24.2014 F80.00
G01 X23.7594 Y24.1106 F80.00
G01 X23.7727 Y24.0207 F80.00
G01 X23.7948 Y23.9325 F80.00
G01 X23.8255 Y23.8469 F80.00
G01 X23.8643 Y23.7647 F80.00
G01 X23.9111 Y23.6867 F80.00
G01 X23.9652 Y23.6137 F80.00
G01 X24.0263 Y23.5463 F80.00
G01 X24.0937 Y23.4852 F80.00
G01 X24.1667 Y23.4311 F80.00
G01 X24.2447 Y23.3843 F80.00
G01 X24.3269 Y23.3455 F80.00
G01 X24.4125 Y23.3148 F80.00
G01 X24.5007 Y23.2927 F80.00
G01 X24.5906 Y23.2794 F80.00
G01 X24.6814 Y23.2749 F80.00
G01 X24.7722 Y23.2794 F80.00
G01 X24.8621 Y23.2927 F80.00
G01 X24.9503 Y23.3148 F80.00
G01 X25.0359 Y23.3455 F80.00
G01 X25.1181 Y23.3843 F80.00
G01 X25.1961 Y23.4311 F80.00
G01 X25.2691 Y23.4852 F80.00
G01 X25.3365 Y23.5463 F80.00
G01 X25.3976 Y23.6137 F80.00
G01 X25.4517 Y23.6867 F80.00
G01 X25.4985 Y23.7647 F80.00
G01 X25.5373 Y23.8469 F80.00
G01 X25.5680 Y23.9325 F80.00
G01 X25.5900 Y24.0207 F80.00
G01 X25.6034 Y24.1106 F80.00
G01 X25.6077 Y24.1952 F80.00
G01 X25.6077 Y24.2076 F80.00
G00 Z2.0000
G00 X25.6077 Y26.7476
G01 F60.00
G01 Z-0.1500
G01 F80.00
G01 X25.6034 Y26.8322 F80.00
G01 X25.5900 Y26.9221 F80.00
G01 X25.5680 Y27.0103 F80.00
G01 X25.5373 Y27.0959 F80.00
G01 X25.4985 Y27.1781 F80.00
G01 X25.4517 Y27.2561 F80.00
G01 X25.3976 Y27.3291 F80.00
G01 X25.3365 Y27.3965 F80.00
G01 X25.2691 Y27.4576 F80.00
G01 X25.1961 Y27.5117 F80.00
G01 X25.1181 Y27.5585 F80.00
G01 X25.0359 Y27.5973 F80.00
G01 X24.9503 Y27.6280 F80.00
G01 X24.8621 Y27.6500 F80.00
G01 X24.7722 Y27.6634 F80.00
G01 X24.6814 Y27.6678 F80.00
G01 X24.5906 Y27.6634 F80.00
G01 X24.5007 Y27.6500 F80.00
G01 X24.4125 Y27.6280 F80.00
G01 X24.3269 Y27.5973 F80.00
G01 X24.2447 Y27.5585 F80.00
G01 X24.1667 Y27.5117 F80.00
G01 X24.0937 Y27.4576 F80.00
G01 X24.0263 Y27.3965 F80.00
G01 X23.9652 Y27.3291 F80.00
G01 X23.9111 Y27.2561 F80.00
G01 X23.8643 Y27.1781 F80.00
G01 X23.8255 Y27.0959 F80.00
G01 X23.7948 Y27.0103 F80.00
G01 X23.7727 Y26.9221 F80.00
G01 X23.7594 Y26.8322 F80.00
G01 X23.7549 Y26.7414 F80.00
G01 X23.7594 Y26.6506 F80.00
G01 X23.7727 Y26.5607 F80.00
G01 X23.7948 Y26.4725 F80.00
G01 X23.8255 Y26.3869 F80.00
G01 X23.8643 Y26.3047 F80.00
G01 X23.9111 Y26.2267 F80.00
G01 X23.9652 Y26.1537 F80.00
G01 X24.0263 Y26.0863 F80.00
G01 X24.0937 Y26.0252 F80.00
G01 X24.1667 Y25.9711 F80.00
G01 X24.2447 Y25.9243 F80.00
G01 X24.3269 Y25.8855 F80.00
G01 X24.4125 Y25.8548 F80.00
G01 X24.5007 Y25.8327 F80.00
G01 X24.5906 Y25.8194 F80.00
G01 X24.6814 Y25.8149 F80.00
G01 X24.7722 Y25.8194 F80.00
G01 X24.8621 Y25.8327 F80.00
G01 X24.9503 Y25.8548 F80.00
G01 X25.0359 Y25.8855 F80.00
G01 X25.1181 Y25.9243 F80.00
G01 X25.1961 Y25.9711 F80.00
G01 X25.2691 Y26.0252 F80.00
G01 X25.3365 Y26.0863 F80.00
G01 X25.3976 Y26.1537 F80.00
G01 X25.4517 Y26.2267 F80.00
G01 X25.4985 Y26.3047 F80.00
G01 X25.5373 Y26.3869 F80.00
G01 X25.5680 Y26.4725 F80.00
G01 X25.5900 Y26.5607 F80.00
G01 X25.6034 Y26.6506 F80.00
G01 X25.6077 Y26.7352 F80.00
G01 X25.6077 Y26.7476 F80.00
G00 Z2.0000
G00 X18.9049 Y26.6302
G01 F60.00
G01 Z-0.1500
G01 F80.00
G01 X18.9612 Y26.6034 F80.00
G01 X19.0339 Y26.5600 F80.00
G01 X19.0417 Y26.5549 F80.00
G01 X19.1122 Y26.5025 F80.00
G01 X19.1795 Y26.4415 F80.00
G01 X19.2406 Y26.3741 F80.00
G01 X19.2930 Y26.3036 F80.00
G01 X19.2981 Y26.2958 F80.00
G01 X19.3415 Y26.2231 F80.00
G01 X19.3683 Y26.1669 F80.00
G01 X19.6332 Y26.1669 F80.00
G01 X19.6352 Y26.1706 F80.00
G01 X19.5806 Y26.3136 F80.00
G01 X19.4574 Y26.5095 F80.00
G01 X19.2984 Y26.6776 F80.00
G01 X19.1097 Y26.8115 F80.00
G01 X18.9136 Y26.8992 F80.00
G01 X18.9049 Y26.8947 F80.00
G01 X18.9049 Y26.6302 F80.00
G00 Z2.0000
G00 X17.6806 Y26.1669
G01 F60.00
G01 Z-0.1500
G01 F80.00
G01 X17.7074 Y26.2231 F80.00
G01 X17.7508 Y26.2958 F80.00
G01 X17.7559 Y26.3036 F80.00
G01 X17.8083 Y26.3741 F80.00
G01 X17.8693 Y26.4415 F80.00
G01 X17.9367 Y26.5025 F80.00
G01 X18.0072 Y26.5549 F80.00
G01 X18.0150 Y26.5600 F80.00
G01 X18.0877 Y26.6034 F80.00
G01 X18.1439 Y26.6302 F80.00
G01 X18.1439 Y26.8947 F80.00
G01 X18.1353 Y26.8992 F80.00
G01 X17.9392 Y26.8115 F80.00
G01 X17.7505 Y26.6776 F80.00
G01 X17.5915 Y26.5095 F80.00
G01 X17.4683 Y26.3136 F80.00
G01 X17.4137 Y26.1706 F80.00
G01 X17.4156 Y26.1669 F80.00
G01 X17.6806 Y26.1669 F80.00
G00 Z2.0000
G00 X17.6806 Y25.4059
G01 F60.00
G01 Z-0.1500
G01 F80.00
G01 X17.4156 Y25.4059 F80.00
G01 X17.4137 Y25.4021 F80.00
G01 X17.4683 Y25.2591 F80.00
G01 X17.5915 Y25.0632 F80.00
G01 X17.7505 Y24.8951 F80.00
G01 X17.9392 Y24.7612 F80.00
G01 X18.1353 Y24.6735 F80.00
G01 X18.1439 Y24.6780 F80.00
G01 X18.1439 Y24.9425 F80.00
G01 X18.0877 Y24.9693 F80.00
G01 X18.0150 Y25.0127 F80.00
G01 X18.0072 Y25.0178 F80.00
G01 X17.9367 Y25.0702 F80.00
G01 X17.8693 Y25.1313 F80.00
G01 X17.8083 Y25.1986 F80.00
G01 X17.7559 Y25.2691 F80.00
G01 X17.7508 Y25.2769 F80.00
G01 X17.7074 Y25.3496 F80.00
G01 X17.6806 Y25.4059 F80.00
G00 Z2.0000
G00 X18.9049 Y24.9425
G01 F60.00
G01 Z-0.1500
G01 F80.00
G01 X18.9049 Y24.6780 F80.00
G01 X18.9136 Y24.6735 F80.00
G01 X19.1097 Y24.7612 F80.00
G01 X19.2984 Y24.8951 F80.00
G01 X19.4574 Y25.0632 F80.00
G01 X19.5806 Y25.2591 F80.00
G01 X19.6352 Y25.4021 F80.00
G01 X19.6332 Y25.4059 F80.00
G01 X19.3683 Y25.4059 F80.00
G01 X19.3415 Y25.3496 F80.00
G01 X19.2981 Y25.2769 F80.00
G01 X19.2930 Y25.2691 F80.00
G01 X19.2406 Y25.1986 F80.00
G01 X19.1795 Y25.1313 F80.00
G01 X19.1122 Y25.0702 F80.00
G01 X19.0417 Y25.0178 F80.00
G01 X19.0339 Y25.0127 F80.00
G01 X18.9612 Y24.9693 F80.00
G01 X18.9049 Y24.9425 F80.00
G00 Z2.0000
G00 X15.5271 Y24.8571
G01 F60.00
G01 Z-0.1500
G01 F80.00
G01 X17.7575 Y22.6267 F80.00
G01 X17.7852 Y22.6016 F80.00
G01 X17.8126 Y22.5812 F80.00
G01 X17.8204 Y22.5761 F80.00
G01 X17.8445 Y22.5617 F80.00
G01 X17.8710 Y22.5488 F80.00
G01 X23.2312 Y17.1886 F80.00
G01 X23.2542 Y17.1676 F80.00
G01 X23.2638 Y17.1597 F80.00
G01 X23.2889 Y17.1413 F80.00
G01 X23.3209 Y17.1221 F80.00
G01 X23.3490 Y17.1086 F80.00
G01 X23.3604 Y17.1039 F80.00
G01 X23.3898 Y17.0935 F80.00
G01 X23.4200 Y17.0858 F80.00
G01 X23.4322 Y17.0834 F80.00
G01 X23.4630 Y17.0790 F80.00
G01 X23.5003 Y17.0771 F80.00
G01 X26.0149 Y17.0771 F80.00
G01 X26.0460 Y17.0785 F80.00
G01 X26.0584 Y17.0797 F80.00
G01 X26.0891 Y17.0844 F80.00
G01 X26.1254 Y17.0935 F80.00
G01 X26.1605 Y17.1061 F80.00
G01 X26.1888 Y17.1193 F80.00
G01 X26.1997 Y17.1251 F80.00
G01 X26.2263 Y17.1413 F80.00
G01 X26.2514 Y17.1597 F80.00
G01 X26.2587 Y17.1655 F80.00
G01 X26.2818 Y17.1864 F80.00
G01 X27.4016 Y18.3062 F80.00
G01 X27.4226 Y18.3292 F80.00
G01 X27.4305 Y18.3388 F80.00
G01 X27.4489 Y18.3639 F80.00
G01 X27.4681 Y18.3959 F80.00
G01 X27.4816 Y18.4240 F80.00
G01 X27.4863 Y18.4354 F80.00
G01 X27.4967 Y18.4648 F80.00
G01 X27.5044 Y18.4950 F80.00
G01 X27.5068 Y18.5072 F80.00
G01 X27.5112 Y18.5380 F80.00
G01 X27.5131 Y18.5753 F80.00
G01 X27.5131 Y26.8303 F80.00
G01 X27.5112 Y26.8676 F80.00
G01 X27.5058 Y26.9045 F80.00
G01 X27.4967 Y26.9408 F80.00
G01 X27.4863 Y26.9701 F80.00
G01 X27.4816 Y26.9816 F80.00
G01 X27.4681 Y27.0097 F80.00
G01 X27.4523 Y27.0365 F80.00
G01 X27.4454 Y27.0468 F80.00
G01 X27.4267 Y27.0717 F80.00
G01 X27.4038 Y27.0972 F80.00
G01 X25.5471 Y28.9539 F80.00
G01 X25.5680 Y29.0125 F80.00
G01 X25.5887 Y29.0946 F80.00
G01 X25.5906 Y29.1037 F80.00
G01 X25.6034 Y29.1906 F80.00
G01 X25.6077 Y29.2752 F80.00
G01 X25.6078 Y29.2845 F80.00
G01 X25.6034 Y29.3722 F80.00
G01 X25.5900 Y29.4621 F80.00
G01 X25.5680 Y29.5503 F80.00
G01 X25.5385 Y29.6331 F80.00
G01 X25.5348 Y29.6416 F80.00
G01 X25.4985 Y29.7181 F80.00
G01 X25.4550 Y29.7909 F80.00
G01 X25.4481 Y29.8012 F80.00
G01 X25.4014 Y29.8642 F80.00
G01 X25.3935 Y29.8738 F80.00
G01 X25.3365 Y29.9365 F80.00
G01 X25.2691 Y29.9976 F80.00
G01 X25.1961 Y30.0517 F80.00
G01 X25.1181 Y30.0985 F80.00
G01 X25.0359 Y30.1373 F80.00
G01 X24.9562 Y30.1660 F80.00
G01 X24.9444 Y30.1696 F80.00
G01 X24.8621 Y30.1900 F80.00
G01 X24.7722 Y30.2034 F80.00
G01 X24.6876 Y30.2077 F80.00
G01 X24.6752 Y30.2077 F80.00
G01 X24.5968 Y30.2038 F80.00
G01 X24.5844 Y30.2026 F80.00
G01 X24.5007 Y30.1900 F80.00
G01 X24.4125 Y30.1680 F80.00
G01 X24.3269 Y30.1373 F80.00
G01 X24.2502 Y30.1012 F80.00
G01 X24.2393 Y30.0954 F80.00
G01 X24.1719 Y30.0550 F80.00
G01 X24.1616 Y30.0481 F80.00
G01 X24.0937 Y29.9976 F80.00
G01 X24.0263 Y29.9365 F80.00
G01 X23.9693 Y29.8738 F80.00
G01 X23.9614 Y29.8642 F80.00
G01 X23.9111 Y29.7961 F80.00
G01 X23.8643 Y29.7181 F80.00
G01 X23.8255 Y29.6359 F80.00
G01 X23.7968 Y29.5562 F80.00
G01 X23.7932 Y29.5444 F80.00
G01 X23.7741 Y29.4682 F80.00
G01 X23.7717 Y29.4560 F80.00
G01 X23.7594 Y29.3722 F80.00
G01 X23.7549 Y29.2814 F80.00
G01 X23.7594 Y29.1906 F80.00
G01 X23.7717 Y29.1068 F80.00
G01 X23.7741 Y29.0946 F80.00
G01 X23.7932 Y29.0184 F80.00
G01 X23.7968 Y29.0066 F80.00
G01 X23.8255 Y28.9269 F80.00
G01 X23.8616 Y28.8502 F80.00
G01 X23.8674 Y28.8393 F80.00
G01 X23.9111 Y28.7667 F80.00
G01 X23.9614 Y28.6986 F80.00
G01 X23.9693 Y28.6890 F80.00
G01 X24.0220 Y28.6308 F80.00
G01 X24.0308 Y28.6220 F80.00
G01 X24.0937 Y28.5652 F80.00
G01 X24.1667 Y28.5111 F80.00
G01 X24.2447 Y28.4643 F80.00
G01 X24.3212 Y28.4280 F80.00
G01 X24.3297 Y28.4243 F80.00
G01 X24.4125 Y28.3948 F80.00
G01 X24.5007 Y28.3727 F80.00
G01 X24.5906 Y28.3594 F80.00
G01 X24.6783 Y28.3550 F80.00
G01 X24.6876 Y28.3551 F80.00
G01 X24.7722 Y28.3594 F80.00
G01 X24.8591 Y28.3722 F80.00
G01 X24.8682 Y28.3741 F80.00
G01 X24.9503 Y28.3948 F80.00
G01 X25.0089 Y28.4156 F80.00
G01 X26.7519 Y26.6727 F80.00
G01 X26.7519 Y18.7329 F80.00
G01 X25.8573 Y17.8383 F80.00
G01 X23.6579 Y17.8383 F80.00
G01 X18.3313 Y23.1649 F80.00
G01 X18.3036 Y23.1900 F80.00
G01 X18.2762 Y23.2105 F80.00
G01 X18.2684 Y23.2156 F80.00
G01 X18.2443 Y23.2300 F80.00
G01 X18.2177 Y23.2429 F80.00
G01 X16.0653 Y25.3953 F80.00
G01 X16.0861 Y25.4539 F80.00
G01 X16.1076 Y25.5391 F80.00
G01 X16.1093 Y25.5482 F80.00
G01 X16.1208 Y25.6259 F80.00
G01 X16.1218 Y25.6351 F80.00
G01 X16.1260 Y25.7229 F80.00
G01 X16.1220 Y25.8075 F80.00
G01 X16.1208 Y25.8198 F80.00
G01 X16.1093 Y25.8975 F80.00
G01 X16.1076 Y25.9066 F80.00
G01 X16.0861 Y25.9918 F80.00
G01 X16.0577 Y26.0716 F80.00
G01 X16.0530 Y26.0831 F80.00
G01 X16.0166 Y26.1596 F80.00
G01 X15.9699 Y26.2376 F80.00
G01 X15.9196 Y26.3057 F80.00
G01 X15.9117 Y26.3153 F80.00
G01 X15.8547 Y26.3780 F80.00
G01 X15.7920 Y26.4350 F80.00
G01 X15.7824 Y26.4428 F80.00
G01 X15.7143 Y26.4932 F80.00
G01 X15.6363 Y26.5399 F80.00
G01 X15.5541 Y26.5788 F80.00
G01 X15.4744 Y26.6075 F80.00
G01 X15.4625 Y26.6111 F80.00
G01 X15.3803 Y26.6315 F80.00
G01 X15.2904 Y26.6448 F80.00
G01 X15.2058 Y26.6492 F80.00
G01 X15.1934 Y26.6492 F80.00
G01 X15.1088 Y26.6448 F80.00
G01 X15.0250 Y26.6326 F80.00
G01 X15.0128 Y26.6301 F80.00
G01 X14.9306 Y26.6094 F80.00
G01 X14.8479 Y26.5799 F80.00
G01 X14.8394 Y26.5763 F80.00
G01 X14.7629 Y26.5399 F80.00
G01 X14.6849 Y26.4932 F80.00
G01 X14.6118 Y26.4390 F80.00
G01 X14.5445 Y26.3780 F80.00
G01 X14.4834 Y26.3106 F80.00
G01 X14.4293 Y26.2376 F80.00
G01 X14.3825 Y26.1596 F80.00
G01 X14.3436 Y26.0774 F80.00
G01 X14.3130 Y25.9918 F80.00
G01 X14.2909 Y25.9036 F80.00
G01 X14.2776 Y25.8137 F80.00
G01 X14.2731 Y25.7229 F80.00
G01 X14.2776 Y25.6321 F80.00
G01 X14.2909 Y25.5421 F80.00
G01 X14.3130 Y25.4539 F80.00
G01 X14.3425 Y25.3712 F80.00
G01 X14.3462 Y25.3626 F80.00
G01 X14.3825 Y25.2861 F80.00
G01 X14.4293 Y25.2082 F80.00
G01 X14.4834 Y25.1351 F80.00
G01 X14.5445 Y25.0678 F80.00
G01 X14.6118 Y25.0067 F80.00
G01 X14.6849 Y24.9525 F80.00
G01 X14.7629 Y24.9058 F80.00
G01 X14.8422 Y24.8682 F80.00
G01 X14.8508 Y24.8647 F80.00
G01 X14.9306 Y24.8363 F80.00
G01 X15.0188 Y24.8142 F80.00
G01 X15.1088 Y24.8009 F80.00
G01 X15.1965 Y24.7964 F80.00
G01 X15.2058 Y24.7966 F80.00
G01 X15.2904 Y24.8009 F80.00
G01 X15.3773 Y24.8136 F80.00
G01 X15.3864 Y24.8156 F80.00
G01 X15.4685 Y24.8363 F80.00
G01 X15.5271 Y24.8571 F80.00
G00 Z2.0000
G00 X14.1207 Y25.4925
G01 F60.00
G01 Z-0.1500
G01 F80.00
G01 X14.1173 Y25.5076 F80.00
G01 X14.1148 Y25.5223 F80.00
G01 X14.1032 Y25.5999 F80.00
G01 X14.1014 Y25.6147 F80.00
G01 X14.1003 Y25.6296 F80.00
G01 X14.0965 Y25.7080 F80.00
G01 X14.0961 Y25.7229 F80.00
G01 X14.0965 Y25.7377 F80.00
G01 X14.1003 Y25.8162 F80.00
G01 X14.1014 Y25.8310 F80.00
G01 X14.1032 Y25.8458 F80.00
G01 X14.1148 Y25.9235 F80.00
G01 X14.1173 Y25.9381 F80.00
G01 X14.1207 Y25.9532 F80.00
G01 X14.0985 Y25.9569 F80.00
G01 X14.0808 Y25.9609 F80.00
G01 X14.0808 Y25.4848 F80.00
G01 X14.0985 Y25.4888 F80.00
G01 X14.1207 Y25.4925 F80.00
G00 Z2.0000
G00 X11.6164 Y28.2997
G01 F60.00
G01 Z-0.1500
G01 F80.00
G01 X11.6240 Y28.2844 F80.00
G01 X11.6384 Y28.2603 F80.00
G01 X11.6434 Y28.2525 F80.00
G01 X11.6639 Y28.2250 F80.00
G01 X11.6890 Y28.1974 F80.00
G01 X13.1426 Y26.7438 F80.00
G01 X13.1426 Y23.5963 F80.00
G01 X13.1444 Y23.5621 F80.00
G01 X13.1493 Y23.5282 F80.00
G01 X13.1573 Y23.4949 F80.00
G01 X13.1609 Y23.4830 F80.00
G01 X13.1716 Y23.4538 F80.00
G01 X13.1875 Y23.4200 F80.00
G01 X13.2067 Y23.3880 F80.00
G01 X13.2270 Y23.3604 F80.00
G01 X13.2330 Y23.3533 F80.00
G01 X13.2541 Y23.3303 F80.00
G01 X21.0485 Y15.5359 F80.00
G01 X21.0083 Y15.4505 F80.00
G01 X20.9678 Y15.3372 F80.00
G01 X20.9385 Y15.2205 F80.00
G01 X20.9216 Y15.1076 F80.00
G01 X20.9204 Y15.0952 F80.00
G01 X20.9151 Y14.9874 F80.00
G01 X20.9151 Y14.9750 F80.00
G01 X20.9209 Y14.8610 F80.00
G01 X20.9375 Y14.7480 F80.00
G01 X20.9399 Y14.7359 F80.00
G01 X20.9661 Y14.6312 F80.00
G01 X20.9697 Y14.6193 F80.00
G01 X21.0083 Y14.5119 F80.00
G01 X21.0598 Y14.4031 F80.00
G01 X21.1216 Y14.2998 F80.00
G01 X21.1895 Y14.2080 F80.00
G01 X21.1974 Y14.1984 F80.00
G01 X21.2699 Y14.1185 F80.00
G01 X21.2764 Y14.1118 F80.00
G01 X21.3633 Y14.0331 F80.00
G01 X21.4600 Y13.9614 F80.00
G01 X21.5633 Y13.8996 F80.00
G01 X21.6721 Y13.8481 F80.00
G01 X21.7854 Y13.8076 F80.00
G01 X21.9021 Y13.7783 F80.00
G01 X22.0212 Y13.7607 F80.00
G01 X22.1352 Y13.7549 F80.00
G01 X22.1476 Y13.7549 F80.00
G01 X22.2554 Y13.7602 F80.00
G01 X22.2678 Y13.7614 F80.00
G01 X22.3807 Y13.7783 F80.00
G01 X22.4914 Y13.8059 F80.00
G01 X22.5033 Y13.8095 F80.00
G01 X22.6107 Y13.8481 F80.00
G01 X22.7195 Y13.8996 F80.00
G01 X22.8228 Y13.9614 F80.00
G01 X22.9170 Y14.0312 F80.00
G01 X22.9241 Y14.0372 F80.00
G01 X23.0086 Y14.1140 F80.00
G01 X23.0895 Y14.2031 F80.00
G01 X23.1612 Y14.2998 F80.00
G01 X23.2230 Y14.4031 F80.00
G01 X23.2745 Y14.5119 F80.00
G01 X23.3150 Y14.6252 F80.00
G01 X23.3443 Y14.7419 F80.00
G01 X23.3612 Y14.8548 F80.00
G01 X23.3624 Y14.8672 F80.00
G01 X23.3678 Y14.9812 F80.00
G01 X23.3624 Y15.0952 F80.00
G01 X23.3612 Y15.1076 F80.00
G01 X23.3443 Y15.2205 F80.00
G01 X23.3167 Y15.3312 F80.00
G01 X23.3131 Y15.3431 F80.00
G01 X23.2767 Y15.4447 F80.00
G01 X23.2720 Y15.4562 F80.00
G01 X23.2230 Y15.5593 F80.00
G01 X23.1612 Y15.6626 F80.00
G01 X23.0895 Y15.7592 F80.00
G01 X23.0129 Y15.8439 F80.00
G01 X23.0041 Y15.8527 F80.00
G01 X22.9241 Y15.9252 F80.00
G01 X22.9146 Y15.9331 F80.00
G01 X22.8228 Y16.0010 F80.00
G01 X22.7195 Y16.0628 F80.00
G01 X22.6107 Y16.1143 F80.00
G01 X22.5033 Y16.1529 F80.00
G01 X22.4914 Y16.1565 F80.00
G01 X22.3867 Y16.1827 F80.00
G01 X22.3776 Y16.1847 F80.00
G01 X22.2616 Y16.2017 F80.00
G01 X22.1476 Y16.2075 F80.00
G01 X22.1352 Y16.2075 F80.00
G01 X22.0274 Y16.2022 F80.00
G01 X22.0150 Y16.2010 F80.00
G01 X21.9021 Y16.1841 F80.00
G01 X21.7854 Y16.1548 F80.00
G01 X21.6721 Y16.1143 F80.00
G01 X21.5867 Y16.0741 F80.00
G01 X13.9038 Y23.7571 F80.00
G01 X13.9038 Y26.9014 F80.00
G01 X13.9019 Y26.9387 F80.00
G01 X13.8964 Y26.9757 F80.00
G01 X13.8874 Y27.0119 F80.00
G01 X13.8748 Y27.0471 F80.00
G01 X13.8588 Y27.0808 F80.00
G01 X13.8396 Y27.1129 F80.00
G01 X13.8174 Y27.1429 F80.00
G01 X13.7945 Y27.1683 F80.00
G01 X12.2999 Y28.6629 F80.00
G01 X12.2923 Y28.6782 F80.00
G01 X12.2779 Y28.7023 F80.00
G01 X12.2728 Y28.7101 F80.00
G01 X12.2523 Y28.7376 F80.00
G01 X12.2294 Y28.7630 F80.00
G01 X11.6387 Y29.3538 F80.00
G01 X11.6387 Y31.8897 F80.00
G01 X11.6435 Y31.8781 F80.00
G01 X11.6687 Y31.8249 F80.00
G01 X11.6745 Y31.8139 F80.00
G01 X11.7081 Y31.7582 F80.00
G01 X11.7506 Y31.7009 F80.00
G01 X11.7984 Y31.6481 F80.00
G01 X11.8466 Y31.6043 F80.00
G01 X11.8562 Y31.5964 F80.00
G01 X11.9034 Y31.5613 F80.00
G01 X11.9138 Y31.5544 F80.00
G01 X11.9697 Y31.5211 F80.00
G01 X12.0341 Y31.4906 F80.00
G01 X12.1012 Y31.4666 F80.00
G01 X12.1643 Y31.4506 F80.00
G01 X12.1765 Y31.4482 F80.00
G01 X12.2409 Y31.4388 F80.00
G01 X12.3059 Y31.4355 F80.00
G01 X12.3183 Y31.4355 F80.00
G01 X12.3771 Y31.4383 F80.00
G01 X12.3895 Y31.4396 F80.00
G01 X12.4538 Y31.4493 F80.00
G01 X12.5230 Y31.4666 F80.00
G01 X12.5901 Y31.4906 F80.00
G01 X12.6490 Y31.5183 F80.00
G01 X12.6600 Y31.5241 F80.00
G01 X12.7105 Y31.5544 F80.00
G01 X12.7208 Y31.5613 F80.00
G01 X12.7730 Y31.6002 F80.00
G01 X12.8258 Y31.6481 F80.00
G01 X12.8737 Y31.7009 F80.00
G01 X12.9161 Y31.7582 F80.00
G01 X12.9528 Y31.8193 F80.00
G01 X12.9808 Y31.8781 F80.00
G01 X12.9855 Y31.8895 F80.00
G01 X13.0053 Y31.9450 F80.00
G01 X13.0089 Y31.9569 F80.00
G01 X13.0246 Y32.0200 F80.00
G01 X13.0343 Y32.0844 F80.00
G01 X13.0353 Y32.0936 F80.00
G01 X13.0386 Y32.1618 F80.00
G01 X13.0355 Y32.2268 F80.00
G01 X13.0343 Y32.2391 F80.00
G01 X13.0246 Y32.3035 F80.00
G01 X13.0089 Y32.3667 F80.00
G01 X13.0053 Y32.3785 F80.00
G01 X12.9833 Y32.4398 F80.00
G01 X12.9528 Y32.5042 F80.00
G01 X12.9195 Y32.5601 F80.00
G01 X12.9126 Y32.5704 F80.00
G01 X12.8737 Y32.6226 F80.00
G01 X12.8258 Y32.6754 F80.00
G01 X12.7730 Y32.7233 F80.00
G01 X12.7208 Y32.7622 F80.00
G01 X12.7105 Y32.7691 F80.00
G01 X12.6546 Y32.8024 F80.00
G01 X12.5958 Y32.8304 F80.00
G01 X12.5843 Y32.8351 F80.00
G01 X12.5230 Y32.8569 F80.00
G01 X12.4538 Y32.8742 F80.00
G01 X12.3833 Y32.8847 F80.00
G01 X12.3183 Y32.8881 F80.00
G01 X12.3059 Y32.8881 F80.00
G01 X12.2409 Y32.8847 F80.00
G01 X12.1704 Y32.8742 F80.00
G01 X12.1072 Y32.8586 F80.00
G01 X12.0953 Y32.8550 F80.00
G01 X12.0341 Y32.8329 F80.00
G01 X11.9752 Y32.8052 F80.00
G01 X11.9643 Y32.7994 F80.00
G01 X11.9085 Y32.7658 F80.00
G01 X11.8546 Y32.7259 F80.00
G01 X14.5365 Y35.4079 F80.00
G01 X14.5616 Y35.4355 F80.00
G01 X14.5803 Y35.4604 F80.00
G01 X14.5872 Y35.4708 F80.00
G01 X14.6030 Y35.4976 F80.00
G01 X14.6165 Y35.5256 F80.00
G01 X14.6212 Y35.5371 F80.00
G01 X14.6316 Y35.5665 F80.00
G01 X14.6393 Y35.5967 F80.00
G01 X14.6417 Y35.6088 F80.00
G01 X14.6461 Y35.6397 F80.00
G01 X14.6480 Y35.6770 F80.00
G01 X14.6480 Y39.9215 F80.00
G01 X14.7256 Y39.8938 F80.00
G01 X14.8125 Y39.8719 F80.00
G01 X14.8247 Y39.8695 F80.00
G01 X14.9072 Y39.8572 F80.00
G01 X14.9196 Y39.8560 F80.00
G01 X15.0091 Y39.8518 F80.00
G01 X15.1048 Y39.8565 F80.00
G01 X15.1996 Y39.8706 F80.00
G01 X15.2865 Y39.8922 F80.00
G01 X15.2984 Y39.8958 F80.00
G01 X15.3827 Y39.9261 F80.00
G01 X15.4638 Y39.9643 F80.00
G01 X15.4748 Y39.9701 F80.00
G01 X15.5463 Y40.0130 F80.00
G01 X15.5566 Y40.0199 F80.00
G01 X15.6285 Y40.0734 F80.00
G01 X15.6995 Y40.1378 F80.00
G01 X15.7639 Y40.2088 F80.00
G01 X15.8174 Y40.2807 F80.00
G01 X15.8243 Y40.2910 F80.00
G01 X15.8672 Y40.3625 F80.00
G01 X15.8730 Y40.3735 F80.00
G01 X15.9112 Y40.4546 F80.00
G01 X15.9415 Y40.5389 F80.00
G01 X15.9451 Y40.5508 F80.00
G01 X15.9668 Y40.6377 F80.00
G01 X15.9808 Y40.7325 F80.00
G01 X15.9855 Y40.8282 F80.00
G01 X15.9808 Y40.9239 F80.00
G01 X15.9668 Y41.0187 F80.00
G01 X15.9451 Y41.1057 F80.00
G01 X15.9415 Y41.1176 F80.00
G01 X15.9134 Y41.1961 F80.00
G01 X15.9087 Y41.2076 F80.00
G01 X15.8702 Y41.2885 F80.00
G01 X15.8210 Y41.3707 F80.00
G01 X15.7639 Y41.4477 F80.00
G01 X15.6995 Y41.5187 F80.00
G01 X15.6285 Y41.5830 F80.00
G01 X15.5566 Y41.6366 F80.00
G01 X15.5463 Y41.6434 F80.00
G01 X15.4748 Y41.6863 F80.00
G01 X15.4638 Y41.6922 F80.00
G01 X15.3827 Y41.7304 F80.00
G01 X15.2984 Y41.7607 F80.00
G01 X15.2895 Y41.7635 F80.00
G01 X15.1996 Y41.7859 F80.00
G01 X15.1048 Y41.8000 F80.00
G01 X15.0091 Y41.8047 F80.00
G01 X14.9196 Y41.8004 F80.00
G01 X14.9072 Y41.7992 F80.00
G01 X14.8186 Y41.7859 F80.00
G01 X14.7316 Y41.7643 F80.00
G01 X14.7197 Y41.7607 F80.00
G01 X14.6354 Y41.7304 F80.00
G01 X14.5543 Y41.6922 F80.00
G01 X14.5434 Y41.6863 F80.00
G01 X14.4718 Y41.6434 F80.00
G01 X14.4615 Y41.6366 F80.00
G01 X14.3896 Y41.5830 F80.00
G01 X14.3186 Y41.5187 F80.00
G01 X14.2543 Y41.4477 F80.00
G01 X14.1972 Y41.3707 F80.00
G01 X14.1479 Y41.2885 F80.00
G01 X14.1070 Y41.2019 F80.00
G01 X14.0747 Y41.1117 F80.00
G01 X14.0520 Y41.0218 F80.00
G01 X14.0503 Y41.0126 F80.00
G01 X14.0381 Y40.9301 F80.00
G01 X14.0369 Y40.9178 F80.00
G01 X14.0326 Y40.8282 F80.00
G01 X14.0373 Y40.7325 F80.00
G01 X14.0503 Y40.6439 F80.00
G01 X14.0528 Y40.6317 F80.00
G01 X14.0747 Y40.5448 F80.00
G01 X14.1043 Y40.4616 F80.00
G01 X13.9983 Y40.3557 F80.00
G01 X13.9773 Y40.3327 F80.00
G01 X13.9713 Y40.3256 F80.00
G01 X13.9527 Y40.3006 F80.00
G01 X13.9348 Y40.2714 F80.00
G01 X13.9290 Y40.2604 F80.00
G01 X13.9158 Y40.2322 F80.00
G01 X13.9052 Y40.2029 F80.00
G01 X13.9023 Y40.1941 F80.00
G01 X13.8941 Y40.1608 F80.00
G01 X13.8894 Y40.1300 F80.00
G01 X13.8884 Y40.1208 F80.00
G01 X13.8869 Y40.0897 F80.00
G01 X13.8868 Y35.8346 F80.00
G01 X10.9890 Y32.9368 F80.00
G01 X10.9680 Y32.9138 F80.00
G01 X10.9601 Y32.9042 F80.00
G01 X10.9417 Y32.8791 F80.00
G01 X10.9255 Y32.8525 F80.00
G01 X10.9197 Y32.8415 F80.00
G01 X10.9065 Y32.8133 F80.00
G01 X10.8959 Y32.7840 F80.00
G01 X10.8931 Y32.7752 F80.00
G01 X10.8849 Y32.7419 F80.00
G01 X10.8801 Y32.7111 F80.00
G01 X10.8789 Y32.6988 F80.00
G01 X10.8775 Y32.6677 F80.00
G01 X10.8775 Y29.1961 F80.00
G01 X10.8794 Y29.1588 F80.00
G01 X10.8843 Y29.1249 F80.00
G01 X10.8923 Y29.0916 F80.00
G01 X10.8959 Y29.0797 F80.00
G01 X10.9065 Y29.0505 F80.00
G01 X10.9197 Y29.0223 F80.00
G01 X10.9255 Y29.0113 F80.00
G01 X10.9417 Y28.9847 F80.00
G01 X10.9601 Y28.9596 F80.00
G01 X10.9680 Y28.9500 F80.00
G01 X10.9890 Y28.9270 F80.00
G01 X11.6164 Y28.2997 F80.00
G00 Z2.0000
G00 X11.4719 Y28.1938
G01 F60.00
G01 Z-0.1500
G01 F80.00
G01 X10.9635 Y28.7022 F80.00
G01 X10.9553 Y28.6922 F80.00
G01 X10.9387 Y28.6739 F80.00
G01 X10.9282 Y28.6634 F80.00
G01 X10.9098 Y28.6468 F80.00
G01 X10.8983 Y28.6374 F80.00
G01 X10.8785 Y28.6226 F80.00
G01 X10.8661 Y28.6144 F80.00
G01 X10.8570 Y28.6088 F80.00
G01 X12.2644 Y27.2013 F80.00
G01 X12.2756 Y27.2135 F80.00
G01 X12.2862 Y27.2241 F80.00
G01 X12.3102 Y27.2455 F80.00
G01 X12.3358 Y27.2648 F80.00
G01 X12.3482 Y27.2731 F80.00
G01 X12.3573 Y27.2787 F80.00
G01 X11.5586 Y28.0775 F80.00
G01 X11.5319 Y28.1070 F80.00
G01 X11.5179 Y28.1245 F80.00
G01 X11.4945 Y28.1567 F80.00
G01 X11.4865 Y28.1693 F80.00
G01 X11.4719 Y28.1938 F80.00
G00 Z2.0000
G00 X12.4121 Y28.9853
G01 F60.00
G01 Z-0.1500
G01 F80.00
G01 X14.6152 Y28.9853 F80.00
G01 X14.6276 Y28.9863 F80.00
G01 X14.6368 Y28.9877 F80.00
G01 X14.6458 Y28.9899 F80.00
G01 X14.6576 Y28.9938 F80.00
G01 X14.6690 Y28.9988 F80.00
G01 X14.6771 Y29.0033 F80.00
G01 X14.6874 Y29.0102 F80.00
G01 X14.6947 Y29.0160 F80.00
G01 X14.7058 Y29.0268 F80.00
G01 X14.7137 Y29.0364 F80.00
G01 X14.7206 Y29.0467 F80.00
G01 X14.7264 Y29.0577 F80.00
G01 X14.7312 Y29.0692 F80.00
G01 X14.7348 Y29.0810 F80.00
G01 X14.7376 Y29.0963 F80.00
G01 X14.7385 Y29.1087 F80.00
G01 X14.7386 Y30.6000 F80.00
G01 X17.8182 Y33.6796 F80.00
G01 X17.8433 Y33.7073 F80.00
G01 X17.8655 Y33.7373 F80.00
G01 X17.8847 Y33.7693 F80.00
G01 X17.8995 Y33.8002 F80.00
G01 X17.9029 Y33.8089 F80.00
G01 X17.9133 Y33.8382 F80.00
G01 X17.9223 Y33.8745 F80.00
G01 X17.9278 Y33.9114 F80.00
G01 X17.9297 Y33.9487 F80.00
G01 X17.9297 Y39.9292 F80.00
G01 X18.0094 Y39.9671 F80.00
G01 X18.0863 Y40.0130 F80.00
G01 X18.0966 Y40.0199 F80.00
G01 X18.1685 Y40.0734 F80.00
G01 X18.2395 Y40.1378 F80.00
G01 X18.2998 Y40.2041 F80.00
G01 X18.3077 Y40.2137 F80.00
G01 X18.3610 Y40.2858 F80.00
G01 X18.4072 Y40.3625 F80.00
G01 X18.4130 Y40.3735 F80.00
G01 X18.4512 Y40.4546 F80.00
G01 X18.4835 Y40.5448 F80.00
G01 X18.5068 Y40.6377 F80.00
G01 X18.5201 Y40.7264 F80.00
G01 X18.5213 Y40.7387 F80.00
G01 X18.5255 Y40.8282 F80.00
G01 X18.5213 Y40.9178 F80.00
G01 X18.5201 Y40.9301 F80.00
G01 X18.5068 Y41.0187 F80.00
G01 X18.4835 Y41.1117 F80.00
G01 X18.4512 Y41.2019 F80.00
G01 X18.4130 Y41.2830 F80.00
G01 X18.4072 Y41.2939 F80.00
G01 X18.3610 Y41.3707 F80.00
G01 X18.3039 Y41.4477 F80.00
G01 X18.2438 Y41.5142 F80.00
G01 X18.2350 Y41.5230 F80.00
G01 X18.1685 Y41.5830 F80.00
G01 X18.0966 Y41.6366 F80.00
G01 X18.0863 Y41.6434 F80.00
G01 X18.0094 Y41.6894 F80.00
G01 X17.9256 Y41.7291 F80.00
G01 X17.9170 Y41.7326 F80.00
G01 X17.8325 Y41.7626 F80.00
G01 X17.7456 Y41.7846 F80.00
G01 X17.7335 Y41.7870 F80.00
G01 X17.6509 Y41.7992 F80.00
G01 X17.6386 Y41.8004 F80.00
G01 X17.5491 Y41.8047 F80.00
G01 X17.4596 Y41.8004 F80.00
G01 X17.4472 Y41.7992 F80.00
G01 X17.3586 Y41.7859 F80.00
G01 X17.2656 Y41.7626 F80.00
G01 X17.1754 Y41.7304 F80.00
G01 X17.0943 Y41.6922 F80.00
G01 X17.0834 Y41.6863 F80.00
G01 X17.0118 Y41.6434 F80.00
G01 X17.0015 Y41.6366 F80.00
G01 X16.9296 Y41.5830 F80.00
G01 X16.8631 Y41.5230 F80.00
G01 X16.8543 Y41.5142 F80.00
G01 X16.7943 Y41.4477 F80.00
G01 X16.7372 Y41.3707 F80.00
G01 X16.6910 Y41.2939 F80.00
G01 X16.6851 Y41.2830 F80.00
G01 X16.6470 Y41.2019 F80.00
G01 X16.6166 Y41.1176 F80.00
G01 X16.6130 Y41.1057 F80.00
G01 X16.5914 Y41.0187 F80.00
G01 X16.5773 Y40.9239 F80.00
G01 X16.5726 Y40.8282 F80.00
G01 X16.5769 Y40.7387 F80.00
G01 X16.5781 Y40.7264 F80.00
G01 X16.5914 Y40.6377 F80.00
G01 X16.6147 Y40.5448 F80.00
G01 X16.6447 Y40.4604 F80.00
G01 X16.6495 Y40.4489 F80.00
G01 X16.6851 Y40.3735 F80.00
G01 X16.6910 Y40.3625 F80.00
G01 X16.7372 Y40.2858 F80.00
G01 X16.7905 Y40.2137 F80.00
G01 X16.7983 Y40.2041 F80.00
G01 X16.8543 Y40.1423 F80.00
G01 X16.8631 Y40.1335 F80.00
G01 X16.9296 Y40.0734 F80.00
G01 X17.0066 Y40.0163 F80.00
G01 X17.0888 Y39.9671 F80.00
G01 X17.1685 Y39.9292 F80.00
G01 X17.1685 Y34.1064 F80.00
G01 X13.9004 Y30.8382 F80.00
G01 X12.4090 Y30.8382 F80.00
G01 X12.3966 Y30.8373 F80.00
G01 X12.3844 Y30.8351 F80.00
G01 X12.3725 Y30.8318 F80.00
G01 X12.3609 Y30.8274 F80.00
G01 X12.3498 Y30.8218 F80.00
G01 X12.3393 Y30.8151 F80.00
G01 X12.3272 Y30.8055 F80.00
G01 X12.3184 Y30.7967 F80.00
G01 X12.3106 Y30.7871 F80.00
G01 X12.3053 Y30.7794 F80.00
G01 X12.2992 Y30.7686 F80.00
G01 X12.2953 Y30.7601 F80.00
G01 X12.2921 Y30.7514 F80.00
G01 X12.2887 Y30.7395 F80.00
G01 X12.2866 Y30.7272 F80.00
G01 X12.2857 Y30.7149 F80.00
G01 X12.2858 Y29.1056 F80.00
G01 X12.2870 Y29.0932 F80.00
G01 X12.2895 Y29.0810 F80.00
G01 X12.2931 Y29.0692 F80.00
G01 X12.2965 Y29.0605 F80.00
G01 X12.3021 Y29.0494 F80.00
G01 X12.3087 Y29.0389 F80.00
G01 X12.3164 Y29.0292 F80.00
G01 X12.3249 Y29.0202 F80.00
G01 X12.3343 Y29.0121 F80.00
G01 X12.3445 Y29.0049 F80.00
G01 X12.3525 Y29.0002 F80.00
G01 X12.3637 Y28.9949 F80.00
G01 X12.3754 Y28.9908 F80.00
G01 X12.3874 Y28.9877 F80.00
G01 X12.3997 Y28.9859 F80.00
G01 X12.4121 Y28.9853 F80.00
G00 Z2.0000
G00 X11.7479 Y32.6193
G01 F60.00
G01 Z-0.1500
G01 F80.00
G01 X11.6387 Y32.5100 F80.00
G01 X11.6387 Y32.4339 F80.00
G01 X11.6435 Y32.4454 F80.00
G01 X11.6687 Y32.4987 F80.00
G01 X11.6745 Y32.5096 F80.00
G01 X11.7081 Y32.5654 F80.00
G01 X11.7479 Y32.6193 F80.00
G00 Z2.0000
G00 X9.5706 Y33.6118
G01 F60.00
G01 Z-0.1500
G01 F80.00
G01 X9.5705 Y35.2149 F80.00
G01 X9.5692 Y35.2303 F80.00
G01 X9.5660 Y35.2455 F80.00
G01 X9.5609 Y35.2601 F80.00
G01 X9.5556 Y35.2714 F80.00
G01 X9.5475 Y35.2846 F80.00
G01 X9.5378 Y35.2967 F80.00
G01 X9.5267 Y35.3075 F80.00
G01 X9.5169 Y35.3151 F80.00
G01 X9.5091 Y35.3202 F80.00
G01 X9.5010 Y35.3247 F80.00
G01 X9.4925 Y35.3286 F80.00
G01 X9.4808 Y35.3328 F80.00
G01 X9.4718 Y35.3351 F80.00
G01 X9.4627 Y35.3368 F80.00
G01 X9.4534 Y35.3379 F80.00
G01 X9.4441 Y35.3382 F80.00
G01 X7.2410 Y35.3382 F80.00
G01 X7.2256 Y35.3368 F80.00
G01 X7.2104 Y35.3336 F80.00
G01 X7.1957 Y35.3286 F80.00
G01 X7.1845 Y35.3233 F80.00
G01 X7.1713 Y35.3151 F80.00
G01 X7.1592 Y35.3055 F80.00
G01 X7.1484 Y35.2944 F80.00
G01 X7.1407 Y35.2846 F80.00
G01 X7.1357 Y35.2768 F80.00
G01 X7.1312 Y35.2686 F80.00
G01 X7.1273 Y35.2601 F80.00
G01 X7.1241 Y35.2514 F80.00
G01 X7.1215 Y35.2425 F80.00
G01 X7.1195 Y35.2334 F80.00
G01 X7.1183 Y35.2242 F80.00
G01 X7.1177 Y35.2149 F80.00
G01 X7.1177 Y33.6087 F80.00
G01 X7.1190 Y33.5932 F80.00
G01 X7.1215 Y33.5810 F80.00
G01 X7.1261 Y33.5662 F80.00
G01 X7.1326 Y33.5521 F80.00
G01 X7.1407 Y33.5389 F80.00
G01 X7.1504 Y33.5268 F80.00
G01 X7.1615 Y33.5160 F80.00
G01 X7.1713 Y33.5084 F80.00
G01 X7.1791 Y33.5033 F80.00
G01 X7.1873 Y33.4988 F80.00
G01 X7.1957 Y33.4949 F80.00
G01 X7.2045 Y33.4917 F80.00
G01 X7.2134 Y33.4891 F80.00
G01 X7.2225 Y33.4872 F80.00
G01 X7.2317 Y33.4859 F80.00
G01 X7.2441 Y33.4853 F80.00
G01 X9.4503 Y33.4855 F80.00
G01 X9.4627 Y33.4867 F80.00
G01 X9.4748 Y33.4891 F80.00
G01 X9.4867 Y33.4927 F80.00
G01 X9.4982 Y33.4974 F80.00
G01 X9.5091 Y33.5033 F80.00
G01 X9.5194 Y33.5102 F80.00
G01 X9.5267 Y33.5160 F80.00
G01 X9.5357 Y33.5246 F80.00
G01 X9.5438 Y33.5340 F80.00
G01 X9.5509 Y33.5441 F80.00
G01 X9.5571 Y33.5549 F80.00
G01 X9.5621 Y33.5662 F80.00
G01 X9.5660 Y33.5780 F80.00
G01 X9.5687 Y33.5901 F80.00
G01 X9.5702 Y33.6025 F80.00
G01 X9.5706 Y33.6118 F80.00
G00 Z2.0000
G00 X9.5954 Y35.8311
G01 F60.00
G01 Z-0.1500
G01 F80.00
G01 X9.8462 Y35.8311 F80.00
G01 X10.0923 Y35.8800 F80.00
G01 X10.3240 Y35.9760 F80.00
G01 X10.5326 Y36.1154 F80.00
G01 X10.7100 Y36.2928 F80.00
G01 X10.8494 Y36.5014 F80.00
G01 X10.9454 Y36.7331 F80.00
G01 X10.9943 Y36.9792 F80.00
G01 X10.9943 Y37.2300 F80.00
G01 X10.9454 Y37.4761 F80.00
G01 X10.8494 Y37.7078 F80.00
G01 X10.7100 Y37.9164 F80.00
G01 X10.5326 Y38.0938 F80.00
G01 X10.3240 Y38.2332 F80.00
G01 X10.2824 Y38.2505 F80.00
G01 X10.2680 Y38.2575 F80.00
G01 X10.2516 Y38.2673 F80.00
G01 X10.2439 Y38.2725 F80.00
G01 X10.2311 Y38.2822 F80.00
G01 X10.2191 Y38.2929 F80.00
G01 X10.2125 Y38.2994 F80.00
G01 X10.1997 Y38.3136 F80.00
G01 X10.1865 Y38.3315 F80.00
G01 X10.1750 Y38.3505 F80.00
G01 X10.1655 Y38.3706 F80.00
G01 X10.1581 Y38.3915 F80.00
G01 X10.1527 Y38.4131 F80.00
G01 X10.1494 Y38.4351 F80.00
G01 X10.1483 Y38.4573 F80.00
G01 X10.1483 Y39.6599 F80.00
G01 X10.1494 Y39.6821 F80.00
G01 X10.1516 Y39.6979 F80.00
G01 X10.1540 Y39.7101 F80.00
G01 X10.1590 Y39.7286 F80.00
G01 X10.1655 Y39.7465 F80.00
G01 X10.1750 Y39.7666 F80.00
G01 X10.1865 Y39.7857 F80.00
G01 X10.1959 Y39.7987 F80.00
G01 X10.2038 Y39.8083 F80.00
G01 X10.2169 Y39.8222 F80.00
G01 X10.2311 Y39.8350 F80.00
G01 X10.2464 Y39.8464 F80.00
G01 X10.2653 Y39.8581 F80.00
