(1001)
(T1  D=2.4 CR=0 - ZMIN=-1.6 - flat end mill)
G90 G94
G17
G21

(2D Contour3)
T1
S8009 M3
G54
M8
G0 X79.555 Y57.438
Z10
Z5
G1 Z2 F50
Z-0.76
X79.549 Z-0.813 F150
X79.531 Z-0.864
X79.503 Z-0.91
X79.465 Z-0.948
X79.419 Z-0.976
X79.368 Z-0.994
X79.315 Z-1
X79.075
G3 X78.835 Y57.198 I0 J-0.24
G1 X78.843 Y48.264 F100
G2 X78.355 Y47.296 I-1.2 J-0.001
G1 X77.878 Y46.945
Y35.042
X78.342 Y34.691
G2 X78.817 Y33.734 I-0.724 J-0.957
G1 Y22.685
G2 X76.881 Y20.748 I-1.937 J0
G1 X76.874
X73.757 Y20.766
X73.703 Y9.583
G2 X71.928 Y7.803 I-1.725 J-0.055
G1 X71.184
X71.2 Y3.131
Y3.127
G2 X69.396 Y1.419 I-1.711 J0
G1 X35.53
G2 X33.771 Y3.127 I-0.051 J1.707
G1 Y3.128
X33.779 Y12.084
X8.251 Y12.089
G2 X7.912 Y12.138 I0 J1.2
X6.288 Y14.446 I0.64 J2.176
G1 Y20.654
X3.217 Y20.672
G2 X1.208 Y22.683 I0.004 J2.013
G1 X1.183 Y33.68
G2 X1.658 Y34.64 I1.2 J0.003
G1 X2.122 Y34.991
Y46.97
X1.645 Y47.322
G2 X1.157 Y48.289 I0.712 J0.966
G1 X1.165 Y57.23
Y57.244
G2 X2.981 Y60.089 I3.2 J-0.041
X3.501 Y60.207 I0.519 J-1.082
G1 X7.48 Y60.203
X8.78
Y65.384
G2 X8.812 Y65.661 I1.2 J0
G1 X9.025 Y66.559
G2 X9.121 Y66.821 I1.168 J-0.277
X11.98 Y68.584 I2.859 J-1.437
G1 X67.98
G2 X68.239 Y68.556 I0 J-1.2
G1 X69.083 Y68.369
G2 X69.33 Y68.285 I-0.259 J-1.172
X71.18 Y65.384 I-1.351 J-2.901
G1 Y60.204
X75.864 Y60.207
X76.551
G2 X77.1 Y60.074 I0 J-1.2
X78.835 Y57.229 I-1.465 J-2.845
G1 Y57.198
G3 X79.075 Y56.958 I0.24 J0 F150
G1 X79.315
X79.369 Z-0.994
X79.419 Z-0.976
X79.465 Z-0.948
X79.503 Z-0.91
X79.532 Z-0.864
X79.549 Z-0.813
X79.555 Z-0.76
G0 Z5
Y57.438
G1 Z1 F50
Z-1.16
X79.549 Z-1.213 F150
X79.531 Z-1.264
X79.503 Z-1.31
X79.465 Z-1.348
X79.419 Z-1.376
X79.368 Z-1.394
X79.315 Z-1.4
X79.075
G3 X78.835 Y57.198 I0 J-0.24
G1 X78.843 Y48.264 F100
G2 X78.355 Y47.296 I-1.2 J-0.001
G1 X77.878 Y46.945
Y35.042
X78.342 Y34.691
G2 X78.817 Y33.734 I-0.724 J-0.957
G1 Y22.685
G2 X76.881 Y20.748 I-1.937 J0
G1 X76.874
X73.757 Y20.766
X73.703 Y9.583
G2 X71.928 Y7.803 I-1.725 J-0.055
G1 X71.184
X71.2 Y3.131
Y3.127
G2 X69.396 Y1.419 I-1.711 J0
G1 X54.271
Z-1.2
X50.671
Z-1.4 F50
X35.53 F100
G2 X33.771 Y3.127 I-0.051 J1.707
G1 Y3.128
X33.779 Y12.084
X23.415 Y12.086
Z-1.2
X19.815 Y12.087
Z-1.4 F50
X8.251 Y12.089 F100
G2 X7.912 Y12.138 I0 J1.2
X6.288 Y14.446 I0.64 J2.176
G1 Y20.654
X3.217 Y20.672
G2 X1.208 Y22.683 I0.004 J2.013
G1 X1.183 Y33.68
G2 X1.658 Y34.64 I1.2 J0.003
G1 X2.122 Y34.991
Y46.97
X1.645 Y47.322
G2 X1.157 Y48.289 I0.712 J0.966
G1 X1.165 Y57.23
Y57.244
G2 X2.981 Y60.089 I3.2 J-0.041
X3.501 Y60.207 I0.519 J-1.082
G1 X7.48 Y60.203
X8.78
Y65.384
G2 X8.812 Y65.661 I1.2 J0
G1 X9.025 Y66.559
G2 X9.121 Y66.821 I1.168 J-0.277
X11.98 Y68.584 I2.859 J-1.437
G1 X24.18
Z-1.2
X27.78
Z-1.4 F50
X52.18 F100
Z-1.2
X55.78
Z-1.4 F50
X67.98 F100
G2 X68.239 Y68.556 I0 J-1.2
G1 X69.083 Y68.369
G2 X69.33 Y68.285 I-0.259 J-1.172
X71.18 Y65.384 I-1.351 J-2.901
G1 Y60.204
X75.864 Y60.207
X76.551
G2 X77.1 Y60.074 I0 J-1.2
X78.835 Y57.229 I-1.465 J-2.845
G1 Y57.198
G3 X79.075 Y56.958 I0.24 J0 F150
G1 X79.315
X79.369 Z-1.394
X79.419 Z-1.376
X79.465 Z-1.348
X79.503 Z-1.31
X79.532 Z-1.264
X79.549 Z-1.213
X79.555 Z-1.16
G0 Z5
Y57.438
G1 Z0.6 F50
Z-1.36
X79.549 Z-1.413 F150
X79.531 Z-1.464
X79.503 Z-1.51
X79.465 Z-1.548
X79.419 Z-1.576
X79.368 Z-1.594
X79.315 Z-1.6
X79.075
G3 X78.835 Y57.198 I0 J-0.24
G1 X78.843 Y48.264 F100
G2 X78.355 Y47.296 I-1.2 J-0.001
G1 X77.878 Y46.945
Y35.042
X78.342 Y34.691
G2 X78.817 Y33.734 I-0.724 J-0.957
G1 Y22.685
G2 X76.881 Y20.748 I-1.937 J0
G1 X76.874
X73.757 Y20.766
X73.703 Y9.583
G2 X71.928 Y7.803 I-1.725 J-0.055
G1 X71.184
X71.2 Y3.131
Y3.127
G2 X69.396 Y1.419 I-1.711 J0
G1 X54.271
Z-1.2
X50.671
Z-1.6 F50
X35.53 F100
G2 X33.771 Y3.127 I-0.051 J1.707
G1 Y3.128
X33.779 Y12.084
X23.415 Y12.086
Z-1.2
X19.815 Y12.087
Z-1.6 F50
X8.251 Y12.089 F100
G2 X7.912 Y12.138 I0 J1.2
X6.288 Y14.446 I0.64 J2.176
G1 Y20.654
X3.217 Y20.672
G2 X1.208 Y22.683 I0.004 J2.013
G1 X1.183 Y33.68
G2 X1.658 Y34.64 I1.2 J0.003
G1 X2.122 Y34.991
Y46.97
X1.645 Y47.322
G2 X1.157 Y48.289 I0.712 J0.966
G1 X1.165 Y57.23
Y57.244
G2 X2.981 Y60.089 I3.2 J-0.041
X3.501 Y60.207 I0.519 J-1.082
G1 X7.48 Y60.203
X8.78
Y65.384
G2 X8.812 Y65.661 I1.2 J0
G1 X9.025 Y66.559
G2 X9.121 Y66.821 I1.168 J-0.277
X11.98 Y68.584 I2.859 J-1.437
G1 X24.18
Z-1.2
X27.78
Z-1.6 F50
X52.18 F100
Z-1.2
X55.78
Z-1.6 F50
X67.98 F100
G2 X68.239 Y68.556 I0 J-1.2
G1 X69.083 Y68.369
G2 X69.33 Y68.285 I-0.259 J-1.172
X71.18 Y65.384 I-1.351 J-2.901
G1 Y60.204
X75.864 Y60.207
X76.551
G2 X77.1 Y60.074 I0 J-1.2
X78.835 Y57.229 I-1.465 J-2.845
G1 Y57.198
G3 X79.075 Y56.958 I0.24 J0 F150
G1 X79.315
X79.369 Z-1.594
X79.419 Z-1.576
X79.465 Z-1.548
X79.503 Z-1.51
X79.532 Z-1.464
X79.549 Z-1.413
X79.555 Z-1.36
G0 Z10
M9
M5
M30
