(1001)
(T3  D=1 CR=0 - ZMIN=-1.6 - flat end mill)
G90 G94
G17
G21

(Drill1)
T3
S8000 M3
G54
G0 X64.155 Y11.61
Z5
G1 Z-1.6 F150
G0 Z5
X53.132
G1 Z-1.6 F150
G0 Z5
X42.159 Y11.636
G1 Z-1.6 F150
G0 Z5
X20.137 Y36.604
G1 Z-1.6 F150
G0 Z5
X31.135
G1 Z-1.6 F150
G0 Z5
X42.159 Y36.655
G1 Z-1.6 F150
G0 Z5
X53.157 Y36.604
G1 Z-1.6 F150
G0 Z5
X64.13 Y36.591
G1 Z-1.6 F150
G0 Z5
Y49.101
G1 Z-1.6 F150
G0 Z5
X53.152
G1 Z-1.6 F150
G0 Z5
X42.159
G1 Z-1.6 F150
G0 Z5
X31.161 Y49.126
G1 Z-1.6 F150
G0 Z5
X20.163
G1 Z-1.6 F150
G0 Z5
X20.188 Y61.623
G1 Z-1.6 F150
G0 Z5
X31.135
G1 Z-1.6 F150
G0 Z5
X42.286 Y61.547
G1 Z-1.6 F150
G0 Z5
X53.132 Y61.648
G1 Z-1.6 F150
G0 Z5
X64.155 Y61.623
G1 Z-1.6 F150
G0 Z5
X74.696 Y57.051
G1 Z-1.6 F150
G0 Z5
Y54.511
G1 Z-1.6 F150
G0 Z5
Y51.971
G1 Z-1.6 F150
G0 Z5
Y49.431
G1 Z-1.6 F150
G0 Z5
X74.671 Y44.833
G1 Z-1.6 F150
G0 Z5
Y42.293
G1 Z-1.6 F150
G0 Z5
Y39.753
G1 Z-1.6 F150
G0 Z5
Y37.213
G1 Z-1.6 F150
G0 Z5
X74.696 Y32.413
G1 Z-1.6 F150
G0 Z5
Y29.873
G1 Z-1.6 F150
G0 Z5
Y27.333
G1 Z-1.6 F150
G0 Z5
Y24.793
G1 Z-1.6 F150
G0 Z5
X64.155 Y24.132
G1 Z-1.6 F150
G0 Z5
X53.157 Y24.107
G1 Z-1.6 F150
G0 Z5
X42.413 Y24.082
G1 Z-1.6 F150
G0 Z5
X31.135 Y24.107
G1 Z-1.6 F150
G0 Z5
X20.315 Y24.082
G1 Z-1.6 F150
G0 Z5
X5.431 Y24.767
G1 Z-1.6 F150
G0 Z5
Y27.307
G1 Z-1.6 F150
G0 Z5
Y29.847
G1 Z-1.6 F150
G0 Z5
Y32.387
G1 Z-1.6 F150
G0 Z5
X5.456 Y37.264
G1 Z-1.6 F150
G0 Z5
Y39.804
G1 Z-1.6 F150
G0 Z5
Y42.344
G1 Z-1.6 F150
G0 Z5
Y44.884
G1 Z-1.6 F150
G0 Z5
X5.481 Y49.482
G1 Z-1.6 F150
G0 Z5
Y52.022
G1 Z-1.6 F150
G0 Z5
Y54.562
G1 Z-1.6 F150
G0 Z5
Y57.102
G1 Z-1.6 F150
G0 Z5
M5
M30
